plarotta/vision-encoder/UR5_positions.csv
ImageID,Joint1,Joint2,Joint3,Joint4,Joint5,Joint6
0,2.0935171349360875,0.9063120268722917,2.523017513150477,-1.0736830177267747,-2.068639589451778,-2.8799316559374857
1,-2.34912613795103,0.32854746397798884,2.794923199818694,2.4214464158132465,0.23264788817308313,0.9567796303987866
2,-0.7964447405485808,-1.3808140757017735,-0.21194828989800163,0.11371955922429455,1.0001677070366881,-1.3386354310676216
3,2.0442815172795985,-1.948777563015015,0.5502867918474275,0.7969728434789687,0.39414920433181466,1.880019956191144
4,-1.5880741225363262,2.2815375320611535,3.139811467591789,1.151248155358588,2.943369893472137,-3.0395464357349526
5,-0.4779190318358695,2.687424976491977,-2.8449131745170133,1.2666236384576015,0.5952947795007364,0.8903666927573592
6,-0.34945277615884107,-0.24281252368044637,-2.117009768264559,-2.8768691124548718,1.397721288007264,-1.1086975702226045
7,0.21152845618634242,-1.4417393511021797,-0.4600767896995488,2.3377061571927387,1.4594762343994532,-1.3034246506348892
8,-1.5011937083744158,-1.6966060484116938,-1.861577535751429,-0.7458174241815958,2.4788621705269502,1.527665143355418
9,1.9309699529134399,-2.0157448688150166,-1.4003242388887573,2.9279214204675688,-1.8491558808931674,1.1821116171749626
10,-2.8139559251295294,-0.37290029407682157,-2.171079123431274,0.18498462902387658,2.9726039586163022,-4.887465848124606e-05
11,-1.365846792136899,0.42411309375614437,-0.5624315939049875,1.272876122438154,0.004717717453397441,0.43923167901014537
12,-2.7967874269857402,-2.1606761473327927,2.690430853606941,2.0277658737871116,1.7132384398377916,-2.6467247064369728
13,1.1360312110376585,-2.6106380636186373,-2.316729083715211,-1.6876434030584062,2.522575633295263,2.162085468597015
14,0.037291840323874226,-2.8925830435008137,-2.7992895200675862,0.24293975528462797,1.8102733850064379,2.2393596898233614
15,-1.2785836191822946,-0.31855033289049617,-1.5137602360564553,-1.0895097879825784,-0.5383612189712093,-2.5346907188757246
16,2.9129059973473375,-3.0089124373781773,-0.2585653941102195,-0.36770716835258677,-0.5968933163424324,2.2364289037764697
17,-0.2955591560037507,3.1265638572764267,-0.6236113491478572,2.2523169927825872,2.4138407514045594,-1.465163236663301
18,1.2435313931552443,-0.6089758556952933,2.123554429012292,-0.4450267269725465,2.2158389085125387,-2.690773583269214
19,-1.4031557046983953,1.2471401273102494,0.4348950833824605,-0.011625994603133627,-0.21038058688696326,-2.910815515434673
20,1.3876586867794325,0.8215723254127298,-1.6081381102649186,0.021235779989880577,-0.40632419828739463,0.7320271725902927
21,0.4783178523838143,-0.16655520256318246,2.0839134772792756,1.9442887493724221,2.3532268127003064,-1.9904752249270334
22,1.9795949075951302,1.3347059417366438,-0.02334866627351362,0.6515633128225091,-2.480554147178027,-2.270312968560815
23,0.046683562477478624,1.565723918806727,2.5603297012101374,0.0787339398380742,-1.5908949265668757,-1.726382882918027
24,0.632259159466086,-1.248784045695769,1.9885934223032757,2.8702895346678696,-3.1052212437897815,-2.3887565106079345
25,-0.24654085292601557,-2.315303678424394,-0.03387806892404521,0.9832408797268828,-1.6613254381469469,1.778289695458402
26,1.1104169183340176,-1.6790233920935695,-1.0597335497310323,-1.141176419390188,-1.4479520267965382,2.8559391828427643
27,-1.7276767034240295,-0.7414717389218008,0.500740509764444,-0.9828116028012657,1.3657022866016044,-1.7629167118458557
28,-2.390046265599671,-1.0153312510574892,-1.691597295654416,1.1121576977430783,-1.0819812609470465,-0.2341273558082726
29,-2.8946908062895904,-2.9592640734842792,2.3230322500699607,-2.015889851104358,-1.4891070776993303,2.143055034278718
30,-0.33472119061634675,2.8594128499038884,1.5268246439655355,-1.879770492540862,-1.6319498520011388,-0.0616304733722024
31,2.3706473109035056,-0.6544849523497822,-2.0771654238526067,0.4181871338293801,-2.423224012166032,-0.9886716818226176
32,1.0462855208915895,-2.3833403291666215,-0.13574583523195027,0.5585879833495948,0.005597186337523485,-0.1824627702668873
33,0.960819774103947,-2.0299005094387432,-2.8900681642903896,2.417373404528832,-0.9194099573219114,1.5285804487348456
34,0.5698958262305576,-1.4065608196365276,-0.6725421548824757,-0.08917487335681518,-0.4849306115341139,-1.6607700952409818
35,-0.16525142826674522,0.04436587478796605,-1.2440402504139232,-1.555433260170811,2.9766088000827438,-2.3053339610020984
36,1.7608369233383598,-0.7797762627849889,-3.067489253775259,-1.5141699594769815,-3.0101095787582124,0.94322035064625
37,-2.4811594491998177,2.201827162811016,-0.8861103106162695,-0.9576992411051815,-3.137861700682036,1.0546610730631496
38,1.467213346192203,-0.7104191939105133,-1.0678087952734008,2.7495426732254824,-1.4782881930615928,0.14253538741566762
39,-2.737494276279607,0.5505925924556814,-2.924189602634709,-1.8579534466175878,1.4371157856640782,1.6294565206487848
40,1.2542553967984134,2.4462043837803042,-0.15478595002349493,2.0252344322162052,0.5499711966914713,0.29659220830560784
41,-0.49875774295731423,-2.428412153145065,2.0141238096663283,2.0845316415973976,0.22238650581269415,-2.0622372311600126
42,0.45138242808084916,1.3682737275566907,-1.2233857837237507,-0.7038277711803249,2.5714525696370574,1.229729506071786
43,2.3677990087617324,-1.6123828051129585,0.5052868333604095,3.006308617742719,0.48263045419939976,-1.4991325259800539
44,0.8453283360132864,1.526502352361331,-0.8060689266591372,3.0007212658081075,1.1900152203444234,2.260581419646253
45,1.2828956834054486,-0.8636663015596913,0.3044458556426082,-2.439818113566516,-2.5132079245759007,2.881861918238152
46,-2.8788577564524416,-1.7276062566860637,0.5290207840437371,2.5890014255981324,-0.8661911741735544,-2.361975882776029
47,-0.014139189644277739,-0.19605328797190102,-0.5240537083272563,2.8859434385497007,1.0726992518361627,2.3057635427801193
48,-0.716892435361737,-0.45629211319109997,0.19169468059257566,1.2699125305542482,1.0280955635959028,-2.870054392537655
49,-0.3124127251589508,-0.27840557121684384,-0.15443161770905434,0.8553383304906252,1.127052329549116,0.12500340185388392
50,-0.9978364284148471,-1.1821376814379048,-2.1363440531175844,-0.7311753581349345,2.953081677471239,0.14305160096037195
51,1.9456286380448162,-2.857415562174019,-0.19663060761903806,-0.7800617917333996,-2.004426711492181,1.8509738436291316
52,0.5499289220034851,-0.7711832487113868,-0.1543005918010123,-0.744983152794533,-2.917477185129833,2.091688093657602
53,-2.0569793797145604,1.4935338685887762,1.3751927996538367,-1.942251045654777,2.5996953247752703,-0.885579761926603
54,0.9244829987335788,2.7844741915160407,2.044388842848999,-0.2826173365322786,-2.258127017635417,0.3655974348219595
55,1.8394384768672642,-1.9578967646106356,-1.1819153766117962,-1.2667475272064026,-0.3469724419888647,-0.4640113571387343
56,1.8531928579716253,-0.6554061932650903,-1.1190516720858112,1.1942497087550157,-0.7139889181140844,0.7298327956938198
57,1.989759245158961,3.005521400185766,-0.06485703069987947,2.4609042478407437,1.892898695176017,-0.14169170868916314
58,2.2757229488786264,0.42544048571000737,2.115965992904976,2.745646200061156,0.6186937050808905,0.6188138277886353
59,2.132672573646931,-1.801963971828593,-0.8893715482885667,0.1612400035437962,2.6755077118521404,1.9837163082056364
60,2.9672470822535253,0.6369900878291452,0.9391417743262052,-2.940328285758353,2.4529489438254677,2.2886682194261674
61,-3.068527118287253,1.6244660213722195,1.7581475605809054,-0.9677099384716623,-2.7587455094061277,2.9695440416102654
62,2.3351913110067333,1.9362803434893134,-1.4947035146342802,-1.898459113427802,3.070688918263026,-0.5263857832137857
63,1.5736374521513214,0.33272181272881696,0.9299731298286877,1.4805819217595948,2.478161322316356,2.115090493979201
64,-0.10815880606804162,-0.14966665827008185,-0.6961733946487225,-1.0853601271398143,1.0835103121881984,1.6722776315088694
65,-1.9473673714948647,0.19286597157371732,-0.3995365931322894,-2.0366689895947685,-1.779396260638177,-0.2745280175129552
66,-1.9611280659944157,-1.4840325990181698,0.11476703651447595,-1.2076833610512512,1.7123442997364213,-0.44212268784257436
67,0.676874436239256,-1.0533971467544836,2.608356451780595,-0.9102859259861962,-1.5850885678985893,-2.2836599809235376
68,-2.8926784483568104,1.3440195095516954,0.5595861074198192,2.6155452197923372,0.009177986274577776,1.8563712410889863
69,-0.9035210114445755,2.4643543951712186,-2.3342106638654245,2.071680828981444,2.3483431205062413,1.5441241168473088
70,2.0489531342006604,-0.7431027548605815,0.3814534030720007,-0.8812025128099208,0.5025493492623307,-2.3204848512423744
71,-2.310350947945949,1.597999830603138,3.0256543246819536,-0.9326842875843986,0.21706048404412748,0.3024296661750876
72,-1.9578038030202685,1.2597738397783722,-1.5385789785169046,1.183645647249726,1.1314253806228036,2.525688821437692
73,2.7050995126853765,1.89983210172033,2.0816149039778296,-0.6044108346868966,2.2920684055236755,2.1695440911167987
74,0.03603505396776985,-2.6100168955847467,-0.22215202470764517,-1.6351083788986887,1.2385951811859108,-1.5177679776068154
75,1.6619449886770123,2.862430862648501,1.3657701184937112,2.798362436681252,3.027170014674013,-1.6899241107675211
76,-2.8429383975411584,0.9019091008375826,0.05048880145506107,1.6476472641678424,2.4589849719935035,0.8240104961502435
77,-0.9882665262049604,-2.6039834899423226,3.037063420328007,1.5089827555637862,0.26465785206895553,-2.2014193920728733
78,-1.8476454783237226,2.8672257624015876,-3.0380173160739847,0.06550993059764965,0.6683101692203595,-2.43428093016117
79,-1.347541724847715,-0.9082483466312423,-0.6840600740441265,-1.3353070702064758,-0.31642392239752537,2.2706380623505273
80,-2.560875895250924,-1.4622991256074191,-1.7958678530477568,0.37537360246485596,-1.8470214793121125,-1.686821814354214
81,-1.5578001608608736,0.7865415940414948,-0.5911232825399897,-0.022421512325688564,-0.13121276056401943,0.6250875711930974
82,3.0342231128171013,2.4897931048797526,2.8506769727773467,2.121913253205446,2.641194564089676,-1.859058717565655
83,0.09449337809454939,-1.9125471212470038,2.6658684183874666,1.7792437483916466,-2.0249110028122397,-1.8582392901110207
84,-3.08566741246837,1.4079114948740488,2.3886383477102306,-0.765459570991164,-0.5443946456599349,2.2012966996005146
85,-2.114182742860323,-1.978031504224405,-0.11087022506610777,0.1567288074344142,-0.3615000753863016,2.3118825974425405
86,-1.1609406578853043,-1.3597073836479399,2.1561424590053138,-0.7073754531126788,0.6635091023472439,2.1673617349993872
87,1.7217465973218369,1.6900679166655364,-2.1467967859275507,1.7413587343739962,3.0557950701712846,-1.767587258360887
88,-1.58539734709391,-2.965409741943361,-0.7745414830925776,-2.234495124360745,1.580290029395588,-1.5208278453854462
89,2.578505048914047,-1.8932619027193014,-0.11777330748417247,-3.140106247252509,2.9014717162113515,-1.3486549022862202
90,1.8534883240833135,-3.1402059007840717,-2.4375179701950556,0.8357714587574439,2.03369949596157,2.8629655321611445
91,-0.9253388225166557,-0.45132237461991176,-2.2027771837216297,-0.7379184176099933,0.6356178111264761,1.9312927316074964
92,-2.471316115423989,-3.0447614567552215,-0.731333266164663,-0.06490973028615166,-2.0416580557024355,2.9919270248143244
93,-2.9952814401751584,0.02791052815327255,2.06158209746034,-1.2519406282941041,-0.2573865042026351,2.2024583082457836
94,-2.7599293474408246,0.19631981856610192,2.607208600501232,0.0029653928007911112,-2.382813400819972,1.8643954477642648
95,2.8527645948197558,2.750447374321338,-0.8133680039360853,0.061381940006273616,-1.7770387860821968,0.27402422078416677
96,-1.0744016321472794,2.179846392791455,-1.794216946842681,-0.21316612398596568,0.6812687737791578,2.3312968248269756
97,-0.21814092978082522,0.9370466192461189,1.721541630646132,0.8862206283275986,-2.961225975930286,-2.503247796489462
98,-0.4112278677534875,0.31646737859239504,2.72774139337608,2.9779297420286284,3.067027022396114,-2.102863178440395
99,1.981801611843113,2.7394154093084397,-1.0581938295475615,0.7389017659741173,0.9632795590726557,-2.592791785879334
100,-2.577850444822271,3.025796392957612,-0.5454349452393883,-3.0360175296592167,1.954950102330649,0.9040630190030319
101,2.766222268425646,1.2270134695776997,-2.0335343844149767,-1.9891084511036758,-2.3846876692828824,-2.823264195978784
102,-1.6685586466881694,-1.939618157800337,-2.1698470424968006,-2.345856641859073,2.995988119632938,2.0185947255141894
103,-0.8304642673305791,2.340066472367167,-1.7377126240341287,1.2084949218092493,0.7528688997300113,-2.9172357344352955
104,0.31034539696598573,-0.496802728602908,-1.381566862073134,2.6459647617073445,-0.7024513621833495,-2.9389807272573423
105,2.2715272342732478,3.024262371361754,2.7355917301151607,0.5884919587347808,1.9532186155877298,0.075383729255047
106,-1.5173543956071869,-2.775301863125078,-0.7604175518953182,-1.4285886159566015,-1.1300249118004455,1.2933368416662319
107,3.1204617996856907,0.2756665486444443,-2.5181329856489874,-1.5953268179871383,-0.4468267045284815,-2.798218033505805
108,0.2678001381709536,0.22874387358290127,-2.4440351472110793,-0.568608954364231,2.3889851236592996,-1.743980167942688
109,-1.113508847889118,0.17337676156554327,0.8987493353634033,1.3923143449146105,-1.4391247882803822,-0.8841923120169781
110,0.5841818155825655,-1.9436593772734538,-0.39458029349640755,-0.01795357776265627,0.668288860357876,3.033199996482649
111,2.047959069481749,0.3492783191997195,1.767068018389966,-0.19077508028834655,1.3456003234301228,-2.549424394961972
112,1.5286860952197472,-0.6135909340422598,-1.555405349564754,-0.012783223234459129,0.4815907957303236,0.5996048961324747
113,-1.719776012806065,-0.4425011626169666,-1.693411583455839,1.2780835248446838,0.4550409289465991,0.38180811568501527
114,0.3676881170533792,-1.5444739250346318,-0.4732333848134118,2.182964029207919,-0.4582931353251509,-2.4254460370869686
115,-1.6786021948834717,-2.048851056316049,2.1349109789608214,-0.16839324713905235,-1.6053811985450561,-2.9739543135416704
116,-1.772178965365244,0.695700283587644,-1.8557344750796247,1.197211411631896,2.622726558785593,-2.5601267650863866
117,1.7878342827295697,-2.155262867171107,-0.532297496428467,1.5270460638032963,-0.010821618681843503,-2.108843065769147
118,2.1452590821899973,-3.0442144619963094,0.7531810668193999,1.3158480893604008,-2.958631257767986,-0.39635296029532263
119,-1.9302702621653842,-0.6870580708825615,0.2877228629208406,1.5423838836159014,-1.1766578185351542,-0.8285339609184521
120,1.1700073216030509,3.1051818158766746,-0.2329705813667382,2.8959839616041583,0.28129956777711707,1.5301253224400657
121,2.436971733518962,-0.24923040671745333,2.5945143393654417,0.29223513482319863,2.207859956905147,-2.7134281774185705
122,-0.4838531245223914,-1.618628587957628,1.266974066584373,0.6289311262562989,1.7698171788297072,-0.38901017561665086
123,-1.7217595007843283,3.0001269406349245,0.44953988202547457,-2.376249692205252,2.9274404775747564,-1.4537570357965115
124,-2.2156487849773043,0.3300702753564013,2.673764663421668,-2.893256402544123,-2.7691604748571685,-0.4094199204034874
125,2.826525096038055,-0.5671145636110535,-2.1585425644485507,-2.1250492431674197,-1.3975493507255305,-2.4376283643822703
126,-2.1344897004930954,1.210121409557674,2.0677328387170766,0.6558646548181759,0.39489797120311954,1.0598754022736925
127,-2.2270269697500145,-2.3231372263334555,0.9907814797049728,-1.3019065401811434,0.32730460363873615,0.9720642991284487
128,2.820887798609836,-3.086659974561635,0.8792821957901023,-0.0877258823879421,3.0771238094340188,0.20456595781104303
129,2.524848303339633,1.687230000395271,-1.0472697263015882,2.7483968182007086,-2.616261509316768,0.8041931493140999
130,1.5936928446246075,-0.46273135842170543,0.46351097896558535,1.121778219655135,-0.1506691019890818,-0.4301706063052846
131,0.2577441966357985,1.405601270512447,-0.8205170971841516,0.46571301646845287,-2.383057714874838,2.1066976262888106
132,-0.464827034641925,-0.39806012534994784,1.7822443296869812,0.19575141806475438,-2.2901088456406615,-0.7250336886032089
133,0.5486692219389417,2.6713464186104057,-1.9518242468419291,0.5723828241289879,-0.651708454344825,-0.41152317868630695
134,0.42226799415118865,0.0029501916372285386,3.1406502578636193,-2.2504121473922787,-0.712369575284856,-0.5308030802872663
135,1.9582550177309006,2.4381776524489975,-2.9052326384680436,-0.7132860550854163,1.1150288154733259,2.8302716827790873
136,1.6223979437713192,-0.7695151707683743,1.181188732598267,-1.177216896498171,0.45670084210657746,1.6300484980836316
137,1.294269998022063,-1.9470778650340754,2.664148419839993,-0.1431457449540403,-0.6275175759187626,-2.2212185127950534
138,2.951422657751497,-2.755878745206255,2.99492386641365,-2.086858191825397,0.12686871066728633,-2.689590332918454
139,0.4160792918631282,-2.675383799620305,2.108757065777959,-1.856594715013268,-0.18397985373963577,-1.3838830614049875
140,0.3915810245011495,0.2675596616139604,3.0278170721324544,-2.7291971995131843,-2.254269697878687,2.907532963231681
141,2.684365677250323,2.516539048153149,-1.9514282081813428,1.940462115086075,-1.4015733352517925,2.126159178096504
142,-2.0629180012253547,1.9689406670539968,0.5462237552899238,1.7579655572038355,0.8739417272411707,-2.552136699688563
143,2.2607549786311676,-0.5345187492868693,1.0671994303213044,-1.6647705969745648,2.135104660651633,-1.7417709745161334
144,2.228899022990226,-2.438221562055076,-2.971640826918016,2.2498790213503,0.560363004993429,-1.5671277991711097
145,-1.3561797825297728,2.7350512592306133,2.5053042526161873,2.6394418208183996,-2.049223202397176,0.9473885063730743
146,-0.47740577800442985,0.6392895927560827,-2.5621068852143773,1.1031958824105654,-0.8115926524462114,-1.5503369014342427
147,0.5189086934070346,2.143793399899325,2.122573951548489,-1.0779612492831627,2.7231662284248195,0.9621327512080295
148,-0.02007730519654416,0.2829759280509152,-2.8780552025228,0.22145537934278403,-0.27777332989312464,-1.7644114128108952
149,3.0003364993010013,-0.6170669345952358,-0.4637348994682182,-0.946525571104547,1.7215927147959542,-1.9394870822830617
150,1.4054835687517144,0.8199608056446248,-1.2453361905128635,2.3055010853373252,-0.09381177634288518,1.4720047053117433
151,0.15521141075085643,2.7325075059150885,1.5749811048240794,2.398602470407318,-0.05446569665878398,-2.1189653853693757
152,-2.1798686654777444,2.247816392810348,-0.3836646087095632,-1.8042456951935213,-0.7705871220665719,-1.8382030166934518
153,-1.0858997763979565,-2.2473007594895305,1.4259880194015961,-0.5926042580990991,-0.36936184702974995,0.4111281181179627
154,0.32205116758185826,-2.267638886196754,-2.137716337202874,1.9424700879627341,2.577288942522822,2.591966632411406
155,-1.7087469695854482,1.8703898721522796,1.5319266326197365,-1.657731600477406,2.321567187220494,2.27266411530265
156,-2.1273750089801977,-1.5091121982608948,-3.0644295375281896,-2.6661103854900032,0.6036979643125466,0.44529252997899693
157,2.1820972193468533,-2.05199949167568,1.6257143765617084,0.7157227740784076,-2.915343544343377,-0.9490473614733523
158,-0.12030969631237554,2.637593511869186,1.9380111622585385,-0.4355539158645767,2.372334963276236,2.2820953419553733
159,-2.8629400891798507,-2.0099973603919303,2.382540981448977,-2.7939766694069355,-0.8100492422651246,2.478670893019025
160,1.3479884022801736,-2.8181572479275685,2.55232609502597,3.007413900372743,-0.07715982433245516,2.7748706988340315
161,-2.6171416324401724,-1.3892994860441588,-1.7214552348841083,-3.0548910028142626,-2.7092659073027328,-1.874584555562835
162,1.3980981307176163,2.5677125396401452,-1.4268909359411976,2.029496825361803,-0.5375826505889463,-1.685535779691428
163,-2.427239655145556,1.8777708696099715,-0.061209930202913654,0.258294009525172,0.31713634502715893,-2.3277595203833776
164,-2.154820208890439,-0.3964187475207397,1.9417999879933534,-2.519632981333166,-0.3073039386068799,-2.631654723785342
165,0.3875509849167602,-2.1748897325395204,0.8107763914928059,0.8506286381297108,-1.5709596953500424,-2.000624596597432
166,-2.2767935544028295,-0.051388800371118926,-0.9932565436433234,0.25174808420095474,-0.19954402890968437,-2.3651994727094423
167,-2.450629579733959,2.8454976917476404,2.2676415197312334,1.3712142509328853,-2.8537347725131537,-2.188719319213412
168,1.6231546057955244,-0.6792152848867503,-0.75774227289422,-0.16426161348941726,-0.1323160950847,2.2301078107461523
169,1.9969335250591724,2.561866743081649,0.6524624890380362,2.7327145297137774,-2.6320976033921086,-0.6216925156538666
170,1.792245186608013,-2.579188708022456,-1.7985060129078816,2.3620661208266185,2.831957321769255,-2.6368692163550227
171,-2.068464933818214,-0.12931550992022922,-2.8218747770648975,2.494505167266091,1.6644347130225086,-0.5823091936438023
172,3.034138312391957,1.8793268444189613,-0.7652354401770087,2.861373072338835,1.8739523548060886,-2.082775161239235
173,2.543493100949169,-2.8666416685097555,-0.5275216648746954,-0.18035061966915045,-1.8061601362715716,-2.2246225339480183
174,-0.24685501813558774,1.0755378009679788,-2.0629077500377955,-2.317090841057858,-1.0408550498059737,0.9333751942630455
175,0.2969587805579734,-0.15121664333831797,0.7807960956493605,0.7236915455634709,-1.8409143944746413,-1.9408817027504552
176,0.7157849940967966,-1.7165893852264744,-0.903664309591552,1.0160579871823048,2.2648528487640176,-2.09057682557793
177,1.9841561119497229,-0.34356150456522405,1.0754955826613255,-1.8011270544604105,-1.7577470131817756,2.828994613515442
178,1.2142292442569333,1.6619926450955465,-1.8847627333790964,-1.2878671938513993,2.3835074809709287,-0.18554238178200455
179,-2.0458715889563543,0.5412488103598223,-0.710735216002174,1.464569863050449,0.46320526052020083,-2.2209908558705025
180,-1.8979462607763966,2.877814678275656,0.3034206602365992,-2.39380412357827,2.765688072870855,-0.7950590786277218
181,-1.5867277585032822,1.5620177067149816,1.5676711404796926,-1.8353961638597232,-2.6963421464301343,0.462738849948932
182,1.815282507376378,-2.60712282159022,1.3582048613390159,-1.9494649743782986,1.8034588089659742,-0.7227947581424945
183,3.0110296149646167,1.1225844495417876,2.65733302193215,1.2919723808834576,-1.2844921695653255,0.664146729982396
184,1.0413756888181434,0.21673765042066995,-0.15973684171144464,3.070486495770921,1.3233842223577446,-2.4706317564419678
185,1.6785740392182147,-2.856368081274388,2.5259634885261075,1.6779750662642883,1.6904075127333646,1.4901143097892033
186,2.789858619589359,-2.607920712100975,0.9817819932393368,1.272842311619363,0.2960572354881532,1.624348126342051
187,2.120645772935271,-0.2834502490011408,2.01146710097958,1.9840450971095036,-0.3736839458577017,-2.9648164083800967
188,-2.027424429730325,-2.5555918104451494,-2.878971009584545,-2.1273701692073383,2.957471608259783,-2.8078235302696974
189,2.8676404607792696,0.13653326799149879,-2.203770719861102,1.5306750879521633,-1.677159464968381,1.5245571564141773
190,-0.8811467377197291,-2.4751571659768907,2.9060867963302988,-2.5959896804717264,-3.115222776624181,-2.5381923166956417
191,3.1125124384196754,-2.8004548204751476,0.3016783386134181,2.2411523617329694,-0.42603634554968206,1.0685827404889716
192,2.1405255114049755,-1.9222134343334598,-1.524190371585997,0.21200937229175265,0.6158201465080402,-2.503465612751668
193,-2.37685193333852,2.387731445623391,3.0984877853277553,-0.2866230674020813,3.0669454975374713,-2.007537929182169
194,1.9733787401775658,2.823994855408957,2.6046846730322404,-1.0637742079109795,-2.477878975101465,-2.5988780367587374
195,-1.2989493868521649,1.9322043399667912,1.3381192892790796,-2.2270145922649034,1.9346315828353964,-2.881677799072353
196,1.1161353336422186,-1.5345364829165533,2.300764602262845,2.913317080048813,1.9491099366731826,-1.8852896295707193
197,2.7331536511606425,1.2073018292852291,2.9321132604435354,2.630539119500952,2.6395637802634964,3.0268438098743813
198,2.112806126669043,1.1071389154525129,1.1201936848655318,-2.8389502486033784,-1.814909067287994,-0.665173239090588
199,1.0596188779187763,1.058439266378631,-0.3243571276870987,2.193259885084073,-2.691095267976103,-1.3291728888910403
200,3.138051049348423,2.9434654659632633,1.4588988358020636,1.0981714419156843,0.16008841930210327,-0.032373932971561103
201,-2.5603950169495504,2.301656241381205,2.408731403392987,1.0955587582937962,-1.7819097767981338,1.983579848038742
202,-0.23246734520635925,2.740427477394795,-2.574500562267532,-1.2246689231639711,0.3406075604394587,-1.2876569420513175
203,-2.8492147271958235,1.73371784506923,-0.9239547637019005,-1.4696190839080339,1.8834458814522845,2.069969945078597
204,-3.0944534356839726,2.388958088344327,-1.2379482490893676,-1.8505783284409238,-2.6690894833186265,2.875718415247122
205,-2.553126736539082,-3.0419900474111174,-2.959883514551706,2.2261118888902987,-2.373181965764341,0.30388277434283495
206,-2.0372846959700697,0.7367547759068307,2.7588401696372102,2.107580593855669,1.762201738852756,0.5609291764131417
207,-2.9267412039671603,2.3981014448854525,-1.0741450191695843,-0.9147746540230259,-0.32078370708668524,-0.020257705523335723
208,0.25789187791914303,-0.9541302356619021,2.123292621622035,-1.4180597150499157,3.078036127472009,-1.5053616852142497
209,1.612916225887103,1.6478777840884469,0.8910634210447252,-1.5382954828296933,-1.7168005302348854,-0.29943480590055094
210,2.793303838513461,2.3931095845478065,1.8193134650149405,0.7444459134440193,1.1588534470792338,-2.977374062804853
211,-1.7275664424487116,-1.9091559665726419,0.7480011981007935,-1.498672702683985,-0.5241421761406881,-0.7651689436772879
212,0.9056364663045509,2.204747739145896,1.5018575610611302,-1.9668339608213383,-2.7124386586102207,2.0959713852852184
213,-1.0609544937434672,2.801423808003202,-2.9856217364417135,0.005221536894043144,-2.4675379670347133,-0.5244421379120423
214,2.5192065822893968,0.5532219034263082,3.1353578656999748,-2.8671482921328026,0.5087819110372904,-0.11632886837951162
215,2.287183041797518,0.6074439586123908,-1.376930119304283,2.473414108528001,2.4188311346958846,-3.030008379335456
216,-3.1373426236061563,-0.251807617811588,1.4505482338662539,-1.0064267380804122,0.17820977219013168,0.7020532478454538
217,-0.29210453584173823,3.087676947868718,-0.917343192505145,-0.4659194577928738,-1.5277493634511776,-1.8742684666488856
218,-0.08052185157923519,1.306701585309515,-1.124851309729317,-2.2133234081246567,-0.19052486204037367,1.138412357021724
219,-0.5033964920870009,-3.1104828931075414,0.6736139679597675,-1.26599764517323,-1.7115073638154579,0.8364003062526346
220,1.67633205503713,0.78681035854046,-1.5491712477553838,1.396575969253444,1.8615090141879138,-0.7519011750308002
221,0.793535128810098,-2.3843825406353374,-0.03227357892861216,3.0484727568770253,1.8210415091417191,-2.730541804598592
222,0.08027447292679257,1.067623806844856,-1.7735822277210156,-2.9125187723902464,2.5515593130679672,1.7665540832567723
223,-2.2839407281966557,0.22075119589554815,-0.7948199914077523,2.809229643010088,-0.4886349473371081,2.9575620205096156
224,2.0662494669504996,1.7700340439495514,2.0047580419251405,1.9236552116470138,-0.768015685239614,-1.732417674217656
225,-2.095747255847326,-1.338444529819901,-0.47505632499068007,-0.025000714871724394,1.974473817970737,-0.6034855791549907
226,-2.6354081750265017,1.923786235159569,2.3026408792493767,-2.8844326839612218,2.6390831804558292,0.15482186346332094
227,1.2521856644029388,0.7151725324984226,1.4385293780837953,-2.850244956170757,2.6308567526633606,-0.10111043284179733
228,2.833761812486493,-2.8895735321809504,0.6168021317701942,1.3545639639652745,-1.5948079281139311,-0.15903314179433892
229,2.296415910632107,-0.3853818859199274,1.5560544220437107,2.4206187361420213,-2.5716805254628126,2.650596291153663
230,0.5298152576959549,-1.6393385289468083,-1.1139073430512512,-2.3130104901477795,-0.9716221391022386,-0.519552846896091
231,2.34088698564646,-1.4858678540572534,-1.8506898203957904,1.4500495637368784,3.0251341370314737,0.6322082903362798
232,-1.1461142657132126,1.652121302724539,-0.15272345924397257,2.1620050042864856,3.006880345411113,-2.5774336879350748
233,-1.146536523191441,-0.6765810490352564,2.7698850679987252,0.6043116068672956,-1.3907593210531455,-1.1247048069908092
234,-1.3235309169601535,-2.4306772157322487,-1.1345263657984117,2.296584908277757,0.1010610954642659,-0.7294672891076077
235,1.5423857787815223,-1.5538244897345435,2.5808178178383976,0.6967425186825098,-1.5638057098573825,2.7265011707171576
236,-1.4980667610013458,0.5205047979734454,-1.2336739194167314,-2.4941713971541417,-0.19674654725151441,-1.2138879176120008
237,-1.1666312135506647,0.8921852126038505,-3.0242762859741257,0.76355731153973,1.6551865158723276,0.18789447072929422
238,-0.9453637870597542,-0.11028670926084905,1.6902175658508796,-1.3669409905750907,1.9572738516795871,-0.510403593059972
239,-2.233018316121517,2.337780099369401,0.9425836099582083,-3.1305116792417347,-2.4155416101079177,-0.9487111878640642
240,-0.3181207219558133,-2.0415722169569683,2.922163856116298,1.6441965996143164,1.5196137969511705,0.4666003496146547
241,-2.9825432897828317,-1.1365821831395753,1.4291023357069434,0.8950432338851133,-1.1459041629306586,-0.24241852961658994
242,-1.3554371845294861,0.6590658348641307,-2.62552631453782,0.6463581869163986,-0.7575159844328465,2.562871220247592
243,-0.9430077867185647,0.8253450844038714,-2.871269441642073,1.5869160331500414,-1.114359054819869,-0.9235437835388045
244,1.5467416751012344,-2.258042252158959,1.5341295984479952,0.3842364858181955,-1.6509341055624034,1.023833587303784
245,-2.0104046915972735,2.3404291042986296,1.3144341806171989,2.152170941013667,2.1761630381896575,3.0452894353908553
246,-0.7336754850300631,-0.8688716914887742,2.1552578333621577,-2.022000160766705,-0.9760124702522934,0.4872443525167469
247,-1.6524437274563366,-0.06928526867081564,-0.39648596354765253,-0.4721811125483004,-2.438361133418078,-0.059195453768076334
248,-2.934362794178148,1.975696340870389,-2.2600619888868954,-2.4373692531599045,0.369393172307646,-2.8352530716895554
249,0.015627508284760783,-2.651642070194436,1.5865346770635176,-1.8670899703768176,-0.14473979610726095,-2.459995930188711
250,1.011684462401921,2.4054940770235262,2.209691780358991,0.31414256890656356,-3.1407652854158554,-0.6305743308060756
251,1.73088239214401,-3.07130747021477,1.8476547261466845,2.973303417988209,1.8491580597961335,-0.41608503842506517
252,0.03513694984176263,-0.5063609932164717,0.45957112449769966,-0.975941025832824,1.7967706394564171,1.0164106026711952
253,0.20933868939842792,1.2299079753669488,-1.208820435333022,-2.6315189160191776,-2.666216199231822,-2.6393214398189615
254,-2.2509334705878388,-2.9964609975895273,2.892718330745746,-0.7583323909544122,0.05386156618105886,0.3541501052165317
255,-0.41738638881519474,-2.482826102505608,1.0460523311795633,1.2236083940434472,2.0765620231676962,-1.485021775899525
256,-2.4438720104022535,0.05983140014485988,-0.2359217146152992,2.5999008424439403,0.23807492198041036,0.6930709052685535
257,1.4094772874597536,-2.7003279590041362,-2.2448272651612453,0.5311139669370815,-1.3369317361109967,-0.5706765997490071
258,-0.46597670277110037,1.3368414388517627,2.715409557355769,-1.4669565893821375,-0.9788274410914113,-2.251554600666744
259,2.9033458541622847,1.6059697442547867,1.4022250249617159,-2.102609269832039,1.5218724875548277,0.4872934059034568
260,2.403123041911668,-2.3835213203444674,-1.0858093253766663,1.738267748431948,-1.7206180276666818,-1.7567981822857346
261,-2.889964965787242,-0.07410441103498888,0.8098329035902356,-0.3023482179399184,0.07225882733442202,-0.057963327461777236
262,-2.2285899821734083,-0.4822613995525997,1.5839960514413391,-2.6161531333636896,-2.4045936522880864,-0.5404361604086505
263,-1.1511179223848271,0.03822210152345917,0.25654668237655587,3.0008866899229174,-0.3049321019024136,-2.8295243270945645
264,-0.27625784705652334,-0.4534920457936016,0.6792895569398336,-0.05293637633702852,-2.660346031361276,-1.709607482012642
265,-1.9661563983580967,2.2553691512789014,0.6528730096578181,-1.0614225903700731,1.0358738564125343,-0.603121132315735
266,-1.283249857650434,-0.011611612657805637,-0.2061799377267879,-0.5094083641884035,-0.10156581783431085,1.159333171060414
267,2.673977822991981,2.4397965461716558,-2.731584043389089,0.4448235159859024,-0.9854472508062626,0.2841366983645708
268,2.4204435413815633,1.439964126459162,2.5676041915066214,-0.4706715633018663,-2.840932993635012,0.7518244328888231
269,0.08410315189870454,2.0444441027714664,0.9650766089507457,-1.1965814008500117,2.2637567507342986,3.117814167349205
270,-1.0238300682077268,2.2130145343366845,0.586024069921518,-1.9233839509453614,-2.682004129613224,-2.4002354080677715
271,-0.1647149918702593,0.1834714537785822,-3.0251051778257634,-1.1806753202467686,0.3315309222954954,-1.991600690779221
272,-0.7406545317642004,-2.144368910096161,-1.6737476241104032,0.7051741488963112,-2.814585826515507,1.7821811596637769
273,-1.483419631480756,-1.841897724102337,-0.6558038252617386,0.5371394598511303,0.14276585167963907,1.6522442378547089
274,-1.0534246143164046,-2.827657532598983,0.8964404107588093,-0.8478290163087361,1.6189334977309846,0.9836607429927637
275,-1.3291319883075057,1.328583165638464,-0.3722898324399653,-2.3448197286358132,2.339090169414888,-2.99798167857725
276,-2.99781046406169,-0.06556025292171652,-2.6004300354034267,-1.6659045458012447,0.7880414064981247,0.9221222967377569
277,3.0246337578167237,0.5661297830742935,-0.9327422130295311,1.311872507221949,-1.2081910863372236,0.3499634797696056
278,0.4097243685346763,-0.10958528323718175,-0.28464048190207203,0.6117209879179524,-1.1297074998204621,0.3012643910444117
279,-2.059471288130771,2.7677254802041036,-2.289527213663254,-1.9309581829033353,-0.027918667265381725,-1.726122080104767
280,2.633537368057241,2.0990585455741284,0.03222653833269051,2.9399132350681567,2.854443248530714,1.8615807828352047
281,0.6815241412926167,-1.0274582131328756,1.3371292029885948,2.263165051055351,-1.6902529289734811,-1.524776141612355
282,-0.30732263074633437,1.7583775103591384,-1.8040317066198819,0.9068362251217152,0.19256814001993883,2.4874863144322275
283,-2.947549811111548,1.578608520571879,-0.21233507232260473,1.113786236103362,0.9970992425559313,-3.1100243147453224
284,-1.0126063728710548,-2.9070471961627176,-2.099349893797364,-1.3185886819084085,2.9012786357230436,2.6036627138818718
285,-3.064341853736624,0.99104081107021,0.3698352649339429,-2.587811332150049,-1.0024861996381431,-2.768582838270307
286,-2.3796282792413357,-2.3024780473467974,-3.1143831886595357,-2.320130123300899,-2.5082251522906285,-0.9168218784537645
287,0.8223636524325024,2.9706359780890983,2.1638259928953083,0.8384375272443543,-2.490345063651856,-2.26836890523669
288,-1.3321950444808404,0.8938670185358975,-0.8378115935556583,0.9779425673069415,1.7558255952286839,1.1125958299951257
289,0.10722760839464307,1.121416740983019,0.8547227902939336,0.2779160056287875,1.8183592859404465,-2.6295526708727675
290,-0.4449813997431993,2.3599186182249987,0.7154742056620718,0.8298378129148247,-2.158563159641415,-2.298635805567467
291,-2.9652111304614968,2.83824251668496,2.7836882810625285,0.2600022594082869,1.7542244069548518,-0.21495697329069197
292,0.6343186921765489,2.6638474818418256,0.13611809206561487,0.8355099619820932,1.473330468280965,-0.6967403344780676
293,-1.553974172970323,-0.47420229075773834,2.1211441391787327,0.2845419895820469,-0.5616698048472548,2.2674250683985218
294,-1.5730754907652413,1.2474283830507682,1.4765391170304643,-1.3112870181333176,1.7128832964458374,-1.4869382034926542
295,0.7966137504666992,0.7079878971060731,2.0745302278815707,3.0892693265939233,2.1813676260415154,-1.6921562698361272
296,-1.5871885275698658,3.0527372948930234,1.6101661975134585,-1.0360682527372336,-1.77876786694514,-1.1652563699244842
297,-2.853128393594785,2.947063193774002,2.8592248532777065,-0.16398064102569077,-0.8911994670510133,0.6280622029219427
298,-0.9843169607985578,-3.093643633362293,-2.2407730560358563,1.3187952044279676,-2.830241007181138,2.175587005490841
299,0.7689851279772397,0.3830716101324172,2.0419970418591813,1.5097113786707421,0.3041677936956759,2.5973141862149554
300,1.121736587136703,-2.235232653222373,-1.0321625881441747,-0.5794271523071428,1.8754406912376016,2.7894210851453787
301,2.6390240011064785,1.2659590596767973,-2.8689278255709145,1.4536542205916811,-1.1807681332309967,-0.6611375755179587
302,-2.0322308858597697,-3.1279000868607953,-2.547519217080355,2.736462981516495,-0.8425352315805936,-2.086577266288757
303,-0.37938814426784573,0.5426962687413286,0.11672196307871285,-2.2210512802454536,-3.042563073362435,-0.7254584087620914
304,-1.8067434972296346,-0.31467774525793546,-1.4672088230178955,-0.6307995786318874,-2.474913134638669,0.7635683991156004
305,0.3398507217645488,-1.4190868228972264,-1.6017605715342018,1.3418774231042851,-2.0629370497328967,-2.4097548439570553
306,-2.9938249151438914,1.7215708048061575,2.8757359670554026,1.3346534161131496,-2.7751428057670493,0.44636997840535786
307,0.7507492188973428,2.6969228831255716,1.6422507235407826,-0.5340999717131463,2.261352501547025,0.7510064774658622
308,-1.1704425004676169,1.670417412661238,-2.298397882074976,-2.9926817773865695,-1.2228376017292562,-0.43169149106301097
309,2.615346632226202,2.0362560224982227,1.6438993027835922,-0.2620731337412461,1.0140417288401506,0.7351216638548914
310,1.4465370698567508,0.5260513066323327,3.0052943185776178,-2.297532247349218,1.6695837475836157,3.070580060765404
311,-1.2463058505484932,2.103073216035824,1.0391970015846264,-2.37516204361345,-1.0581563912027958,-0.20657362007381508
312,-1.4177444544394242,2.4797776856575657,1.9890596164156573,2.1085581917974308,2.6338985648304787,2.9213260547093265
313,2.859992695874001,-0.20529293239768043,2.4755315444490407,-2.8942713476251236,2.2750772989999533,-2.7202313820378916
314,1.804065979765971,-3.0972972510467964,-1.484000191928244,2.924777902198022,-0.32941406921045546,-1.869602562094643
315,-2.521875347680221,1.8975763413070492,-3.135610324562007,-0.8168036491848212,0.13919738603319898,-2.0416102366360116
316,-1.911780387578588,2.051677333897481,0.6621424105114544,2.870156561280602,-2.6480980834368095,2.2854289661596985
317,0.0476610206755379,2.2063285770874916,0.5419380469121071,-0.8047711406533034,-1.5119982879809344,-1.0692386698726013
318,-1.3823029033669816,-0.013769016767258613,-2.2238264634876366,0.6745248723501809,0.26756735107585694,1.2142236479354809
319,-2.3519943180785967,-1.8656824863306503,-1.351969583267828,0.20758047460227402,-2.1582422326383557,2.9233059537053823
320,-1.73856863005268,0.701268909866398,1.989748749423108,3.013928522036564,-1.936365721386409,-0.703477427889049
321,0.653095805069182,1.5912013049089158,1.1553153848328783,1.4270296176282704,-0.0848057303248555,-1.8338521436955928
322,-2.052473954205691,-2.8974597394720676,-0.1505197471040698,-1.1126931492908296,0.5120521684896362,3.106251995240636
323,1.7716434150496019,-1.2125648517570138,-1.7539985136365517,-0.2856604482449705,0.40431599838780574,-1.0290148556771355
324,-0.3251200236507823,-1.8537681905978871,-0.39333467035929504,1.5158553507698285,-3.121724540601857,-2.5058685624542547
325,0.7376953107583608,1.3474402087674777,-2.1033872132071103,-0.28934073754244194,0.5238285406662802,-2.5044407454864137
326,2.4197581781561652,1.3282453406832948,-0.31732437001214553,-0.7706825786100722,-0.5657932396134773,1.8209121352918771
327,-2.1296816778355443,1.9434956516780826,0.3069986905638107,-0.07957287507756483,2.291138377347769,0.1261850351760243
328,-2.5942750893302446,0.34801758316343223,-1.6976664496282925,0.04912390235011044,-0.742277020796827,2.173194929156602
329,-2.488459658524482,-0.9535901911451976,1.996083367628108,2.9418472592053266,-0.3091974131004549,0.40195913560963303
330,-0.524050017523757,1.3952284345849453,1.974202748961952,3.0739079413992316,-1.4674179814252029,1.4390890517232648
331,0.8206989868778125,-2.462545880221281,-1.7871474127772669,-3.093208574573956,0.7107467701778112,2.0072000629398126
332,-1.622646141831872,1.0256914266215755,-1.765783632913167,-0.37577575437690847,0.5960777640616315,1.4762334431053432
333,2.1473195716122264,2.2710985915764725,-2.87715410103182,-0.7303362789301788,2.0926122436877037,-2.523102609572858
334,2.2106298242320754,-0.6610028521931843,2.57788027970902,2.60137216365651,-0.20989096648852046,1.361496165135926
335,0.7854524172343043,-0.6008329026598509,-3.0035410725943037,0.4342952898261947,-1.6117806650036512,-0.8223305053127015
336,1.7952227044626756,1.3633496011297268,2.12184981219729,-3.1384784639806296,-0.1433310394993157,2.07169047258703
337,2.4080175633322263,-1.0645002332722946,-0.6815946032948004,-2.0480558538187577,0.36760802328258535,-0.5351085674038685
338,-1.322795240465633,-2.478445559852031,1.4604428202540438,-0.21903029241089955,0.9663066901652693,-1.6874674074381422
339,0.4587522960163781,-0.6541648011076724,0.5911078756321522,2.542948037553196,0.7636795137884582,-0.983860880817657
340,0.40031563473903375,-1.7755680486324132,2.1355127512196654,0.36770505250986174,-1.8982007963905028,0.7812117655740725
341,1.0697727401450923,-2.9098273638709595,1.9139994647569951,-1.4439827339067244,-2.095096347748714,-0.7563354541034002
342,-2.589895203927319,-2.688057922449787,-2.3098388768728277,2.8980797677730576,1.0566098603135234,0.7364299055530772
343,-0.884500872008902,-1.705358766944353,-0.3158259446253133,-1.026840732519386,-1.5615037133370397,2.938015579984782
344,1.409489983682552,-1.2963674635970337,1.6570656881166697,2.88803656194533,2.3968333352376305,1.4281734661857906
345,2.4449688639632567,-0.8300055264930908,2.098098513367467,-0.8884283298408051,-1.695318492082839,-2.5706848790724166
346,1.3204489873982634,2.1607162288386803,-1.4488149924404907,0.18482570776306595,2.2780679880609194,1.8196630561064442
347,2.7110255927755187,-0.4068655058014712,0.5086844854345722,0.30328478464673436,-0.893185720765648,-0.4394842826085883
348,-2.170323487334472,0.9808552225209306,1.23044879485568,-2.766693497935405,1.7635002144902376,-1.9393117282378873
349,2.5128965013015145,2.344831945530527,-1.7458988685557049,0.5584855989376432,-3.00840046761052,-0.6994331701643972
350,3.0761863112811545,0.6461573079564555,2.6367347296573387,1.1436981550328618,-1.3631434623932726,1.9844513101608996
351,3.0839027959784664,-2.5582049604429082,0.12461066734186543,-2.5467723931104946,-3.034326350606935,0.8956353462976585
352,-1.8953238303547153,-1.503901600131759,-1.4160401475922781,-0.4525594418915513,-1.5137498435270313,-1.3472519282265447
353,-2.1244395412987975,-2.221305565827244,2.6330193569513574,2.3771367945650317,-1.3946337854350788,-2.4978356051464035
354,-2.782837894907057,0.9837398103651127,-1.1639229700388911,-0.3804614794796821,-1.9490269596494065,1.2532837932672223
355,2.113472066599087,-2.4231601281118342,2.045035019757793,-0.17856285394665194,2.450328217342273,2.1539477779757386
356,-1.2848810082177773,-1.2243746759940095,-1.7700434072607913,3.1048708733721986,2.443626892962138,2.288259493295566
357,-0.2448212036579811,0.1949783388735895,1.9828979143249956,-0.7422318645219712,-1.0532554050203573,3.116194731368334
358,2.71368219190233,2.371993535022238,0.7635095547525244,0.49062913234741057,-0.42528871633624776,-0.14066272164637894
359,-1.4672288174660955,-1.6521248849906958,-0.35806620765203956,-2.0305916786942877,1.6539820739532356,-0.5313568234805293
360,2.7962078309607508,3.004754394604646,-1.0769015234648611,-1.6068336390465283,-0.8615745691388277,2.9396524009768994
361,2.138410712929794,-1.7133775509844271,3.111128501838194,-1.0738338153010991,1.5122651368692468,-1.2139250015733423
362,1.1782121543000388,2.642120248918082,-0.6698897327731443,2.661945600550614,-0.634122393757321,1.1650154647379596
363,-1.9680433519253309,2.5108127634646102,-2.300163657574969,-1.4260120809509895,2.306601118995811,-1.5394183308917617
364,-2.1157662715815704,-2.6637530233959508,0.1590432540376896,1.7208109997271315,-1.6287451462554592,-0.8205840819243466
365,3.0331747227596564,0.9274343372650087,-2.7653797256438235,-0.967343585443396,0.836656674026055,2.0085727405898375
366,0.23247681200249648,-2.912038061685226,-2.6196637290106053,1.480790816778212,-1.596122178536428,-1.2031289973265016
367,-0.8217478110196477,-1.1444731069567748,-2.836052461915419,2.3703634864886576,-0.6253365823277859,-0.3238996251403652
368,0.4620574858833222,2.4027576889464646,-0.3590392352121907,-0.2151452294828018,-2.8577718358665516,-2.171228289077586
369,-2.6451379676468,2.3629532499803148,1.1453999590834787,2.802629883595423,-0.10290078660739921,-0.54191040691066
370,-2.199286223904906,2.330241801441794,2.0171655419731156,-1.2217648182389098,0.6735561222459596,2.739185802619745
371,-1.5753460655898925,-2.0731464466744662,0.21190811135408305,-1.4473046504329743,1.5708689008499253,0.09469123696843074
372,-0.7952312674627176,-1.8550879849180262,-2.7851289268415527,-0.29800970338979615,-1.9126934197008247,-2.336929979055576
373,0.6341089618831925,-2.0866992031964458,2.520868400816851,-0.05638552130927765,0.6088985176139774,1.5537099636476448
374,-0.939463115038718,2.1103420714079872,-1.1752254019707,1.3961962325997916,2.7496967741524143,-1.4195229974805295
375,0.9584758104842148,-0.08512228271973976,1.578535049408937,2.4436261589951416,1.0492773055032103,2.9164985428823558
376,-0.7229690855740634,1.4190228477833315,0.2525877831359735,-2.1012294077477196,-0.7330128467510448,-2.8774119732869616
377,-1.3502510832667012,0.5019053398670521,-1.1840451921938788,0.41508389443714844,-2.726548816485322,0.2728966462623452
378,-0.842118499433294,1.5437306985866126,1.6145610008001041,-2.8819544971214914,-3.0895693169623364,-2.238400406986225
379,-1.8843886942620327,0.012092065724406798,1.4670110087351755,1.6624872247007438,-1.020452130833562,-2.0946638318417783
380,-3.1289049205336203,1.9291330706304048,-3.008796949379263,2.1541835913389678,1.7843700539877903,-2.471575079111373
381,1.652355072424661,-0.26568419021900036,3.0867400244585,0.5622850613885197,-1.6983429929314313,2.5569473405180574
382,3.131836153146728,2.2523681010110277,-2.387497291861253,-2.628080342008066,1.1470020429223693,-1.5742001256299711
383,-1.8037017063585004,-1.2399081810939168,-0.0652116758224337,0.5629182337975656,1.3191045632801632,2.934591352453509
384,0.6822982501806956,-0.7163093782776668,-0.02944247431532032,2.934738681763532,2.9768064307975575,-1.187513519699201
385,-2.864473324952595,2.0010194287058196,-2.612477120221215,3.127236930880441,-0.8470820477423522,1.898077022552517
386,2.45389438684943,-2.56263574764161,0.998704241421124,2.185212211527592,2.1386879868128696,-0.6397512288658511
387,3.072105609957564,2.0694352432099192,0.8862093489738765,0.4134647892055052,-1.469198689608702,-1.6824207963260835
388,-2.8884364686163266,2.8239176132422976,-1.6383446617107535,-0.9074258043157419,-1.6335254686726552,2.1105892900679244
389,-3.1395779588284864,-1.2843550217088733,1.3350977149537693,1.040674005343229,-1.0013026411579582,3.1410223436019065
390,2.4863068056769535,-1.1596158399194552,1.9736861629410392,0.3130908638581067,-0.9986750102358233,0.011581579743189074
391,3.033446521340191,-2.932139311622836,0.8225616911185716,2.813693351318748,1.8412423484793239,1.7254324497608549
392,-1.1232146524344584,-0.1471881014461056,-0.8783505404110339,-1.0433438967659523,-1.8548055663596215,-0.7938394279615149
393,0.39220155373686305,2.9877844120254844,2.2148288700812016,-2.5654169778245772,-2.985061994208421,-2.978243603339362
394,2.9740611565768056,2.5413530940662774,0.6287910539569093,-0.7456226210977048,-1.9335307477424768,0.9420039568467873
395,2.19268252625283,-0.5058824837464195,0.31594846772584084,-0.9558459162075308,-0.7940418611186759,-0.7053819764128209
396,2.5781573387149894,-0.7694132859290197,-1.1277031266929045,2.5259350666216216,0.48177202600719893,2.5000848563185194
397,-0.46419377788498295,0.30613613454029354,-1.8601087931789575,0.42604306163978256,-0.16078869290976128,3.139895575672586
398,0.899792279037058,2.136023174625824,0.04537969718981749,1.9238353456166077,-0.9873885770397082,-2.2918691560719724
399,1.2859117682018937,0.06307578528097846,0.2752281150358944,-0.5968852317341127,-2.1962461782891034,-2.7784644907646983
400,-1.78205913204667,0.8084147788777707,-1.4097299375217287,-1.729954321439712,1.2863608360685523,0.12650869663118325
401,1.245508236442192,-1.070782219537401,-0.3129535754378483,0.3422172760044213,-0.4026082368274744,0.654761206829821
402,-1.8786223997573592,-2.4943292783369957,1.6475470372096206,1.7834786521163508,-3.070838912005272,-1.5270109509166023
403,1.177715887905606,1.8437284341302274,-0.6887250318326377,1.291497359191375,-0.9296220806171251,-2.638980811893553
404,1.3341580547621419,-0.8938616569146594,2.3234043587916258,3.141243695542806,-2.1012593153811183,-2.774676551792565
405,-2.8816144478434085,0.13271046656288865,-0.08648442102754439,-1.1431416978052011,0.7408333761231414,-2.7621636678535038
406,-1.5144727772230646,2.472264791687139,0.8110736344220806,-2.319134325025317,2.955353242545164,0.11991250631991779
407,-1.4567599775042226,-1.507462690995503,-2.764602475966664,0.11523047994686042,0.49478377343887914,-3.1023903459271707
408,-1.9059220644514157,0.06464862965728324,0.3951055820715643,1.6942131830468279,-1.4262811037647558,1.5458760890778809
409,1.3276093292919384,0.5320083219294669,1.5827748702966211,0.7091544732419108,1.0527391954369136,0.8897379669623939
410,0.01643365529831531,0.7896639686792759,-0.5720303931474384,2.143700019790974,2.0035146021892585,2.785739219911184
411,2.5452706000987684,1.7050937250616451,-2.244143571478031,-0.03853347469917745,-0.4779627474971755,2.832617002783546
412,-2.027368527717253,0.8073457321068802,-0.1652460181355777,-2.634624452819472,2.1823988072465585,-0.8090169333713133
413,-1.0998389275915628,-2.396025614960453,-0.8087395753323987,-2.58865999216567,-0.934626239159627,1.139411845427543
414,-2.7810848347846213,1.5115991571958975,-1.5705942049933168,-1.6170800160362502,2.400096625253462,1.2094025717465735
415,-1.682865047916719,-1.5426347021278195,2.2850780274059934,-1.3949321731285582,-2.351325240004765,-2.625250975982232
416,1.4377850285617377,-1.873308718205995,1.4994819235756998,-2.5100735167705306,-1.6197762321217388,0.6562603734376857
417,-2.1749630071787185,-1.3692787743618249,-0.7255137922467192,2.2412509690981706,0.4966990818647723,-1.0185080365686185
418,2.488216789853549,-2.53226327979565,-2.957691416355769,-2.722142880167067,-0.33046955193652483,-1.4518265968947466
419,0.1875242442215619,2.9760220361004572,0.5744636632677369,0.4685085685856647,1.3200077262926104,-1.7634942162617147
420,-1.2206309085933618,1.4655528470257346,0.28320988819724,0.8140544761915223,0.3279275090094109,-1.5062058804009424
421,2.888441926534739,-2.5646964905223664,0.869359706499897,-1.9872484898509368,-3.054072703938411,-1.2018199489005912
422,0.2939952342332197,-2.336556597218577,-1.1828478611414357,3.0356321188836253,1.4331553167132043,2.960505019114156
423,1.357617588511701,0.132069635126701,0.7768425089342097,-2.4355176567734467,-1.9061348612378817,0.9963213299674347
424,-0.7182085953935311,1.691062474842095,1.8950723761839212,-0.15506499743036928,-1.0896619809650399,-0.4017582952400769
425,0.876104440435828,-0.5031891944785216,-1.5147447854196399,2.9889181112980765,-2.790961834599429,2.925614686476634
426,-2.862722138517636,-0.13478345538913272,-1.4272523962429913,-1.441912585378234,-1.5018581817385,0.4596252886646326
427,-0.6106312941786043,0.4985978429651374,-2.5984775416570325,-0.31680911979489323,-2.2565330333301823,1.7411638205077935
428,2.9136206288812962,-2.3649534460282426,0.9796724511408605,-0.03212121407916024,2.1311029500192316,-0.5528031408663505
429,-0.634927176818076,-2.376934021553241,-2.693832586732519,2.590266907732291,-2.0018072807451697,-0.10856525418173035
430,-0.38916938844723736,2.670137758391598,1.2058686651553483,0.721150782729453,2.98523998474489,-1.6679097535363931
431,3.0701645091678067,-1.9601669232124366,-2.220493065849168,2.9819234518928885,2.8072504938475653,-2.612296005411638
432,2.8441173809764457,2.713538252386975,1.9617641374583688,1.0507813781743813,2.582327370618283,1.7749618332160706
433,-1.8235873666538212,3.005886223757991,2.841906412347928,2.0252457331541507,1.6422816024158182,1.4965004197812393
434,1.0962133921367263,1.6820513625703404,-2.029742114326168,0.5097387174962273,1.8920540770287602,2.478048389853382
435,-2.624976462929487,-2.2477368808810327,-0.7881476181909481,-0.3096356633346584,0.2218518645394374,-3.139458303896228
436,2.9917210191182013,0.6624257819599793,-0.3455263461764235,-2.920750294900717,1.2708914135477674,-0.5907513653281087
437,1.6250063555856444,-0.8225412565647812,0.05125880863230403,2.9186883515126967,1.3461860151402902,0.22968092606223056
438,1.4473910729316657,-0.1521840202384488,-1.5363119937087262,-1.0810055421603737,2.941383541382077,-0.6958493341143512
439,-2.9481866073469885,2.337906651303813,0.7929807691866841,0.5088193058288972,-1.9970361870507214,2.630355213578575
440,1.3578376172325868,-0.4247122256673377,3.0594592710364727,2.5454064845109805,0.9152012603816662,0.7497733344971085
441,-0.42447706979381117,-0.10743074093967842,-2.023105414976764,1.6702272619331735,1.5426759619358021,0.22716933159467567
442,0.7692148713854081,-1.9642399804828032,-3.089562360834572,0.1570743467747584,-2.1475189861880386,2.198257503398697
443,1.2630041262875507,0.39251112438449454,1.5016957364504222,-1.2446719855200243,-2.3656194633073717,-2.1385956648962563
444,-1.1910140213284979,2.3247021702729755,-0.07689043479417501,-0.9863886913882451,-1.7433381193004152,0.40471923323215364
445,-0.41908453306077353,1.8771343251515082,1.7543289006824354,-2.5058621040406432,-1.146084625926787,-1.7451422904461633
446,1.328587896125497,-2.6802870000870596,3.1054770880663325,-0.9560815475891782,-0.9151653531377799,2.660871426811566
447,-2.9519130024715214,-0.31247952614485053,-1.624967392303478,2.62361977343663,0.2191168884243182,2.8704416245089748
448,-2.2908225014795622,1.075347275042347,-2.7520403087677523,-2.478516602745588,0.3385082299947677,-1.4662718986703296
449,-2.380032921172831,1.4584037740188869,0.2980850602256062,2.061790466273651,-0.6619345078186791,2.3058611738397907
450,1.0939877132591302,0.8923478741059645,2.5131455496702593,-1.678150509978815,2.8560957071542425,0.8469912548545806
451,-2.3184605595738703,2.7251198941291994,-1.8269922589034686,0.7975653145252086,-0.6591928480823506,2.17221101929516
452,0.535475437691713,1.7633573994629463,0.1933567075665521,-0.44488580718212933,1.9806348490853152,1.249282336886024
453,1.4781603889873622,0.4623289164107387,-2.0557622093334293,-2.6296677811690743,-1.3904288113798813,0.02428047677828582
454,0.09245847482984981,-0.711934006177283,-2.2778187532618293,-0.44157408848516777,0.07427008664020729,-0.891446933235827
455,0.15353248462986713,-0.34100469086402985,-0.41216439508451996,1.6615776534224063,1.624991446163973,-2.2890416758414434
456,1.1744348733298198,-1.6311732313326301,2.4584927595964112,-0.655821405859426,-1.998966597791395,0.27345349772826255
457,-2.072192139035203,2.419601222026259,-2.9281950361412825,1.3596226725507474,-0.4035339449346593,-1.4582962886557405
458,-2.901881591408595,2.21028294280993,-0.383599523580592,-0.5665516894068037,-1.8354857147125367,-1.5741151939809646
459,-0.6552644432131212,-2.4795887319613925,-2.749007133517616,-2.4895620178336855,-2.160817909927534,-1.438121730906455
460,-2.300966414146958,0.7016644104855385,2.978068129569688,2.692394969490996,-2.3905119695795642,-0.5411316688800927
461,-2.4023538250761547,-2.9321667206669804,3.030917962829813,0.5724848520305805,2.2527473012183785,2.1414481926457496
462,-1.638083979889132,-0.9612237723363908,-2.425652857895881,-0.7194658547163169,-0.8502821947044632,0.882927374083315
463,-2.751559272590932,1.93713666869251,3.134363559279554,2.26524930807643,-2.637909675236873,-1.8448427217787668
464,1.2281396632436428,-0.3348517548711354,-0.05809517011755805,2.4951052232338595,2.284616502835795,3.0714629638461197
465,2.025203166453548,1.656494237636478,2.9643282508488085,2.9709503804792625,-0.7426047825793383,1.3539685518610467
466,-0.9546697022029309,-1.132550586484725,1.4088188074493964,-1.7999587236359358,2.757954835019584,0.035851738319890636
467,-0.17944229714384052,-1.5325618736876934,2.5656678518748466,2.0753769157140436,-1.922503606706153,1.927859022216662
468,1.8320401755882036,1.8616174435475727,0.8025453872412718,0.9703253539550003,3.099152680876604,-1.2267276493321053
469,-2.8087707930385166,0.7570746732389959,-2.3597263780345803,-2.879785441803677,1.4302410734306692,-1.1342464858249262
470,-2.128128320373288,1.1611305876870626,-1.9251092581078226,0.001708616126896878,2.327280725501433,1.4487735988445785
471,2.0801004324014336,1.570898846290807,-1.9903388464164076,0.2584911859437251,-0.196749150357046,-1.186931309151821
472,1.3682393136922046,-1.4079756705149136,-0.6015737271929531,-2.5731825586685373,-2.3398226222255047,2.2390984191282417
473,-0.8217002761829129,-0.5744815912481185,1.9576025909518489,-0.8263624096736377,-0.059705948179362256,-3.0892821935925614
474,-0.9837171453794409,2.7417339856140703,0.5677101569136993,-1.969771046555881,0.42325579347230446,-2.065365413111035
475,2.046132929553793,-1.9155273278247702,1.5931605037647412,1.9932193986399973,-1.2886028893861137,1.5542164026281338
476,2.7584477436860393,3.0300767064219363,-1.7317590208195808,-0.10529802224076246,2.400879111086895,-2.5017075483144975
477,-1.081996651164041,-0.1898513793784491,2.859966551180947,0.05707058341689164,-1.4688544936730552,0.7342592372892645
478,-2.0166693304900476,-2.398971838316621,-1.02773617698455,1.2020348506906036,0.3687661371363289,-1.7412059425231379
479,3.006679510397796,1.5264519771054958,2.8555432729504506,1.418518416360162,0.6651683901036418,-0.5606404911417417
480,-2.697495608628591,-2.704398483470654,-1.3218941371862247,-3.0450674153275155,1.8183992505115585,0.33544304786736756
481,2.7928289296015674,0.08517941269565599,0.6764822658847138,0.8591111587271545,-0.8320675073899433,-1.0970103406442555
482,-0.06700857600396848,-2.476553336418765,1.3509970155362723,-0.8140233763780182,-1.301146290142229,-1.5781707885872083
483,0.6402343504536367,0.3496278830111197,2.221923776330038,1.301038491485886,-2.730181748592637,-0.6194360798483305
484,-3.0089814770780547,-0.18001340457356818,-2.8338107051247166,1.7970545847752737,-1.183521427112618,0.013969529052678897
485,2.797764088469158,-2.5072322903941524,-0.2036832167387761,-3.0419659625028923,-0.9640348804207566,1.2657643280432183
486,2.4402098414094286,-0.007482168840452275,-1.4579612867088805,-0.6369301080446994,-0.16136430943558455,2.4889905041792284
487,2.6207312453589147,0.3002571117897115,0.019439815054959286,2.212506703832756,-2.2869938897955775,2.1903201399114254
488,-2.096854004834113,0.09737407285005695,2.9818904037284817,-2.309976934036921,-0.8628673612650304,1.4653764124756643
489,1.099170531083555,-2.2138485763444846,2.8441335572202346,1.2275937305367073,-0.42616846081156323,-1.4440981561642925
490,2.9253763727074125,2.511287772664863,-2.3719177516840353,1.010136644618238,1.0169457226150893,-1.4027559483168672
491,-1.7951800649287004,-0.406575365354505,0.7833481967360689,2.8609003163920894,-1.06675363484069,-2.6383348415887937
492,2.8141897946423127,2.4067989733584927,-0.06709911091550236,-1.630910350546149,0.5581753394392508,-3.0645067621979964
493,-0.1436102774516841,-1.028165243117778,-0.805229827010352,-0.13389017793918345,-1.941068703142044,-0.6086376802235063
494,1.8932408755893766,-2.579251805212119,2.5130024387810117,0.10947606062035176,-0.7089186874085702,-2.827253133838254
495,-2.855647144291953,1.2106817816953193,-2.6448552181005898,-1.2486275259183284,-1.3397620745156569,2.143082340873031
496,1.5452391671879413,0.5892715761558813,-0.5994502837487956,-2.4789969359811472,2.631445808892133,0.5524796526612574
497,0.42548735335482046,-1.8424558463464096,-1.9560372933600558,-2.8486380674875074,0.5074630097089452,0.97858751930079
498,1.117736999541659,2.025893322340906,-0.3629119061932964,-1.0892780968179077,-2.4875603522508287,1.803900406055016
499,1.883547000403925,0.5861527578433607,1.445220010298196,-0.24269908912332872,2.737021289403258,0.9454185220308498
500,3.114151723757857,-2.3899187560393815,-1.1796842444782158,-2.5547318957987954,-0.30261473334298516,-2.8874406795039524
501,-1.1325641097542154,0.9892355000249431,0.9535210073537623,-0.2438117773668118,-2.5036676580300377,2.12599727372298
502,0.20279783647913785,2.4051612435056002,-0.36699938162665013,-2.1024354537582655,-2.4956902474684797,2.110041264138136
503,1.2086244595394566,-2.5448894171073837,1.6019766897530623,1.4713927373077018,1.5985296464049332,0.47237809578277323
504,0.8813093087472179,-2.9074395389887617,-2.9831978189964774,-1.8026550445588931,2.552698182223711,-0.7833099561428347
505,-2.6439491810499183,1.7396895578371838,1.144033436112311,-0.16232011059310603,-1.0557737099072475,-1.7464459863405568
506,1.253123216351077,0.3949252704976072,0.5225405183397034,1.9867887999278588,1.6074534784240706,-1.6265043770508194
507,0.7888675156816229,-1.8481160001037091,2.8471530373047793,-3.093234193119148,1.5052000105350754,0.0185324535536604
508,1.6461757543635303,-2.679407848571534,2.40910360958876,-0.36625097528330475,0.9978146163337929,-1.4561359671440832
509,0.15788625438527015,1.0487416567734185,-2.6573407798789783,0.23318427902605254,-2.648715399032873,0.03871942033305231
510,0.31413459596304305,1.7005250350059864,-1.8541974988812902,-2.716601153332545,2.4728343284304906,-2.311130255048053
511,1.0274481887689912,-0.004964998567753565,1.9346584662077424,2.9903753884363455,-0.5285128431531225,2.4377769595375938
512,0.096216602178409,-1.7752125614351546,1.3980695748276304,-0.8515701839829859,1.8200546896601342,0.7022921638596107
513,-0.42809050954785066,1.4960863767533112,-1.3547816151583196,-2.030012209925599,2.8278461327233257,-2.141508225212659
514,2.9012656596052775,0.1497572171762922,-1.9009352503764034,0.14379773558653142,-0.560364442344433,-2.04850084339619
515,-0.8860259017489698,1.3525563957298834,2.4584546819984068,0.7154840592653571,-1.6020143460673495,2.326637719307194
516,0.9674466360015126,-2.1910880385928944,-2.158862828274885,2.8337472552634013,1.7024359720733289,-0.8516551983972955
517,2.337747282386964,2.79094313804839,-0.45290380255387186,-0.1669827688492922,0.6133480039574284,-0.6964923556648897
518,2.519357005551659,-0.15544578260008413,-1.8782122627565063,-2.237952934596059,1.919382032774295,0.9821897627836984
519,1.0538026929053679,0.6658881043064935,0.3991269976438523,1.6643815619691988,-1.1528453910874987,-2.535126981434709
520,-1.6960080880601127,0.30796566512479373,-2.9870659015896934,-2.760822047264704,2.9032203973499087,2.4229618312950887
521,0.5473565425512583,0.23253851884936205,3.1199279144020284,0.22875219413978698,-2.9999893896109127,-0.23079678076124122
522,1.696215731420133,0.5668768135436584,-3.042407828967368,-0.30925267887944763,-0.35366612142202536,-0.7908671023734399
523,-1.433282966690506,1.969593582804814,1.0269757837349864,0.7283000704800058,1.833940494024091,-1.3981057730618887
524,-0.9073978429962248,0.384498204083366,2.6398225737694654,-2.4939714085518054,0.9034332246096666,-1.974214308733486
525,-1.3540293138842936,0.06039351616459099,1.7501578158073876,1.1799046604625705,-1.7499083893704284,2.708088637128669
526,1.9480120725650316,2.2535781369287573,-0.8882993736168174,1.3556838203939936,-0.41994937621250505,-2.1870560946693995
527,-0.880832879575209,1.6786390538699276,0.1689504574588505,1.7968534651686836,-1.4020947478332355,2.2179349088163214
528,1.7392383720445554,-2.3565197758167953,-1.423188235529394,-0.6725773967394852,2.4551049846842163,-1.6358844992471433
529,2.254839166597198,-0.5932858454238392,-2.322203279267444,0.6931360676476777,-0.7610796841915941,-0.9031495223074342
530,-2.4968721048048454,-2.3199119952775424,-1.936823475747812,-2.413879873684373,1.1946065773729364,-1.0203203219789314
531,1.378070534450532,0.9676426373858318,-2.253746149322935,-0.6395239388128888,-2.7519091307832433,-2.457570452181897
532,1.2366020511020483,-1.652535894716679,2.896302564213544,-2.0270218757235168,0.7960648174902509,-2.078322730613817
533,-1.5130740215725997,1.256336519777462,-1.1745418267511003,2.4212908889827904,3.126118885551305,-2.4046174863122727
534,3.0215970184284346,-1.9012558303727698,2.881279125791833,-1.0988545754968548,-1.981259346277653,1.0944805135064408
535,-1.9242288252799387,-1.8224100582527818,0.06499449065819629,2.822161386638186,-0.9913546610171315,2.4860287515719683
536,-1.8483786371625435,-2.527920514347215,-0.3994890907569051,2.4643641635996625,-0.11974300496748658,0.5732310188636438
537,-2.2655637704327227,1.5512555191652035,1.6074905648284323,-2.3115024244538622,-0.2830918836151026,-0.9523746631690173
538,-0.9417038173856973,-2.4978090569814815,-1.7399823709318292,-0.9870481474809263,-2.4530958192320256,-2.1979291558136014
539,-0.3890895119950173,0.434551003774418,-1.9530983525625287,-0.5532208080642067,-3.0189637159789284,0.7722606071256997
540,-0.3106001183616436,-1.810280758260703,-1.87442278033512,3.0992923328321877,-2.966003785646707,-2.743347709496835
541,2.5462904863391094,2.366704015210842,-0.9444229018756336,2.2590335778454484,1.3812219931647496,1.924677396480762
542,2.5341457669445173,-0.021051148216796545,2.494779979812158,2.5379688565092122,0.3551611414574194,-1.9447649503029645
543,0.14113043267174863,0.6291386641595333,-1.4798843549391831,2.0219582319179636,2.9467190264697702,-1.9715944098084508
544,-0.3487069181208349,0.7579101302761471,-0.8571872156354439,-0.2876426258081901,-0.688811375945475,2.063595824752034
545,0.17015803056931844,-1.9248226653551574,-0.012248125880256033,2.973356481259543,2.6130173486403576,-2.6202205956574254
546,-2.452234874240208,-2.5129881891454953,0.12209458719713062,0.38926864119061877,0.27186831674732526,-1.3779363952037649
547,1.1783634589704635,1.4098983457870515,2.093934863396176,-2.7340287105430043,-1.1813749601881443,-1.0320424782841928
548,1.0421382076933936,2.591437623115585,1.27548928765039,-1.7381457012099768,2.6612328236888976,1.6493265152121106
549,-1.5446779400612047,-2.908852341493729,-0.628239333599605,-2.138653121915808,-1.9325637067399164,2.7003281321604593
550,-2.6434658027655598,-1.5560043884565828,-1.1691147447687955,-0.5018354154415077,-0.7883781099702594,0.7997978860906687
551,1.1899216039449625,0.06860129452011998,-2.613595157462101,1.6800295550400026,-2.277731702175669,-0.6500410242728036
552,-1.0481887971176382,1.8517704135697182,1.9584170723870828,-1.606211537835562,2.923568463761093,-1.1419631276417535
553,-2.8446242056607423,2.8728631922084835,2.8153395883185643,-1.7177142037937403,-2.56593596776449,1.2292395399485958
554,-0.3337880657487431,-2.7382520076121333,-1.9508196432920524,2.863301498242742,1.806167694029674,-1.2666834928338566
555,2.8113174545722712,-0.3218534908190205,2.6025187243546117,-2.3012100081888818,-1.0926609601313735,0.9869568338428003
556,0.42257405136095993,-2.6326529983180134,1.6978385919207026,2.560506575742039,-0.8592969074540413,2.360787861167929
557,0.5240423260529621,1.080016273400779,2.4656184112693147,2.53258858598633,1.1066745753754104,-1.2790131113641396
558,0.08368798092018093,-0.4385215068728532,3.0737831428204228,2.8750646515788825,2.590496279364692,-1.14314585731121
559,2.005152562960123,-0.36820025980294346,1.3319122812437714,1.0296943656778401,-0.9551294429567831,-1.188020472334926
560,-2.762282741349217,1.1027850068572453,-2.78184019001695,0.2814734764786406,2.3347451382313205,2.16176204629346
561,-1.500018036134604,0.17322488178936846,-2.601602263327302,-0.9311371722449384,-1.4012728687923575,1.3336864302710785
562,2.730813699692403,0.8811888234333409,3.121839111080698,-2.833853724997274,2.2991743585164146,0.33553981993409376
563,2.237313000795325,-1.6785797381253387,-2.556990444941944,2.2805771709577085,0.7608391772836414,0.5172879108259969
564,1.9498641281930649,-1.621136041075592,1.7904324523426087,-0.8678865903155195,2.373929834220659,-0.4206267665191854
565,-0.47671380742937997,3.124704745771644,-2.275503738837508,2.2713389242304096,0.2912856114421558,1.283859934446082
566,0.7952234157791791,-2.1984620922318996,-0.6071929427553076,1.270246559944903,-0.0703846636148624,-1.475428986644556
567,-2.8406569377501576,-2.110162627089955,0.583430273807243,2.9580322858036334,1.0555083753145444,0.2755877527718087
568,-0.552641086369936,-2.662425268630052,2.738451444560498,1.0334407686310598,0.7212766323591362,-1.7764433859938513
569,-1.9098839080056818,-2.703103597046146,-0.32774269915650756,3.0796724155674484,2.9985427123539283,0.46685075781151175
570,-1.927746292449474,-1.034615555931667,0.9173596499687253,-2.587393129694879,-1.2089011126728588,0.76264771674338
571,0.2793943413632789,-0.953303746909044,-0.4757977996709011,-1.5042752966530786,2.9103800789244954,-1.9794593908736955
572,-0.5071513174948414,-3.1241812008857557,-0.8603306464405063,-2.972044519015625,-1.8920417890353234,2.258392378045892
573,-0.2608314937590781,-0.3065063636604002,-2.2530654529493233,-2.230227731739275,0.8511330320026675,2.680724304614621
574,-2.1778148111488638,-1.349169278966623,1.904761291284264,-2.21196505968076,1.9141985526477319,1.5494608175644462
575,-1.3410741761715395,2.366570883020154,2.7317647258764532,-2.924915725062417,-0.16347247130741893,2.680999020142658
576,-2.359623103148996,1.978662945618125,0.26067451240775075,-0.5589217313078851,-0.08508955250438399,1.50625654143471
577,-2.4707050383438167,2.5355427956765837,1.7339734301730214,1.9671593283580329,-2.281969509679407,2.119543028163145
578,1.8210185195823687,1.4043750437050226,-0.08120292661585404,0.2052119810192261,0.8480035024235564,1.8660382615355973
579,-1.6586246512543994,-1.2238674052260963,2.0950372775741295,1.1209266405342424,2.482513187301631,2.846505933764857
580,2.2356473514333794,-1.0746893727605507,1.0587198037269756,-0.4404650994738546,2.5467859869680227,2.411546185283779
581,-0.5372318499287254,1.292161546288944,0.8779257479228706,0.2557317565010253,1.2086861804586277,-1.1548926659315322
582,1.0778761335896245,2.2908915556483134,1.0568210637247377,0.49794952520014,1.2040061969352385,-2.7763844024160313
583,2.557831124775306,-3.0175121502161244,-0.3769311579183303,-2.1901065119052907,-0.7137742605766628,2.7175881530823522
584,0.10740099750127285,2.6847538525449863,-2.2172086496895567,-3.0057907484266138,0.3562939470629005,-0.1341278491215352
585,0.783969582684914,2.6175171722655657,2.1230607239899877,-0.2636421253670438,-1.0438238063752014,0.5997089900066488
586,0.05522587126386558,-0.43340571742230827,1.311699270088023,-2.574523896181992,-0.43320957997361687,2.6080047575489695
587,-2.3965118332889492,-1.3594306602330057,3.071713547651612,-0.43074477822166823,2.832945882905425,2.452142405716722
588,1.9634678415265254,0.31706497074578355,-0.30780073265979535,-1.256383819165976,-1.2757075511726579,0.37297037091924556
589,-1.8497567625169082,-2.7579484778506904,0.72233983479566,1.262531275338338,-0.03534251196747862,-0.3632974869380119
590,-3.0165562793373053,-0.4376620332481309,2.6953810615866223,-0.7080302791156883,-0.8539793659129162,-2.252781752062252
591,-2.8291363825141125,3.0442542726948085,-0.14066318734756278,-0.8314998670460754,-2.6630630965137327,2.088329903919809
592,-2.7615239195002417,2.0614551681639854,-2.6490200975808094,-2.193347837441996,-1.6670483559624998,-0.7277501224914928
593,-0.5050537030206099,3.140664602955403,-1.4234526326212962,1.4228054456091375,1.9389275211340742,3.088806376850294
594,-2.087025968596725,1.827531351381908,2.5749861216906487,0.21243809790527335,0.7699736468408593,-0.5502458298509394
595,3.1347109297972695,2.9022185798328186,1.4401557949567874,1.0918598845348395,-0.12845033655403926,2.1852472018245823
596,-0.6277881995352907,0.18955846968544465,-0.1560541833486786,-0.1368088222981334,1.1339371982855848,1.357274968775343
597,-2.1664184659169745,0.9341025853400824,-1.8697891297271712,0.2435612552244235,3.1300101409870438,-0.3650762807251726
598,-1.1987094992889995,-2.371924781773563,1.5870455784413133,-0.7959200527144903,1.6272964228061735,-0.6065599381468503
599,-2.882363279268541,-2.655984907507132,0.7994016084462641,-0.22906455451660435,2.274880221506317,2.2205505724209065
600,1.9472632354258685,-2.2314158724529776,-0.9252259238212512,-2.308729014192104,1.1323893428905638,-2.227667549277506
601,-2.002096818736118,-2.1835040417351514,1.805080078997876,-0.8654552262260689,2.2937890884955605,-2.753625281804737
602,-1.8218109572300916,1.3519721557237885,-1.565448234372051,2.0337723833147656,3.076001621302817,-3.122275864737402
603,2.6674400529232525,-0.2954602455698705,-0.6984408164053995,2.888722894688752,2.970997363886055,-1.3371088917888767
604,-1.7937113673498255,0.41507173666534536,-1.0942233540566102,1.4138561419820537,1.5390811411769194,2.6303710182718607
605,1.313688758394444,0.3805322131011266,0.007486592901681188,2.6480464606680627,0.2972407081843489,-1.5185242571585813
606,-0.0549719123021557,-3.032114781566894,-1.8415261130033018,1.7050341789826646,-0.4784198625455529,0.23736754180077835
607,2.3649444788019007,-2.251273180494714,1.0844470808404703,-1.6674762232662583,-0.5738411518125726,-1.9791252096090197
608,-1.5140040515749758,-2.129811407780492,0.6000607180041726,1.6249807762295578,2.941940278952619,-3.065017198414025
609,-1.13233938009104,-2.4623443795187034,1.7757352281476093,-1.7962649152985315,2.644890299913632,-1.2546921186093163
610,-1.720372466544912,1.4839877146333453,0.30045660237354266,2.5107625210760283,-1.4963297312932533,0.10170500140857985
611,-1.3583349538281935,0.9390770805981505,0.17516757035574004,-2.4289654541582335,2.972279465281992,-0.7361113878358183
612,-2.221443487271666,-1.60704456785863,-3.123885489005314,-1.909412698068061,-0.3696742560424955,2.8103523321705355
613,-0.054696924391671065,-2.237620544505699,2.705690654048598,-0.5199391856955766,0.2381500559231049,-1.1285242882789368
614,-2.7166744663369267,2.775898291135352,2.1547871944417043,-2.795143556160702,1.559538084607281,2.40197985605566
615,-1.9341765075640178,-2.1213680988915207,-1.930399206486951,-1.0446183876962656,-2.2352572236610007,3.0204359332804245
616,0.11831522677757222,0.17474475690157742,3.0514788860065725,1.9645356224781017,-2.563208239494484,-2.9427649560332805
617,2.70818006544061,-0.2742300926973429,2.2517136916250724,0.33495172210273116,1.0607384842084295,0.06960277562239225
618,2.854895481570833,-0.7321091200753997,0.13389534560121463,-2.376873646663948,-2.9444872427219524,-2.927704100678084
619,-0.8956318603907665,0.21297722390875107,1.68424252723391,-1.03923095230937,-1.2445396569318574,-0.9021818647877433
620,-1.034817720818506,-0.798512381956519,-0.4349405879320023,1.3194144098961873,-0.5604640029348111,1.5207592945583688
621,1.3868288165088707,-0.5988339669351577,-0.008602515879019723,-0.9766637042526112,-1.1113630545326951,1.0799745299448649
622,2.9094660322446666,1.9939731155106504,-3.0047865541377257,-2.4539286697656153,1.6734667168970878,-2.664273449474669
623,-2.861349175382606,-2.2933831672854175,3.0615100946884723,-1.8747085159453263,-1.2846633674903147,-0.23385586010411918
624,1.5244219042809988,2.1285785935145505,1.5913807947512604,1.056430761134762,3.002757466728392,2.442914979714578
625,-0.21745895049173747,-1.7907247171927658,2.362921400915008,1.7793037866248822,-1.3934504068655047,-1.81824197035772
626,0.31441333417804707,0.6273575095746287,-1.7492729869478878,2.890986500169901,2.257229997485311,-0.2780338833981921
627,-3.05888592848512,-1.8277318007909487,1.263397907908831,2.6522337184633873,-0.9651211350580993,1.8595700657239052
628,-0.6791662817044322,-0.7674288919120396,-0.10536230921361556,-2.2931914026929014,-0.4697914180715732,-1.9642174656060598
629,1.6066096063365682,1.386942036482906,-0.7376002229653382,2.7264534158785283,-0.0064351139108955735,-2.7986395687518146
630,-2.4449006589908673,-2.2489087528246436,1.7983733712160124,-3.0258124243815,1.5270506508146653,0.04839741663531738
631,1.2280130003337986,1.5456894508419143,-0.3550747845098092,2.513331848305464,0.7196641487153648,0.2975215398725002
632,0.25999880094405414,-0.47835446354329614,2.5617204145582377,2.861182452704929,0.4619485142758326,1.4436715704359084
633,-1.693522043609539,-2.3005873411842677,-1.973866092305984,-2.349573656102669,2.212628207300135,1.3256132962767415
634,0.20451586969627744,-0.8879751311372095,-0.045197292402215705,-3.0997414756893873,-0.8805386831966553,0.973404654431798
635,-2.9832022910633933,-2.7718258178977835,2.0348129575890033,2.1104801440338496,1.1850990749218449,2.5137081518037814
636,-1.7627849720974798,-2.728112946445133,-0.9377411083159384,-2.4810081204224437,0.8514919631318545,-1.0656811284530412
637,1.7571742330497253,-1.7775255376832155,-1.1546378802231378,-1.4654722810351806,-2.6200009834574587,2.22494091601825
638,-0.7360520299147497,1.4868132446121507,1.3291283648756185,0.26993853430827963,0.3649761409338299,1.903991669103374
639,1.1860674897559074,2.682674956988322,-2.5590679900583044,1.0390697985895772,2.7619651145848083,1.287495452883129
640,-0.3951904931771808,-2.470440258682227,-2.69276273007083,0.6608185789185566,1.3596610358940717,-0.7895894547203137
641,-1.3169274494022702,2.5636550319874667,2.2324675237622156,-1.359292101143778,2.9406901254779045,1.5992682917313719
642,-1.1000290541775404,-0.26832475147998025,-1.9734333848824441,-1.2615769341463012,-0.7817749722354832,-2.416585910434514
643,2.6670090095394654,2.948391892798969,1.722574976651467,2.773798247017644,2.4055618160823347,0.37406722168738193
644,0.48892024619683383,2.9657471140170655,0.5531495972293263,-2.38273334472767,-2.2430276833758915,-3.036294508229988
645,-0.9323585326800554,2.1552890567338823,-3.005054266537157,1.9308827252038165,-2.439110676414076,3.0280519008525024
646,-0.9853571470584321,-1.738585239844116,1.4844661781924753,1.887765478596478,-2.7799918604248086,-1.365071959375237
647,1.9877160979630055,1.125925372216515,-0.5697890793442864,-2.4282170358234225,-2.2512871160535877,-1.694699859529529
648,-3.0121458010350466,2.349187367160999,-0.7031152628696717,-2.5599030272843226,0.7412837826392806,-2.9703179324884137
649,2.583242087428707,0.11860509857049051,-1.5896682283690713,-2.097969089379828,0.21949843886483533,0.8853382150102025
650,2.0976447585566227,0.5357036797619394,-2.66420483270756,-2.6637472916148512,2.0655653227354254,-1.8959513096884921
651,2.591066911738756,1.9795882324680427,2.9965345325263124,2.6075296758381237,-2.79940960881576,-2.4250653188850375
652,-1.4476569237710712,-0.7369892980248935,2.95569056199348,2.04970831767661,2.7126074581488604,-2.7637667432279143
653,2.801462175335036,0.7729107387596725,-1.66725565473655,-1.4267118672541026,-1.698869694557195,-0.13750276552657992
654,0.5300819880907626,1.551399725910212,-2.091626560934124,-1.4545798973838877,1.9176644410405395,-3.0590794310178127
655,1.906490245152244,-1.0972441145250258,-0.9626872263865094,-1.2268422432409152,-2.915219833139587,1.6039737195882893
656,0.39255986261035636,2.8488935905509507,-0.705042536916217,-1.3299305582636398,0.8537319138820574,0.5394923482313896
657,-1.347454472780867,1.1936124965261365,0.4538396246394938,-0.5242626094255431,2.091923243567477,1.5265125018553523
658,2.0928917610851174,-0.8903891613824602,0.7344858833084502,2.958167657340484,-0.7143393302636496,-1.0386914425625315
659,-0.8840422198904294,-2.969615841326868,-1.1363290654697575,3.047537031051723,-0.2575194094462674,-1.3111219851894313
660,-0.9319153672268659,-1.9518264319288758,0.7327840096064895,-0.5401504201575524,1.302139570750251,-0.7332722029901189
661,0.5853521755138771,-1.823489059452379,-1.8097900363235044,1.5518909783565062,-2.4407706976259553,-1.3629817606378822
662,2.758980727517792,-1.3014024909142365,-0.5617659547518632,-2.63987058293768,2.8938942680923185,-1.8898058072979316
663,-0.10043573466904832,-1.1081281829571399,2.2949092489845544,-2.8315727167829436,2.9695699339948884,1.0770677676622364
664,0.24702808809426813,-2.35936554138514,-0.08966220069497233,-0.36415925715980135,-2.207690616117393,1.3005616641408935
665,-2.047512051311379,-2.5774185644682426,2.651212045618612,1.2081059052534355,-1.0852368987076795,-2.661614716588745
666,-1.39542513919078,0.6209556173260142,-1.704276383451136,-3.126016994749608,1.1813763124595429,2.0951149044603934
667,-0.3336887201211338,0.054798829030788365,2.741364625284108,-0.6583601994080222,-2.7800254292048283,0.5852937559018367
668,-0.39333190131929996,-0.8891143602408418,2.0491316571002383,2.0431734886931183,1.1287875864409829,1.7517177029888282
669,0.020569437462961915,-2.3362484166160606,2.60078823554481,1.2703391631709993,-1.3424332736035842,-0.7650245434663732
670,2.4637872820793234,0.7796062480081303,1.4289433664696896,-0.7700479798605837,-1.0082567060322676,0.45150822155136705
671,-0.29542738481953457,-1.2063305591529914,-1.5262574216114468,0.055518398118405976,-0.11189826352262688,3.032161234608698
672,0.2810634523517068,-2.592163306360944,-2.1867041118876878,1.3801597134057033,-0.09140683849920661,0.6950785473354424
673,0.5291602544283438,2.593862747942529,1.20911516059389,1.6658202541708143,1.3049763582964422,1.857719911645706
674,2.751880816103503,-0.6796947879048609,-1.1167858643528765,1.8564345980462589,-0.7033128615532966,-1.4607802499647704
675,0.4310949849850245,-1.1907364447299296,2.029371260289815,-1.445571450083972,0.24404539555552685,1.537344106663432
676,2.9629699891352326,3.138477579720303,-1.7945033216433066,2.7317097072277843,-0.5102142148663962,1.944908658985069
677,1.9602430980364263,-1.291754498764772,0.8097066625096376,2.685683079742268,-2.564373233031782,2.0477476403360413
678,-2.5892970730814837,-3.03582584462054,-2.3809177388383516,-1.8095101773453648,-0.1966991595993588,0.7792248917750824
679,1.9154509838096674,0.8609181473284027,1.913057842700197,2.6472077989360843,-0.7675468589264143,2.2207406899710307
680,-1.3361426404437338,2.1457048241631407,-1.9248033152582114,2.9465029068809363,-1.3538869318589368,1.825944628912767
681,-0.9581772454426223,2.0597456279393445,2.1030678390809525,0.02015155408368896,1.9325313269726578,2.4456883372585834
682,-2.0543652422516123,0.5730648730936414,-1.0281570682892496,2.761752130398471,-2.2701149325141117,-0.28763740896782464
683,-0.36317813829411394,-1.840877730019226,2.0834267787192173,-0.36302000387272937,2.6326904511846365,0.09441890063101166
684,-1.5412381076640416,-2.2133875568109795,0.6706744329562628,-2.592925636830161,2.4090891123154528,-1.3928271024251184
685,0.4903428986534646,0.8133567729769475,1.3165571209750109,2.159709877252191,1.8495072663604084,0.4620792558025326
686,-0.037584672911664896,0.2603788324250922,-1.0315919011217272,1.7265480043671024,1.0225505257609617,0.016870195414909972
687,-0.057292228890502894,-0.18341360848860466,-0.8785020351013748,1.7170405576084873,1.6581302929940973,-2.1007299767814422
688,2.9991861938285496,3.0790142748384257,-2.1790133660383013,1.7523953983612124,0.47496979254005245,0.07732984538134424
689,1.549677277283953,0.7515450976607125,1.3847405236333499,1.1525790278828998,-2.1654576298345565,2.9302187554521044
690,1.2593305954706446,-1.8400617983125092,-1.4441545748887923,1.5492080857473658,-0.3368020639425864,2.3435883844776617
691,-1.7966197150126517,-1.9055987025455794,-2.984927971485018,3.0335869658378902,-0.031354773663434976,-2.7909347059599967
692,-0.5402162429981825,-2.427152146843993,2.6304280906758644,-2.6511080064259938,0.19750463998164092,0.034483452712622764
693,2.0718143056037945,2.1344558641638987,2.564298629377242,-2.864907707774765,-0.13028737198671791,0.30278120548251763
694,1.4649533210257042,0.8404458482421688,2.076275947992932,-2.5576832628487605,2.3316006183911977,1.8222155784751735
695,3.114497963943136,1.5214945170038874,-1.732156987997464,-0.027065363237644746,-2.3069981939548305,-0.30856625127559223
696,-2.6069491857234603,-0.07325174926192712,2.513882237082493,3.0228609167789804,-1.281846136444162,-2.6234630525311218
697,-1.4764947096578804,1.9778655378237566,2.6904238983603976,-1.4349590017030955,-0.27052391507810647,0.402167244655498
698,0.5766995490796747,3.1368454744050247,-1.6023673757503958,-2.417681995364817,-0.6561513734426767,-2.6411922914808597
699,-2.394390047204581,2.0337252032013042,-0.2061451073199838,1.527648704048616,-2.4330146634588092,2.051033785785508
700,-0.4793264121635499,1.6903003771408693,0.49521795699348514,1.0013501135085,3.1208232497752437,-0.030688868134178815
701,1.2364602090512085,-0.16663044994353626,-0.2771018582217164,3.0435288972749923,1.9382550213503604,-0.16881272150306614
702,-1.953185404817028,2.51087937377803,-1.5582195963357834,-0.6380660010759143,2.330151842735331,0.9450252654686828
703,2.877211500946066,-2.6351279327888335,3.020954784755829,-1.7281813480992239,2.8544901464271515,1.419567603241167
704,2.6280500825003896,-0.4560560203233459,-0.9325219419057769,1.439874612882849,-0.6100902370326873,0.6270325709675153
705,-2.0379520288732933,0.565783268032976,-1.1312263645204697,0.41737889172341003,0.4353625135850132,0.4506727648735449
706,2.71075901542807,0.2712283087300893,-1.2577703974492724,3.0750893735190674,-0.372022655459868,-2.1519452214893025
707,2.192556770837971,-1.0001589805386462,-1.667705225076869,-0.9729647190603301,1.9716328132621088,-1.3737116716061046
708,-0.28915635017809516,-1.5488705097629183,-0.04553092665217706,0.0426392787665848,2.134377643041052,1.078617451113197
709,-2.4586045013979962,-0.7828784426088018,-0.33535233809237663,2.2482603418062856,-1.537945364406858,0.687797441590269
710,1.0276316866024677,3.084379567073248,3.0332562197115767,-1.8769798750150264,0.260662179008027,2.2031884887267097
711,1.4202009477824324,0.04756335002761647,-2.7964007710724044,3.09864127498036,-0.14274093189776504,-1.33449021604371
712,-2.3584126216450434,-2.7634020090633125,-1.1832375895708405,1.4687130269640774,1.5877040283573907,-2.9832056518199273
713,-1.2065653355428418,-0.27846224515978024,-2.5197109778718514,-0.4128301781325212,0.7612892284356767,-1.1608434891786141
714,-2.509183131945164,1.242855902962141,-2.4925378757875376,-0.49749648101951127,1.938642559905495,1.7410539221075494
715,-2.359000003745571,-0.9528201119207966,1.4031451270571962,0.8548838107893348,-1.6249420542131696,1.6155367948829227
716,-1.7146527730660277,0.3338998962238531,1.223874622850401,-0.4983408432787324,-2.9766247153263077,0.8314877844696924
717,0.7891853552745354,-0.7464442228415962,-0.4497054786476884,-2.9082820646195335,1.2102775026393706,-2.0795154479972204
718,1.250545123556492,-1.3674870302659035,-2.864884138609952,-1.788908110545485,-1.0145555170244163,0.39052089840251814
719,-2.020440932570005,2.386468410383171,-0.28869398357833287,-0.30464860195674426,-2.015405183088788,1.924222645747867
720,2.131315459331451,-1.0294929414688263,2.9299465333282795,0.39704443188709826,1.9386887776744057,-0.8045294176850923
721,-1.7277836732860454,0.7544465866153547,-1.7548063637805134,2.7734453766107574,-0.8650179896870127,-2.1081266854100744
722,-1.3165178439274297,2.6169587753093113,2.4973100379198163,-0.3577819326523177,-0.17593264539524522,2.738032772712458
723,-1.612075512921818,-1.3656872290963007,2.231278386340014,1.4504506570865452,2.9346576095912855,0.9525552891878384
724,-0.8507660073532834,-2.417879688956396,1.2894259619308555,1.9164467028657795,-2.3452825769001437,-1.7464882929509933
725,0.2821287295179733,2.1369376099815893,3.0964585751672136,-1.017098202171379,-0.3086997892004746,-2.6546030793611086
726,-2.6650403367406534,2.0062139583441274,0.7718663858195041,-0.8373089959049316,0.16636360194948763,-3.010073129364669
727,-0.04536439192779307,-0.8316979504346294,1.3247901185237012,-2.7613180372385067,-1.5103209735160388,-2.9522431894623455
728,-1.84276128156897,2.3663496397387664,0.790716952107863,-1.046684695300847,-1.6709763368190764,0.06640147315819656
729,-2.4277993779434395,-2.1347909889523944,2.613405009289841,-1.3689531784372344,2.6340241358549417,-2.9312369637995963
730,-3.0675475239994148,-1.161799892744726,0.5492622823116728,2.146513109400847,2.964123204795972,-1.4409263583565841
731,0.24526100386949024,-2.6391576710897295,1.438101298172894,-0.9277863098478254,0.08928960963244581,-1.5595792204558634
732,-2.4155303685339855,1.931866213855236,1.9612713603015948,-2.173532853458162,-2.36812488150544,0.5577476697791428
733,1.1488419086955872,3.0695382685127415,3.0858382350658573,0.2398740267512225,2.7412855068012822,-1.81533077983445
734,1.8829907706392675,0.6409239602856589,-1.9453218231500733,-2.3365956440291114,1.4091367974254503,-2.8594449764756105
735,-2.265946788252294,-0.07573996255571291,-2.3894381183829516,0.0017456332618466242,-2.607098548664516,-1.8881685429416766
736,-2.9784948054680735,-1.3585314936731105,1.2637853216141188,-0.4665601261434982,2.1161655568181645,-1.4336268505974432
737,-2.558516057542494,-3.0617398654545,-0.3416198499624974,-0.00756797904311135,1.9165575608688297,1.7248495771144219
738,-0.536618312655019,-2.825557852893806,-1.1661852574730935,-1.9117228854376953,-0.16839999596889266,-3.0032169140121927
739,-2.5261715187227405,-0.10349023703981919,-1.0991384471254313,0.4925941272435552,0.4160857875563888,-2.240583930412945
740,0.3453416881630398,2.4864675340553717,-1.2585468183302166,-1.086779230451481,-2.903544952296066,0.09396337584999026
741,-2.2006165834143903,-1.880014430869018,1.4812421177232107,-2.5953732273814216,2.470456101548872,1.5079020539414882
742,0.671650516914144,-2.80422161148193,0.8460725997956233,0.6831362606596101,-1.2352609794480696,2.8400295731611056
743,0.16490565755723718,-2.8998212085275235,-1.1199832368821174,-0.5769350482301276,0.576964248309904,-2.99773360420913
744,-2.697537679924646,-3.059894750739137,1.5218041632600068,-1.3352562266508272,1.3014943703448054,1.9260900205632936
745,-0.44801710248178717,-0.20670607261451845,3.0393325627679433,0.46070849968199523,-0.7282455511381021,-2.855819131819663
746,-0.7525154163956844,0.17560856372293365,1.058967687757252,1.270466414560535,2.0161000164136125,0.49003879304520037
747,-2.911576532033014,-2.271683950653403,2.076949612763925,2.755595640817404,0.5604135454321613,1.1906222942590263
748,2.9685031956313734,-2.692920406533221,-2.4462454089480303,2.012132358417894,1.8943237757196325,-1.546121922676081
749,1.6902627905920813,-1.162023847277644,-2.605816017732675,1.3190103338748838,-2.257518151221344,1.1016031347069566
750,1.0057625491327595,1.5631943760784628,-2.963093543060548,1.7351231898951731,-2.917281000516008,2.022134201508268
751,-0.9722806546996621,1.9298193196510578,-3.022553307853575,-3.0216849835000854,-1.4415484411743948,0.9720613019621949
752,-0.1630198966645744,0.9351830674654611,0.9028017333354201,-0.24773654970044756,1.400654504907517,-2.424777775288984
753,-0.7765846631207323,2.9970390019561917,-1.5868849760084132,2.425397913409652,-2.5344706043478222,-1.0377271608974157
754,1.1655906051982745,-0.3983933300004381,2.7496362105872105,-2.49113171038118,0.7910799460603033,-0.3589923587085302
755,-0.17073271868590867,0.16065883952459403,-2.205175615029015,-2.555441463002031,-0.07214861908735637,-1.2178818344666829
756,2.3492481463626245,2.402621153680837,-0.5936457383360954,-1.111924608680873,-1.9035673778560638,1.326475847865768
757,2.3109330087729765,1.9160663384016736,-2.7468272383950154,-2.293458405131151,0.4341159173950109,-2.675822769988849
758,2.77289802631533,-2.0243131991226897,-2.2876764631232502,1.4346204686057673,2.3496186641247068,1.2764314125015916
759,0.37007271173206835,2.7659729635685766,-0.4086315901171105,1.2598704877126217,-1.122042439696434,3.027502085479946
760,2.410078078664167,3.039223182248233,0.7044100394085588,0.7554366750620205,-0.07636155541152068,0.8878774044120163
761,2.3673459956401555,-1.127163333628133,-2.80999085871349,-0.3785093857558195,-0.477384756955737,1.9760006877819922
762,0.3460143824737667,-0.7567171944079107,-0.9496772769635355,-2.0709905407207296,0.47630999241471805,0.7173661001057705
763,-2.653948549751128,2.941755621214459,0.7646724353766032,-2.2611044934311906,-1.8603324354868125,-2.1301099442494955
764,1.6200498018980634,-0.753284016878017,-0.4028545323350712,-0.7091558091493382,0.6502741656972333,-0.6689817171099763
765,-1.0833216147563371,-3.0207748534075707,-0.0426080835285525,-1.504740376466234,0.3223676302827041,0.7964424159796715
766,1.4681215920688961,2.7524967919108985,-2.518390918503491,1.8739643313558627,2.035175553584007,0.758660454498429
767,-0.06620184200553147,-1.9318301651817058,-1.53693643174362,2.5779424209852726,1.3808622608392715,0.5679814342025482
768,0.46649621724923174,0.8546400791164546,0.14433991856098638,2.319003586832224,1.6098156774432049,0.05455738852372205
769,-0.5240066215341015,-1.5471110097407916,1.9879339413757444,1.3082887235063856,-0.9257683190150505,-2.8878614232839577
770,2.36968019498278,-2.3807989427310674,-1.0465618580997038,1.1814966169306382,-2.1609938281229337,2.43006099981017
771,0.3854134962145723,1.804888327082299,0.8747899233601286,-0.17556612702536478,-0.1759173572234518,-2.88290419936576
772,1.106726657365206,0.6667448486434835,-1.1221427029882651,0.31860087700026263,1.0950291455423447,2.929928760279097
773,-0.58645641065573,-0.32450848908457175,1.6453291389906681,-0.1504468287594376,-2.0803544020170124,-1.6842259498975374
774,-2.146121661050288,1.0335279350327937,-0.9438477152767368,2.5905664588014314,2.6573445308662764,3.0253580626323906
775,-3.0464128726061945,-2.398454027668201,0.16398075436097237,1.5677541058123223,-0.9715514377153145,-1.0347477265244005
776,1.8444232483686775,0.1538475581762726,2.5169037372648155,0.34002524538498813,-0.7925897589989961,1.7843924635132948
777,-1.6183371330479828,1.8798523928067494,1.531478931339005,-1.3075008220998494,1.9870668045253232,-0.25479275164542603
778,0.8559098380475723,0.26906272948009,-1.9866545381616347,1.882149055665586,-2.9641206822830397,-1.7832551281591975
779,1.3860974977932186,-2.7235798713504633,2.2880499228819184,2.9627019498150515,1.8120599962021764,0.746161001981335
780,1.7112933231070837,0.5561873492925691,0.913406456497361,0.9235012205303086,2.36744470536508,1.9482532809551003
781,-1.7278420568075432,0.5806268712657716,-2.8981273912474226,-2.692935445849932,-3.1171067758592885,-0.6323332754454873
782,1.5401173962883776,-2.125079130531106,-1.8998312388122998,-2.0633742838302283,1.7750677430890596,-0.1394056971893285
783,-2.204447550524086,-2.363655329706342,-0.4373564816848079,-0.2238873130321486,2.234199177989842,1.445245062594739
784,-0.8818718909336005,2.5981083353649836,-0.25542990014622946,2.2574860725002726,-0.4959885390337875,2.4699892092987294
785,-2.5418975314943286,0.12434382807437139,0.2629324664819155,-1.136442643059858,1.9340853559206392,-0.8123410915163425
786,2.139060104953039,1.0491906254216374,1.0600855526842103,-1.9443652075230755,-3.0993616949579677,2.8883611189180165
787,1.0381445213402802,1.5737211968203901,-3.018432061607858,-3.0189890779162054,1.6740110743196874,-1.4102710017318085
788,-1.9805383360455555,-0.9896525378162861,1.638037404303569,-1.1873877880641508,-0.09032027374460805,-0.26526489669027686
789,0.45521046915353036,-0.20524552192532708,1.1217357493090168,-0.5502081976542841,-2.7874434718833294,-2.3621077344995642
790,-1.7679335714465512,2.007742299429286,1.1787720977647904,3.0969866567729483,0.0843570294606737,-0.09031610441574323
791,1.1334097540050072,0.26010302367503346,-2.2437619507343807,2.7118974244954606,-1.678737794661762,-1.1147881201226113
792,-0.6368155483169646,0.5398135625531668,-0.17106123306240573,2.1552500843519704,-0.5449250288548968,-1.545648190982559
793,0.6682963378568516,-1.5919144067562867,-2.9357353219961664,1.6844662577218479,0.6190292018906995,-0.6269211738580753
794,-0.13414398736265287,1.2821001690679639,1.836675101615226,0.16619492911715605,0.5464338953486401,2.3188136494039506
795,-0.4159399747297865,3.1303993717915075,2.365010265118344,-0.10338448351777307,2.1245660869064222,-0.6430419670349372
796,0.005578420095667003,-2.636242510380792,0.250256924345861,-1.6668375687752677,-2.3193590416371768,-0.03696954983662737
797,0.3631454724636516,2.440924301151738,-0.06409253573384,-1.9557068215194964,-2.148241112173608,0.5864640481157624
798,-0.4538175081849518,2.91797701842947,2.871051958367249,-0.5789067505071657,-0.8130238256814275,3.1257976147033126
799,-1.8733046861169536,-3.128115868985646,-1.3446594244295373,-0.11798044515543404,0.9258104839252246,-0.03774615619722166
800,-0.5700823346031716,-2.343596108840934,2.293064007463265,0.9302551862368071,-1.357061665636528,0.9660315151783285
801,2.044936518408642,-0.12320188757495876,-0.8851795618958342,0.4706585057246855,1.357422842209922,0.4888119902280783
802,-2.250073233659089,-1.4084645547780914,0.7556927824819555,1.3750578232069568,-1.789716942815903,2.1752668449212242
803,0.25021984244905493,-2.424073383301888,3.048230335922767,1.5132044081823963,-2.185072862950098,1.506922634040695
804,-0.8751705071704143,-0.5275778729751184,1.7425203499894257,-1.0343794296317053,-0.38583527024352193,-1.2102138146971644
805,0.5850228290050219,-0.6478172540905893,-1.397573918934145,-0.6518466431810133,2.6457413652082096,1.534802619038162
806,1.3386571403110228,-2.4945029839537765,-2.279925670355017,1.259585943500655,1.4264513571986068,-0.8751209175594239
807,-1.1396816094861628,-2.0526450653775066,-1.349826100940112,2.1983725938283545,0.6078192566947092,1.7831864584587942
808,-0.8068208926685005,-2.4726819328951324,0.6599885379402095,-3.0585027399931652,0.24497729761234632,2.598955903911188
809,3.0379969347643945,2.2672055374928384,-0.4635666891957677,2.056287077857731,-1.4481229443643164,-2.2736806516026506
810,-1.247428059760122,0.3618170174421369,2.751476629210198,3.061911610061892,-1.2258707135718157,-2.7562495793483763
811,-2.3492022422974674,2.2894351436804508,2.081214321374482,-3.1323047946887126,0.3505355653523461,3.085504462563449
812,-1.9446989872494687,1.569830523804284,1.0342037006932667,-2.5326069721198814,-1.088311171724056,0.32485395920427207
813,0.6770928813295227,3.032287453442625,-0.7736789783866955,-2.7060708459908214,3.1338955025230595,0.281886425056062
814,2.7855584596399297,-2.7401941064142896,-3.093922518822329,-2.5608083648213023,0.5005994190706047,-1.010112063116288
815,-1.5840377161068817,2.9080353344684093,0.10329286944462446,-2.1897894880740125,-1.801991190893124,1.6106079998930225
816,0.507005969372778,-0.965577477536522,-2.91835621152332,1.0874650010116484,-0.4015543811964406,-1.5180731819959152
817,-1.0442580680621565,1.134228753610067,1.687102018245036,-1.8652600942102717,1.594364790100184,2.0764785318233345
818,-0.2957184463395248,2.249737997735256,0.2520131323454988,-0.8000069636952118,-2.5779473303753297,-0.9390312850467435
819,-0.31238447888444254,-0.019062013943278444,-1.8295738229744711,0.20141748236586476,1.132617021536074,1.0423322944933249
820,2.4965129196923,1.3888176291544632,-1.0144271218820524,-1.1368978024762,-2.760730741500028,-1.5590304076994694
821,2.023763827908236,-0.68915124240407,0.7321184756190275,-1.4168630825619613,0.8476010051125815,0.7614944850360947
822,1.4504678926616457,-1.5622559686150197,-0.7377004179934246,2.0271793964849287,-3.140944190982324,-2.512674894834309
823,0.16260525799695769,-1.8227312139215237,1.8948547065041188,2.478918544005711,0.510966649522314,1.0429335789718568
824,0.2606109107804331,2.8459479322320256,-1.4134328259277233,-1.1267111710386546,2.302685992664874,-2.2758869370787043
825,-0.26461475549687963,1.4740910847844102,0.7751605826487418,2.2892402658612667,-0.5265050575730661,-2.116257131052337
