plarotta/vision-encoder/UR5_positions_3.csv
ImageID,Joint1,Joint2,Joint3,Joint4,Joint5,Joint6
0,-1.1703891041709626,0.6778227279687719,1.2804864382510908,-0.5427325286449765,0.571993620005856,-1.2195503923499271
1,1.3066546691975445,-0.3712762827178495,1.5339349357444845,-1.0095204610174107,-0.31407592253920225,0.28898641935092195
2,-0.9918287643618257,-0.9166572343479729,-0.5501147249280516,-0.37647358432475375,-0.02625741682711702,0.7305365158511781
3,-1.2337545240627983,0.4316473451637646,1.3765239553261872,-1.299732324206728,-0.47622807710763704,0.17788044851924156
4,-1.2308911242306753,0.29867528900949947,0.7583510790741443,-0.48122472581123343,0.13258219184499653,-0.36798154547737294
5,1.1566701879336803,1.2296857584421685,1.4883397137541112,-0.4070835586142465,0.8656005844245676,0.21414500674977321
6,0.07203084533171955,0.6890824800416184,-0.2983296725363549,0.06393771019205219,-1.1608603670540676,0.6578611924538693
7,0.9952876327005513,-0.13507658771073294,-1.1541135505109634,-0.15284730651936385,-0.22581629418532345,0.3915582306143508
8,0.7264628620830158,1.4264758008104428,0.11005926825484713,0.6705977339102107,0.7310021249320982,1.0014083711260398
9,0.0836996570224382,-0.9892774776762175,1.1421779704867268,0.271603630960219,1.5063466328827984,-1.1755608958448862
10,-1.148800097432845,-0.21381443556984925,-0.8679094725252077,0.20174392024677323,-1.4627413899169235,-1.3719288803780263
11,-1.3515363311824398,1.5184025452964542,0.0982397830681625,-0.26255421365751497,-0.26731103270630685,-0.12339656057816151
12,1.0001032425368321,0.4225660816860364,0.8240625631596785,-0.2948011350525468,-0.31472184722526486,-0.29067524455000715
13,-1.4542462193821661,-1.0612181910055725,0.30297073542439956,-1.2209268238321354,1.4205793231186252,-0.8391018248286591
14,-0.8873086496471014,0.8939677164114368,-0.3119052769208539,-0.887824168302045,0.3529646554087331,-1.1355836102800643
15,-1.3477311573954698,0.1270136895793852,1.2910414171329294,-0.4885402116033486,0.6444413498313506,-0.038065550486514166
16,0.1539675967739922,0.5468136542639179,-0.12434417562576439,-1.30162678362855,0.18370925979816977,-1.3254638827532175
17,0.25913539355514903,-0.4667554384695698,0.26250843777851296,-1.0985754036629563,-0.9626447171399235,1.1703436226900603
18,-0.6721117673502427,1.3967550413541034,-1.383836939066218,-0.5705366649621584,-0.27589410187817043,-0.6513615423110817
19,-0.5206462971409185,1.0491059385480161,0.019342979288873963,0.9376695705485751,0.4534660757132891,0.6616434404661895
20,-0.38571091600389074,-1.16095259971126,-1.0741984903474633,-0.2714649565826932,1.21449885812132,-1.0471859693927417
21,0.3544100883695982,1.074280269423602,-1.0522949334784477,1.2904242010592135,-1.4244937658194852,-0.8240465510214248
22,1.3789195797419045,-0.31446229581255025,-1.1309952506546852,-1.0450855771447327,-0.052555452721614326,-0.1127253037705438
23,-1.3552554645643977,1.1149082924768128,-1.2744216002153466,1.0086962413822693,0.32652960121802077,0.9531820358117757
24,0.7781425709692593,-0.5532907035847399,-0.1948858487885543,0.844528610043171,1.4411434202693534,0.851276523494743
25,0.8890751575926092,0.9225266508356831,-1.3364235809819103,0.6319223714092956,-0.9458774116972485,0.1753551293078368
26,0.2147432568058707,0.018807160762152053,-1.1386776421610298,1.4459846734026294,-0.736563805699832,0.05091128627916541
27,0.27592876106644026,1.4375811655826625,1.4141369584492063,-0.28932783891585623,-1.3271354920368184,1.3662061656234825
28,1.5068742482989537,-0.9710959488120755,-0.8370968593231564,1.0616292353382195,0.12300090484683834,1.1044950446906308
29,-0.7474876417668553,1.3375799716716688,-0.48727478075468666,-0.36881164067251837,-0.3884993304358979,-0.5035960856123918
30,0.39460721760248485,0.14084844645503525,-0.9192841417696859,-0.5937249306157215,0.6142394616530931,0.5001056150089358
31,1.3574238684225715,1.519213149053606,0.8546926164610902,-0.8867816030608118,0.21942987298071004,0.9771867222069335
32,0.43399893274302004,-0.4272022883963724,-0.5088731365615686,0.28288326670395025,0.639875079406413,-1.438864697049647
33,0.940489046409617,-1.08223479023657,0.2202902713649073,1.2923289018559894,1.3462518958428054,-0.742623483604586
34,-0.01861587302659351,0.21112761807477254,-1.4248389079312975,-1.0658857491953142,1.0728485058324018,-0.8945834339129323
35,-0.9807685382687703,-1.4585339757075597,1.1345631619086531,-0.15279001740242304,0.7244609955148551,1.3640911557855397
36,-0.8035900690777172,0.7425061641761594,-0.2877649182683282,0.5374383871822235,-1.2983124219176183,-1.466547464294958
37,0.5856596295159999,1.3663545877041066,0.3113076865916917,0.789533089163065,0.7427733335191835,-0.6033123396474627
38,-0.7316750924559492,0.3460485399080022,0.9941104929317341,1.1978340997535746,-1.4006293901161437,0.21510738283326059
39,-1.0183277217943698,-1.3864401790536962,1.1595582652838354,0.320894592116969,1.3970694917451638,-1.1685315843103226
40,-0.968774072314582,1.2346814015002412,-1.100536122533252,-0.11812274400976142,-0.037416051087879154,-0.9575162328293221
41,-0.8938392508581406,-0.6148475941707886,-0.28511816691320147,-0.4796463908240567,-0.17513113687629267,-1.2616809271790899
42,-0.10322061245087122,-1.3350859028003261,0.5225843316195453,-1.2719500951478953,0.4866210013589858,-0.9752403325661902
43,1.1703936778046584,1.0993304746338484,-0.4264068056735739,0.5293891572647365,1.2419202746719402,-0.32214891688192515
44,0.324006538908044,1.3601697605691685,-1.1481491512975546,-1.047168503147364,0.8567501284852979,1.5387946184002264
45,-1.2112585257684372,-0.3974656717078946,0.24990091902504719,0.3492924241944577,-0.4981379295020574,-0.4809741536987666
46,-0.32352479804777357,1.0186462562927585,-0.0710142455522027,-0.9099829729045238,-0.7353224073846055,-0.22393411581572908
47,-0.3920877714176816,0.02131709408078941,-0.239856369470286,-1.1245024284710392,0.02553847672438736,-0.7460500563424863
48,-0.5640092407165371,-1.3601555491291761,-1.5188792964032776,-1.5504488826342706,-0.10124885054085997,-0.47846448204712644
49,-1.2616738738604927,0.4715793912612729,0.9878186810275906,0.23244442114350017,-1.1704628234580117,0.7631717738163899
50,-1.4797961740075667,1.2457923859936528,-0.7990393686605274,-0.05262230207287755,-0.849289593213303,0.25667485091660636
51,-0.40535933278938097,-0.9907218934803843,0.2655534132891064,1.2143314650759507,-1.2284801345465926,-0.9464116563325785
52,-1.1809893924375146,-1.4925507534204123,-1.2392198420611908,-0.7898735521602145,-1.101861505043444,-0.7865983802229142
53,-0.6962214073403225,1.1438378882312965,0.860816188211126,-1.102446149609533,1.3344319772818127,-0.8869395966683483
54,-0.6909234289968299,0.8731708611633495,-1.2584725333663762,-0.678779269885672,-0.4575393979257789,1.1101957697075684
55,0.09179189872591786,0.9353876350825079,0.3918952338784347,-1.4401176463002416,-0.5658783460386103,0.37648516179641
56,0.8949668235943631,0.3106845005985879,1.0680279126378314,-1.5398131942343323,1.1470993414798691,0.8386189761969152
57,1.51546933690451,0.748135888849911,-0.6101555708087912,1.4475542795291139,-0.018941032195439078,0.27781787744146524
58,-1.0934768975385278,1.5643153031801411,-1.1425976110586316,-1.5585581124981858,-0.32119236157174225,0.8288264489599952
59,1.4257387942476947,-0.44980958760027057,0.7140873524576676,0.9889990066970142,1.3403509171656278,-0.9434053916379863
60,-0.01361230959850901,0.9616636528106208,0.1286420915635138,0.09994450713366265,1.1688540699613421,0.387436932726009
61,0.8204875824768534,-0.16492207897108746,0.16560074811221615,0.09325529351343298,1.1440082492363675,-0.4468202416070064
62,-0.20481074258809295,-1.3949973961721494,-0.8146177044374288,-1.3038341464788203,-0.1108209363071484,0.8122073873162621
63,0.47689656356587706,-0.8868338051710626,0.9444512541344294,-0.36690465777476766,1.4832100286557468,-0.742105235706123
64,0.06342970448922158,-1.0350215886304532,-1.340674503119184,0.7695919200527142,1.3633467717143364,-0.09002418214367469
65,-0.9314129393960898,-1.4693872882094703,0.9450111341380363,-1.345385656775477,0.3636395355348305,1.175374725365188
66,-1.468263860928772,-0.8484087045861238,0.6887934678136789,0.06814298256080198,-1.400130016632366,0.18944563195713338
67,0.018856303750077075,-0.2971950568514343,0.10882681364576463,0.10942548591522305,-0.8267930222342357,-1.207373981479854
68,-1.1007987793797103,0.33101750318951617,0.2576787701062091,0.6037148370208496,-1.0786870364406358,-0.7268673688770836
69,1.455266380023018,1.081159383263512,1.2369366775923827,0.708169436484094,1.233937282786432,0.6809901608521445
70,0.09596829623050218,-0.2102598314435551,0.5174161710786271,1.1453609086223442,1.2844869627438973,1.2106263711968919
71,-1.300398154946164,0.5264635139971787,0.5837989386699562,1.1412727792230362,-0.40435593984739926,0.0017213388939345542
72,-0.7833220761037644,-0.12533717680931988,-1.5689603018332245,1.111039179554143,-0.8682755857613391,1.3294597323978885
73,-1.1589842052458028,0.5596148156445966,1.2995835443481742,1.3998444624075277,-0.3412712360006438,-1.0980222058895317
74,0.8142437165306209,0.8629325622760664,-0.26934421932824004,0.5529293549403085,-0.02416178351390097,-0.49227240021726937
75,-0.1544723812210833,-0.6395876533201443,0.14916810184033347,1.2309638693368918,1.557730527792585,-0.4093717050575756
76,1.1711832588098443,-1.0233261394000914,-1.3149602218053644,-1.4845890557140722,-1.5342959506878158,1.5559923227054209
77,0.4985863705756617,-0.04161328195114833,-1.1998133545166376,0.7440574462157858,1.4276231408889588,0.8026417371160623
78,0.04987137690216903,0.17182408351084777,1.096990258117708,-0.47440511334048385,-0.29131469663516585,-1.0906257921940157
79,-0.9672964688828423,1.3499120124127195,0.6595274942808205,1.100806686076219,-0.8224872102209352,-0.7710535878183583
80,-0.9382638908984778,0.2538283165295492,-1.4627468240594967,-0.5319486612337405,1.4816703463220948,-1.3403467726289475
81,-0.8622868402184898,1.117287685498186,1.0899084467614366,0.45708124451467214,1.0505460653081675,-1.5096679633890566
82,1.1487971121322458,0.34766020426032584,0.18746513377396234,1.5293263009121532,-1.0360513095112485,-0.7862766949609267
83,-0.011607523304594691,1.0316767836966303,-1.22879686670454,-0.9597032478125832,-1.1477174471698792,1.1289163763833505
84,-0.728683283016488,-1.5645387363779384,1.0037905663300841,-0.929485309114697,0.4045399731791739,0.03174113458639871
85,-0.8549054104085305,0.7685927047233876,-0.0807526782712018,0.19219079551335772,-1.5152048324612106,-1.3159077092905989
86,0.051421582426217194,-0.18970087817382586,-0.61099336766353,-1.5432034916810558,-0.706813366027303,-1.478171896928053
87,1.3325911810510664,-1.367321228191015,1.2413437354267973,-0.27170855448934805,0.8140889434228571,-1.501149676138335
88,-1.4151886287687852,1.2599851343384194,1.1839320504706463,-0.1991623436662031,0.14882948726081513,-1.2449825799993595
89,0.3772731622097485,0.02510917657544276,-0.8680639467950867,-0.5326796209959614,-1.2827067989799723,0.19910138848141257
90,0.06688693382706057,1.4716443932703571,-0.4480219299143664,0.610696275093634,-0.023844571435637674,-0.7950818125913214
91,1.1664958594778483,0.014127821046471034,-0.952418891105505,-0.48895471093004006,-1.4124728679375766,-0.7486445057545056
92,-0.2585749724375892,-0.5752182945352778,1.0057579208784868,-1.1768891242340689,0.9137851488836017,0.2495846314053467
93,-0.3993723642804985,-1.5359451594719145,0.41077240350994004,0.7700292968249802,-1.2197674067226667,1.5663762524543028
94,-1.458678284761391,-0.4963741637071557,0.7795428772166977,0.005137271316723702,0.21703599824174868,-1.4657725191521056
95,-1.0417663560480432,-1.2642163840557001,-0.634215879900771,-0.8481620481141123,0.7272028776907926,0.5425158106022328
96,0.6914316677293706,0.2709519804376461,-0.336771891264126,0.7885860121684654,1.1890992002120102,-1.002900454578168
97,0.7045268304069561,0.407605597110843,0.7217418352936602,0.7433055838654874,-1.081128180015281,-1.5221834640787664
98,0.4157849186841165,-1.1409834644747603,0.50871041881949,-0.2443060848511036,1.0207693265467874,-0.13003190005082432
99,0.3295735350993383,-0.577524103398579,-1.397795997225684,-0.9912081326288662,-1.5063597329982243,1.3952868624110901
100,-0.7886964322255695,1.3340901701469492,-0.7538842601733325,-1.0093660778312146,0.9378587803099423,-0.9794982332065367
101,0.9195071224884841,0.35098039901549116,1.0286647440059475,0.8192955551997754,0.32859177398584904,1.2632265169998207
102,0.5942145443556943,0.9301553437678587,-0.11543716376406676,-0.2271391112504575,1.4534591902097898,-0.8481272814087534
103,-0.48508364056013176,1.187335992003089,-1.5425843686037672,0.44954271693350023,0.12334352247478941,-0.3916284668078618
104,-1.469162578625748,-0.578198756455587,-0.05093415239843524,-0.49671490225140147,1.4659446825183675,-0.15096235416290638
105,-1.024116633390888,1.0276420109671536,0.540899537877443,0.3909887180314353,1.4593301868175037,1.5361785575001332
106,0.8521478399171873,-0.8374959196115075,-1.5180983756537558,-1.2686012538476428,0.1632572773754919,-0.08394266890958502
107,0.789306157873928,1.3133377573435117,-1.4374777239927263,-1.0826968574801943,-1.1978150399592078,-1.3844804559665702
108,-1.3975885636592087,1.014033614239564,-1.367666273246368,0.10478623860634939,0.027610682230118755,-0.1180222304676759
109,0.956780094661581,-1.1259457080402882,-0.020611000719132466,1.3352654690079717,-1.361762031181134,0.023610039398294536
110,-1.0442494238000413,0.8128119422177025,0.3984742981498661,-1.4963391546370806,1.458724551232947,-1.2834769467620266
111,-1.364400212313739,-0.12964836023366177,1.1484506368143461,-0.8952399202096428,-0.9719102575952391,-1.1998611519045257
112,1.22150128249526,-0.2878624081693417,0.7422719656294534,0.9369410056834329,0.4210771526587418,0.6644835362763271
113,1.1683729822716042,1.5328733438078546,-0.08930402964702999,-0.492111430080145,-1.4302300030818702,1.5242412080512255
114,-0.47960573476741897,0.6880448108759136,-1.1208017424165493,1.170944629845752,-0.4427970466753466,1.1632615724211202
115,0.9907283204717752,-0.23078079560165432,0.6542180899371894,1.2644039612598834,-1.055199408207726,0.7924658966078248
116,1.2701918833365382,-1.2766984984456238,0.39548837863019015,-1.0742120208631607,-0.70610162803754,-0.9602053644077154
117,0.007712882821294231,0.5453136350695194,-0.027889309501205606,-0.17683861760475383,0.21762145400224275,-0.9035713842132872
118,-1.372237636553722,-0.5921444691009347,-0.08848054502654135,1.3313407930538377,0.919000558068507,0.029359952579148585
119,-1.4478157315015787,1.5222979733684214,0.7750893687209568,0.79467887363348,1.0916511869746306,-0.3752575847654105
120,0.03344187154100031,-0.07434720407405515,0.8731692481118114,0.20138592679975398,0.4780104531517111,-0.9191325759490372
121,0.6454753142762346,0.8347705939865313,-0.6360783137715149,0.03558959117290161,-1.0743916888317577,-0.45516751610894124
122,0.4110677069160722,-0.3096402380541483,0.5660326564617764,1.1007220166357197,0.2357036443640821,-0.5941926750684158
123,-0.6935623575917855,-0.8390857972082253,-0.9872824884507653,-0.3532087904668815,1.3971093285032432,0.9626234791985251
124,0.005831188410619248,0.5946628479498406,0.9673894637585061,1.2250126480840215,-1.3348091828619741,-0.9384751576758841
125,1.563284630039088,-0.29968046041447693,0.9970437473594291,0.20344154339990572,0.5052898599522497,1.5585068421559503
126,-0.5997238130306701,-1.5133084115004332,-0.26998298562756307,-0.14840437871224332,0.9661203518248991,0.2364710841645592
127,0.7662422458093965,0.9512031362058249,0.3503720306631348,-1.476384918182524,1.4689147365790305,-1.2631437781501298
128,0.3813128370388532,1.2742187351615315,-0.6931185645984482,-0.48234970200296057,0.4950377842168656,1.4458141947524088
129,1.524181751994194,-0.2826700739833725,0.4157424534579963,0.9838091033302958,0.1280518886225197,-0.7491313581808531
130,0.28914249268338077,0.44247469136178363,1.3145980959264536,0.516692489500667,0.8522628366145106,1.1534525929695922
131,-0.5075026861953409,0.06354847775991712,-0.07662558250741558,1.3185945524801448,1.0634833648116806,-0.04054397842168189
132,1.1884385890231615,-0.8194330191151578,-0.06766007423770182,1.05121519201029,-1.2174603354578253,-0.42551119069635135
133,0.34426854164627363,-0.9494215932652877,0.1178679042165316,-1.2075992625126672,0.7003042270973121,1.566372384704064
134,-1.5053285180993274,-0.8772468569282963,0.9770049055873402,0.7031794847628876,0.37064418041282265,-0.06649354666461327
135,1.2079874887178441,1.0728099647519693,0.11965875594331088,-0.585955768142485,0.7626687167146287,1.2694859024172165
136,-0.9782971804306728,-1.3555181410732853,0.4816796963552763,0.7271484975611044,-0.3690208338882741,-0.6627135371810581
137,1.2048882447018507,-0.510648672151778,1.4757198340180224,0.3011605554586443,-0.798843776873795,-0.9762214315235367
138,-0.9659518004562129,-0.8406085232601349,1.5221182478661657,0.8047714385369953,-1.5329040284707882,-0.1395826371218789
139,0.7571427281110776,-0.028395431443313912,1.0943405704402198,0.9581770058975705,-0.050536140932168516,-0.9100796300125765
140,0.8119051865580111,0.3848656393899812,-0.04396348272136996,1.0259605945805577,0.007309526172322833,0.8082370972687634
141,-1.1542575399493067,0.7846984845014613,-0.0296996473443476,-1.3676366943293257,-0.8236754164285706,-0.5724477060509341
142,1.0558112772615558,-0.028018775353502834,0.9953497277843177,-0.6253658375081184,-1.1582114675336919,1.5625713142200883
143,1.3256408554876398,-0.35371862939165744,1.4968470038099748,-0.5815872201473755,-0.03998638268500687,0.05237317902251171
144,-0.2625389859940017,0.665292744363883,0.640414697089414,0.233543309761715,0.7465227704278488,-1.1253046938861
145,-0.3303480399043719,-0.5479217220529313,-0.017542246570410258,0.47895603241942863,1.423512939187773,-0.8248019462506051
146,0.22440926966721486,1.1172124833984811,0.15222248254064574,1.5231429851099736,-1.4839217333846062,-0.6232117579391451
147,-0.29136730971549296,0.2244431004419587,-0.7819561651328645,-0.7462163521183747,0.4858836650046183,-0.5805761934660499
148,1.5275502129879261,-0.9272918803418507,-1.2930154390596615,0.06595323533032982,-0.6641443012887267,0.7783110676907539
149,0.18076491225345093,0.24138995236556782,0.6571310937759787,1.567192171757616,-0.3124027602791235,0.14136279850653954
150,-0.6481255304800002,1.3878544136020152,0.32275257011226777,1.3743676074086482,0.09013374002573271,-1.5558428052655986
151,-1.0149734123350882,-0.04266017638945829,0.1459581677941355,0.530006212401398,0.44210866649750713,-0.19368668612385598
152,1.2213561994329831,-0.0772800797444293,-0.47638583835444304,0.293505633555313,0.040888352595767063,1.3672065534050946
153,-0.562009928880481,-0.529129127725547,1.0484542960199192,1.130343640226363,-0.842717822107282,0.046326286479025924
154,1.4070555671694236,-1.1905199698994586,-0.5100433757999916,1.4067577132805438,0.4176863389426595,0.03696314376982168
155,0.9737568543959658,-0.8702646771863382,-1.0069399426393293,-1.4447347513570188,1.52290689047165,0.6465414958305313
156,0.5891223656300322,0.05655120716709394,1.1372157440736785,-0.34170871972691974,-1.2179457888471177,-0.013259118514382218
157,-0.993579051854105,-0.4508799859590984,1.341399460418375,-0.11110255321664453,1.1156868868394714,-1.409102766794846
158,0.373738512465015,-1.3433706948943447,0.7525651888135534,0.5631374985618613,0.9083412444378505,-1.5345045124027232
159,0.0954355337819337,-0.3350325366440836,0.3507019906511879,-0.6095418728704143,0.4720488904698823,-0.2158535520428322
160,-0.7157394712581411,0.8529732374447416,-0.2334994314188168,-1.2025771637446507,0.08345007580979535,1.3525293518528891
161,1.4467020447826502,1.0243058411398605,-1.0726215081861894,0.8874516276959525,0.7834024664117347,0.8072920516293718
162,-1.4859789779519657,-0.9696342710183845,-0.7443943917904198,0.41144336836214346,-1.0313210348302708,1.3404340394009244
163,-0.013561480921631786,-1.1776546816366764,1.546826280484141,0.5196389430337871,-0.25760120335135017,-1.1875135628453042
164,-1.1845624278571825,-1.541493004840906,-1.309586888043555,-1.5443847549017113,0.4098099812264142,-1.0343230167708757
165,-0.020345638594821525,0.7508185523317046,0.899445971471962,-0.9145686835135272,-0.75395620500438,0.2666237981453303
166,-1.4028709300186213,-1.1724961812458112,-0.6492807566745498,1.486467602047174,1.1078756473998843,1.287325912588547
167,-0.8665334310807014,1.3033453649740183,1.3291511338668478,-0.05593881569827763,-1.409617093333431,0.6660801482023051
168,0.6450499580362332,-0.5598865593321527,0.38547526774248975,-0.029625323321091246,-0.07631439415007346,0.09447128374153824
169,0.5892491269362181,-1.4675093624154747,-1.5057077368382543,-0.7406079782436699,-0.8747451177411854,-1.202224460744165
170,0.766046533844515,-0.6717090653466364,0.30976156112677167,-1.0777011107289136,0.11779718211814827,-0.3133020953075192
171,0.34080283974017656,-1.399401412285997,0.7801501472809464,-0.846248243048179,1.4824208678239281,0.752740088494543
172,-1.555553335506427,-1.2170389528118741,0.989711548195944,-1.2282762148562905,0.4178156963150925,-1.0394508920283692
173,-0.5304127696125469,0.6189604558467141,-0.22627415597599132,0.9586900037028308,1.349416621203908,1.4251361447503954
174,0.3484197272991765,0.4540250283344909,0.28202594434021755,0.30408077372490805,0.278992878913086,-1.408427327074484
175,-1.1351636631043536,0.9217032969561911,0.18288035711996575,0.3714534886193097,1.0134503864914546,0.5383867436049146
176,1.1829838042101062,1.0179768292386115,-1.0043233373921836,1.2000941908520293,1.3753212229734735,-1.3911833048895723
177,0.9094084308543704,0.8165582683814643,-0.010124421679979845,-0.937122892546702,0.05123138849903519,-0.1441876430601996
178,-0.2905626543139672,-1.5428171356505107,-1.253918011529836,-0.9738032821971971,-0.9619391817477597,-0.44514786072679735
179,1.437400938798398,1.5703144272547211,1.2453931513709038,1.2734388593934707,-0.26670736098916836,-0.6204459281738243
180,-1.5669408571475931,-0.3919132201343811,-1.1887675074416562,0.0039158750872272385,-0.13974545427904528,-1.1118213481960502
181,1.3954787384571081,-0.2198230398561014,-0.5056727706836042,0.9390908741506028,1.249351005300464,0.6419618622294467
182,-0.8782424608300572,0.9265173450928073,0.11910345916989451,-0.38386545076981915,-0.057800314376138084,-1.1610917769004818
183,-0.2885495895758792,-1.0026104549462589,0.43459673968185175,-0.46979460425050057,0.7461817974681306,-1.005706524210835
184,-0.5108475770672285,-1.0446322469647225,-0.6001642173489122,0.08782109568658991,-1.5350820269423566,0.4068261038504637
185,-1.1026572481614565,-0.7998736283811314,0.7175507787841204,-0.4975335739459965,0.20369771427164918,0.19666842553707342
186,-1.3343497812906584,-0.9674485994344064,-0.7546768257472449,-0.0034044910015309515,-1.1166352033187865,-0.4075372723875592
187,-0.5537383566115921,1.244346467478472,1.3582672190121956,1.0011292649318437,-1.53562986427617,-0.3911747685816336
188,-1.325471912356646,-1.0426855154530807,0.8651351852023033,0.4679748611216836,-0.5482353111803164,-0.16389765506505571
189,0.9493608441184436,0.8673244679407319,0.27809715870047635,0.5305665116346483,-0.28055044842908816,-0.9142297844801415
190,0.33041668407867775,-1.4993705415595213,1.131600305460379,0.6473353562299966,0.6820310756953472,0.385977183574834
191,-0.7836920976169407,-1.4307747465255498,0.9527563582418415,-0.19277939804190414,0.18551715764763177,0.5839977124890532
192,-1.371879447441926,-0.5637640306887604,0.84803230243033,1.1225590799545038,-1.1193367501989437,0.032441383681026004
193,1.204431908027424,0.9760543655847691,0.8851164971632772,-0.876061358918751,1.4375586505712632,-0.11612841477064051
194,-0.9797737391133717,-0.6997478704634716,-0.07205817592403418,0.8850461507519225,-0.8164600780979946,-1.3501264974486051
195,0.12148582293781751,-1.446802412504113,0.6330263137361052,-1.3104108278385982,0.8202388360393811,-1.1094636299000258
196,-0.3771713838295463,-1.4026909377084527,0.7681844167844858,-1.541685519293975,0.1553401933801586,0.1176075290236871
197,0.9300773667978404,0.30394217848773764,0.34887574676106636,1.5009252500159174,0.6899157696871807,1.419446186602602
198,-0.862707833550736,0.11085821780174743,-0.3727799105722507,1.3082408450472265,0.9045038733230708,0.1339108626532024
199,-0.4169334102697466,-1.094582726043381,1.4249133166773906,-0.3472102782679434,1.2219114828781668,-1.302797579650714
200,-1.1076787654103903,-0.7479741468196708,-1.2865889264841808,1.5187188169237236,0.17353644961484171,-0.9416988580376622
201,-0.3775833964534654,0.9853906998758046,0.7196155612132458,0.8272177450781006,1.3046694025836523,-0.954614017498553
202,1.395487479377846,1.0761199040728493,-0.13421778891311464,1.448676424423455,1.4659606645300611,0.0019522459050882457
203,1.0818139165272185,-0.23421731284788505,-0.2440462703578179,1.5707732149667732,1.5585008737698276,-0.29010904568145035
204,-0.28563913676575803,0.9322608440126019,0.7953054588780639,-0.10746672807979563,1.266060526743376,0.40034185359605434
205,0.6480095847232756,1.1449910995499697,0.8027957073605729,0.17562043780540382,-0.764306047027697,0.34487192915038056
206,-0.09944892934740301,-0.639690349156539,0.37953457364761634,0.9474912765608616,-0.36775685551227477,-1.2410745102323057
207,-0.43610434978915746,0.94643162486254,0.5280374020829668,-0.9418317316499332,-1.3841208027197147,-0.5678131287156707
208,0.05038687916036966,0.1218361751873347,0.47521945559375167,1.101540384791568,0.5026903917939158,0.754155240892656
209,-0.3292817268257495,0.3918946601265527,-0.33909347715409544,0.049126076103066296,-0.1950364042025836,-1.2145421503178508
210,1.5571379226787627,-1.0054349945711416,1.554452252649968,1.4465688684175775,1.1546952677586209,0.378579942804923
211,0.7317310528683927,0.4738717615266572,-0.7841235147371104,-1.04383312931795,-0.16067294654010644,-0.23563905831134324
212,-0.44170177336226435,0.7077535526491743,0.3499581099837503,0.7814648782705014,-0.10608122684063459,0.7784642774711812
213,-0.0425979165267345,0.4482228218788076,1.5149093185683187,-1.2860744537105457,1.125764207176664,1.0089016267697466
214,0.5142495461859582,0.1405263682876461,1.4801287455693752,1.5692591352947058,-0.33632576566755046,1.240061548299514
215,-0.8525104671249639,1.3301672526631365,-1.3408857039306006,0.7217225331791921,-0.6199164208955938,-1.5667611029925241
216,-0.18595507016077484,-0.7244538085465393,-0.8149753631774502,-1.5184201885032638,-1.4335147562736958,0.5224215287363223
217,-1.124805827301317,0.3944727854411312,-0.34206455754130216,-0.8949667135924444,0.4570192516892231,0.28207558805324706
218,-1.1712694137242052,-1.0775425565834824,1.1096004635108114,-1.2858980230469323,0.8258507343664228,0.2605586738808827
219,0.7719316492624628,0.48105733299513487,-0.6143081075990838,0.2111300679578123,0.6678340680982053,0.9119524333933451
220,0.6275923445726446,0.3712865847666542,-0.09112278510730532,-1.2484687204242733,1.4672653794310748,1.305237780927623
221,-1.394559853484894,-0.9842915691981046,0.07449576322747897,-1.0924619488706568,0.6079543939034457,0.9940145979063275
222,-1.2086957417836839,0.46602686093284174,0.013658121811474855,-1.1982899559372067,0.2287788434082283,1.430271639510936
223,-1.2826542528773326,-0.2421655042673947,0.9127240767239679,1.4810190017824247,-0.9516702709433353,0.22283109029832726
224,-1.0716978298232127,-0.5409360937765344,-1.0189024080522264,1.0780353365755326,-1.4127980961020792,1.5405240427086073
225,0.1807335698596304,1.4418870179262733,-0.6563545334855325,-0.46861416180082216,-1.4198952258821333,-1.4940035282281074
226,0.44188411284431695,0.2027836691842646,-1.5660734032489798,0.4073299169950595,0.6354981217499032,-0.047854718756765724
227,-1.5574757535683743,-1.1061429357190218,-0.6221233328398452,0.7068668015443764,0.9412068109036738,1.276416099516926
228,1.1731245432964528,0.9199123449832083,0.8658048889352434,0.7865618491460822,-0.905691034455868,1.2725876139680783
229,0.47419510740472814,-1.566309122499114,-0.9643685972811994,-0.30404789125459963,0.05962643484430741,-1.4569304958920035
230,1.3053981047495604,-0.011468685858375238,0.1034584850779765,-0.8612936329768226,0.42549471829806595,-1.453692450037497
231,0.7519512107469368,1.1462288900539752,-0.6308020261340944,-0.11427949367398105,-1.0079902846013216,0.3137248590881565
232,-1.394976824082693,0.05921309659436713,-1.5519147940253117,0.7210946842533885,-1.2677078491406326,0.6710869534263795
233,-0.6650492470842642,-0.9198502409488342,0.8897537644774394,-0.3392183908626629,0.9622481881549247,0.22243854525847118
234,-1.509481862353337,0.9036008446504891,1.1748267095235887,-1.0848460082312021,-0.28290308052071356,-0.505296141004562
235,0.2235541038099491,-0.9963028880807775,-1.0837851173931143,-0.566010193185942,1.4929658447178307,1.3689969512694495
236,0.6260344612514275,-0.0420888580173715,-0.4936141189473551,0.0388584569293946,-1.0336292605805548,1.5572868220223728
237,-0.33801563265801726,0.5743506517305503,-1.1216830387991337,0.8039289367356215,-0.44950391523475286,0.022598114163997263
238,-0.47023540024697974,-0.29366961461475394,0.42697304227118904,1.0228295193727321,-1.349911835578739,-0.5550902746229867
239,-1.335981961148747,-1.5468969498069816,-0.41764021553679065,-1.199155848562294,-0.0016035927242188386,1.4334593236403501
240,1.3119295520904921,1.3202501799788848,1.027384825521621,-0.47012766065681144,0.8760081969898907,-0.15929450432410386
241,0.7549407024995056,-1.4557278657554076,1.4375836733232163,1.0956433077033951,0.6009327155519699,-1.1962094961213199
242,-1.3413176580573802,0.8739542540611485,-0.26799638834101724,0.5120239852204476,1.0174214530990948,1.4458904347043684
243,0.8937368473817493,-0.01236080673669715,0.09315769555364706,-0.26120347046411685,0.9020802428577288,-0.5521472328789383
244,-0.8732216648096905,1.149853242260722,0.8744754324499637,1.1657484607000814,1.0294009498816528,-0.9743517096665469
245,0.18884961105981657,-1.2517817141454206,1.0901982106566552,0.7899867790203845,0.29980011911546134,1.002708626099055
246,0.47453344814540577,0.2983282657372268,-0.9143664979465751,1.423061382347092,1.404751164392192,-1.0517704370489338
247,0.012798860590988781,-0.049611469032152966,0.7361772988979709,-1.4469983938711035,-1.2387362954153875,0.22706981371795565
248,1.1707568139564977,-0.041569714922514045,0.1866300075308005,-1.2052897296799356,-0.3162032495825371,1.01561863966378
249,-0.32219135406171584,0.518361051429959,1.0118743697260606,-0.7842947899189234,0.6722211792001822,-1.4462870447501353
250,1.3057240706849171,-1.1899236649916933,0.4363627179123899,0.3489633390204725,-0.9010485589314904,1.0976815174604528
251,0.36309106290303084,0.7601751473095977,1.126623471868689,-0.7732568485150761,-0.4765180158007152,-1.0976731038153145
252,-1.5019850941722857,-1.1563332937344886,1.4066612971809858,-0.6968962607978405,-0.011773956926856899,-0.5325786519335569
253,0.8797685275202016,-1.1624924584072698,0.10720272958870924,-0.21011590905049093,0.7912169717582684,1.157006492386747
254,-1.1813839572946352,-1.0921689651286266,-0.5605335312182826,0.07929869000398226,-0.6243845931269245,1.4375394895217335
255,0.7568653938039369,0.6944196724498237,-1.1548226329872382,0.39731164472143754,-0.18250621575234005,0.39725355004903395
256,1.5699036910821738,1.0940658289966523,-1.5529824841488526,1.4450291979722025,-0.7116850708210422,-0.7323100522302805
257,-0.45998314277729313,-0.3445159634067003,-0.8980961157827279,-1.41995262701876,1.4580254866956674,-0.6682090255354683
258,-1.3179138032531275,-1.4796754545810118,1.0946660398985464,-0.007878539102549542,-0.7036130630266538,-1.4466307007528763
259,0.8350725250725293,-0.9321720512467638,-1.1082279461630262,-1.2190170850832682,0.4710002465922716,-1.220097059199216
260,-1.2558536094748787,1.0593757721580346,-0.20484833789306967,-0.38787262083711016,0.6665747360103991,0.4587677262581167
261,0.18628645849572312,-0.40373102077044143,-0.8865666322385266,0.8649989918924175,1.0146998881880003,1.5110860547551446
262,-0.4529493477388733,-0.7396937032766233,-1.1136204111370869,0.338359251448449,-0.01666548228419762,0.08775298925639019
263,-0.4407380287271878,-0.5600412389472762,0.6004326150387249,0.6648496838320455,1.4276381054782532,-1.4302464338745142
264,-0.347580163649043,-1.3182633556212033,0.28941743788340624,-0.9820007801347829,0.7370645395071098,0.0803694923004592
265,0.7685256324309799,-0.15266659553927187,-1.463579791008661,-1.5008611827412488,-0.01816436989605763,-1.0650752953032225
266,0.15648687954713458,-0.7402300369725936,1.0192355516242704,0.5454439971154437,-1.3268784341622195,-0.5192306908233995
267,-0.3461837739494571,-1.0151880175930255,0.5597942331847148,-1.0666232766043726,-0.3134966845205689,-1.5246215737494284
268,-0.01688425498860191,0.6906118896407549,1.0328978661808343,0.1078021872934114,0.11773697506659708,1.054251958160993
269,0.7161668994342394,-1.3887368781140146,0.3512772945109408,-0.05413657992624832,-0.7161042394547854,0.7095659429443795
270,1.0323833504073279,-1.2246748748434513,1.4970284791818411,-0.6626948905701115,-0.47975522453076946,-1.5367959034778413
271,0.01304789553999397,0.7946939715706658,-1.3574186004066002,0.41837540150260755,-1.135295318710495,-0.7006802337284954
272,-1.5048621377737474,-1.2923916574161052,-1.3081063843998466,-0.17223078195595942,1.4048572652428408,-0.4985343694420734
273,1.202991848367525,0.5749261178555654,1.3416694231299178,-0.026277087279887423,-0.45658624551972493,-0.034994673070033455
274,1.4358494274604912,-0.6971977232724117,-0.3888443250956004,0.9037720116464851,-0.16354615985303012,-1.3846729785005762
275,0.549413596250298,-1.2915879657295934,-0.8260552635464941,0.0689276147235367,0.38339266794911686,-0.29679052619193813
276,0.24297257145300888,-1.1985871822729186,-1.2920405389508245,-1.2262140793615561,-0.9190376402036012,-0.9278106405506448
277,1.5595567865642956,0.9791658210475749,-0.004014517549903118,0.3424161298137052,0.2408009233840842,1.1352061759795502
278,0.5453249136412226,-1.310105576071868,0.5796491753717712,-0.3849420984396319,-0.7252284209437906,-1.3796606461901983
279,1.4566982798628882,-0.5689803617196725,-0.13409373892228404,-1.4898254618960332,1.5671445541756235,1.4318155335343818
280,1.4434372561879139,-0.09709704556585819,0.2238693463731647,-0.9939584832441065,-1.5662975538597663,-0.10272434570487365
281,-1.4344190301834145,0.519475175243465,0.580195918417242,1.3773894844236096,-0.7764182150470184,-1.0366439961472258
282,1.5687695501049843,1.244271507094596,-0.5431412222537195,-0.07300848352152078,0.8465209783232797,0.6353125399906117
283,-1.3107488643886933,0.1521588306169308,0.21226521152677758,-0.8674188020241412,-0.23159767439287005,1.038816288082502
284,1.371175557690285,-1.2343231930016614,1.4672680371434397,0.7678585904138968,1.1040845879715535,0.44606937529734614
285,-0.9966054112503491,0.741903686082555,1.4164236607442722,1.0467845332750567,-1.2101866716708423,1.3219830572194797
286,-0.4745401639928559,0.4850181507795819,-0.3710563843047372,-0.8347097272957851,-0.12119369876558728,-0.24876995855170625
287,-1.2573663770723236,1.2395881711951464,0.47063297980881025,-0.9452892785043858,0.23044392362176502,0.4289352442109029
288,-0.7343771374538979,-0.8131579515019871,1.095568373443307,-1.0337734497913047,0.12751405660037096,0.7596390545691696
289,-0.6344609049844984,-1.3651020361994644,0.18880938724779117,-0.6733853819839277,-1.231949759574678,-0.4441992857118895
290,-1.2860714581134165,1.2106066152422343,-0.13020450704630626,-0.1619226611699589,-1.3028595859223109,1.4804039749274485
291,1.5619732886054511,-1.3211789659584645,-0.9037647003143263,-0.6253757666666999,-0.26847913628927667,-1.0131908857729148
292,1.2266115926567318,0.6316851510245352,-0.8253725800217621,1.2629785411008543,0.5513518664054522,0.8141644589269332
293,-1.3187815431011398,0.7512308674017758,-0.2943756661564956,0.2096691110629476,1.0371793382126602,1.5662937432332344
294,-0.25081278798850093,-0.7598090682001847,0.8931031374968899,-0.7927670276298602,1.4614381667377812,0.15555057037894016
295,-0.8820834412952832,-0.42602348556128433,-1.1909806288147065,-0.001957639514040599,-1.5400323447401432,-0.8751510198306166
296,0.11792296034981264,0.5383302602482845,1.0827532355097045,0.6482076987903373,-0.8797244515217226,0.9286190201595352
297,0.9534226662508489,1.263673147257828,-0.6081712096353041,1.48540221680349,0.48752452771793475,-1.3993026568522617
298,-0.357863763753967,0.5870466248773645,0.9139848513018931,1.224778656121479,0.11125852342150089,0.41053213260449706
299,0.6786474084855891,0.014604629655770252,-0.49131474302323097,-0.8824485860548359,-0.4301791051653445,1.0415089172317447
300,-0.24527627464200896,-0.3011922602742687,1.535394882410622,0.20701735154251621,0.1760019382827238,1.5600176568356021
301,-1.5188873903756657,-0.8654201203646301,-0.5844510766855829,-0.7391675625279894,-0.9532569890748029,0.6578868296349181
302,1.2701024513230603,0.3597325348060936,-1.0092466190595641,0.7722291181612957,-1.5548097683208804,-0.9256495536492285
303,1.4305161140221574,0.4202885715892082,1.0585270922263081,-0.12405398468169815,1.0066489538549934,-0.9105404167279035
304,0.39805057815068823,-0.842235223309686,-0.534147948036201,-0.9504275558280447,0.5423505608672561,0.5019779592257345
305,0.5016222083854509,1.0766031088918209,1.072770951363748,-0.8073187590899408,-1.3070844213089288,0.6151149955739434
306,-0.8421461460950493,0.478031314804614,1.1729494302741266,0.6908428712948909,0.08630324517549282,0.053717706875041404
307,0.6100131749658586,1.1000514723440986,-1.1167844817550148,-0.6466856898317276,-0.8216061525144422,-0.805331746393619
308,-0.36967111072927583,-1.171208026478436,-0.6805393321691935,-1.5307400725770128,0.6833967967486108,1.439054448154729
309,1.2292521242066692,-0.5147209070969896,-0.2035560775108658,-1.1882553507489595,1.0603346732528434,-0.012457374275010924
310,-0.27021836294175094,-0.0646918025945109,-1.5405242954839165,-0.7371079201673897,-1.0296283816555758,0.5640466379165954
311,0.2354405309622567,0.48001263052080345,0.9131868640710348,1.0121858578208904,0.4031132909404471,1.2365266149405336
312,1.017613714617391,-0.06325331686478974,-0.7393883334343434,1.1220035083598492,0.08024974221423253,-1.1920390748025151
313,-0.9734452275621432,1.2851494082801254,0.6670828462383578,1.4003355749143167,0.5866958169624183,-0.815672397931725
314,0.6624091779051242,1.469670310216606,1.3336491482702408,0.3641998968951792,0.46644051756970883,-0.01769148453732927
315,-1.5047367441995596,-1.0271096558907038,-1.0326537961266056,0.48840781029707037,0.5658477162081827,0.76120358245119
316,0.5891478639382366,-0.1670794824062758,0.8384809940008653,-0.09147906541283635,-1.4793962244301317,0.4984296114322513
317,0.34855117292878335,-0.6122167499842356,-1.0333766317925277,0.8222788074662408,-0.24141569348648484,0.23690625266744414
318,0.9304341624382126,1.247651921446939,1.3605502928416708,0.4010173965614965,-0.8586477058392,0.8080905040110689
319,-0.12768894278319554,0.5997403093584777,1.2521611392542695,-0.3497697924722005,0.7093890488062984,-1.0196665262660334
320,-1.5594910258671368,-0.0035343968101491097,-1.5219431971087096,0.46452911263994023,-1.193125907398249,-0.029748859713181197
321,-0.3202635320000147,0.7368751945808572,-1.566640618490929,0.8667536173158314,0.4763001885208382,-0.41835066186859815
322,-0.8043712213772243,0.9455580012670799,-1.5259192573865954,-0.5137149738727638,1.490121285146611,1.173360588035873
323,0.5387354289199839,0.3415105336403019,1.5291959199086484,-0.21835477269158465,0.49998693513698944,-0.9392403676807988
324,0.16829677731710202,-0.2922885944999778,-0.045053441764610014,-1.1999796597544372,-1.4763496282213147,0.0867075053530626
325,1.326966963468951,-0.39992660433930394,0.56873474785273,0.10758187160764221,-0.37488009077737483,-1.4967367010031356
326,-0.6011605232541541,-1.2020427998063217,-0.12040335408771097,-1.0009485265723805,1.4300062059119067,0.09481599558691456
327,-0.3346020991788661,0.936060262649284,-0.10987726624010441,-0.9161179768911957,0.7293527144419145,0.1995163135909408
328,1.3645531457205338,0.28062719207307096,-0.21990467879359188,1.0197674021627976,-0.9350343183554156,-0.47176794297476476
329,1.3742526091079061,1.497253364285581,0.4914254446756172,1.051209416457573,-1.2015295046147403,1.3807764373521914
330,-0.9679842274792668,-1.1951270447370235,-1.3029578375325648,1.0296354624629718,0.9476739450965765,-0.5971476650952385
331,-0.5249416654878982,1.0644227901234409,0.1471264248021249,-1.0327906920080951,0.26611100224945106,0.2940876204971796
332,-0.2847045880783312,-0.985691946448722,0.2722887391750113,1.4069654838035301,0.0908710009647391,0.018357420110493683
333,-0.503161235333081,-0.08110600668882051,-0.9205830451355703,-0.3497398388094861,-0.2114512013865406,-0.36066813010265175
334,0.6467180184972778,-0.3845047433000939,-0.324478987720777,-1.344170751113492,-0.563223421432183,1.429328533680493
335,0.2128369080145618,-0.6043916534040598,-0.017514845846533955,-1.088544484042608,-0.5897160119700645,-0.3013422054618282
336,0.6214257498544256,1.435941342885203,1.2024432314232376,-0.5669286033184389,-0.3003516859000672,0.9897761964849963
337,1.5460593955959814,0.08882023560086516,-1.0568508994445258,-1.0961899853719161,0.5877177008326728,-0.525171298946997
338,-1.3638830065800258,0.982361904417175,-0.7919919568349965,0.7795667146192087,-0.6125102374145316,0.35647630479324643
339,-0.9116410836268477,1.3048217751027527,0.5764839208571741,-0.41316517485120596,1.5503307225517777,-1.1472710628093434
340,-0.7027038118507745,0.09823536557528212,0.8416723579175986,1.3672895193213526,0.19816462154700276,-1.4377154022798198
341,-0.2120131507867975,1.0362444993695425,0.8982049597735129,-0.7526774137187793,-1.2987825652816407,1.165154693951354
342,0.10132756868160775,-0.8957414826149491,-0.056915405607478986,0.23837646374934351,-1.4307125299534083,0.4183434864314277
343,1.0782655041076699,0.8653996573418046,-1.2475183047176608,-0.4681235214777997,1.2478498312500803,1.5244716716823952
344,0.5654201701879988,0.5261201338973445,-0.1507579240405832,-1.570739877077316,-0.17641673952178816,-1.3728033654821177
345,-0.29377547921836733,-1.4765627397046783,-0.2849836234846692,-0.2194635748953766,-1.38916877782717,1.0416098680333707
346,0.47710845902920695,1.110246336752236,0.9759935006954841,0.6166214547353692,-1.486995369595713,1.5523119712143978
347,-0.7381196631579368,0.9206432535613729,-0.1358026670185719,-0.5517767971596861,0.6690144059081629,-1.0861698020737574
348,-1.0005248886387261,-0.3625108576285043,-0.85970740934136,1.0982350951106246,1.1321593068712938,1.4222297808559201
349,-1.1400988669068899,-0.07504591878785538,0.19924332883973328,-1.2069992001711205,-0.18058761750704733,-1.0733022073022687
350,0.1252730863350091,0.26394654300411835,-0.8459715370175751,-0.7365306327924299,0.8882748804132374,-0.3264944829280054
351,0.2525760869454754,-0.7301184550729418,1.2681662969180474,-1.5101076621328082,0.4615567958389901,-0.7241811934138422
352,-0.9163673403292796,-1.3967599685639691,1.4445481829491014,-0.6892802774611643,0.36053159403549895,1.377302939799712
353,1.0857950286270728,-0.2702536268444289,1.0436850025689348,-0.5298356518379472,1.3367480546480324,-0.5667024877147142
354,0.7310116851977861,-0.2032042360938855,-0.5950481645917132,-1.0825491894643253,-0.6234575047926234,-0.9771507809610798
355,-1.235633445938572,-1.3910215317234957,-1.5654803719592698,-0.5838243052806076,0.15224447030774235,0.6336948378318774
356,0.7625783154689381,-0.08563935823235802,-0.8563246236026922,0.5940122329790909,0.2649709650400067,-0.9578786546277939
357,-1.0345015179697774,0.10867553029718557,-0.44814362834468446,-0.4308269302826393,0.6748477490353726,0.580643582117268
358,1.3593156100348462,-0.5082651759440238,1.49591641924994,0.052150504604709935,0.41238214902198966,-1.4185739005038533
359,1.4116500329411785,0.2750131415270767,-1.319893254262989,0.13531501306919114,1.5532640130021678,-1.3814823291775715
360,-0.28827324276619737,0.07518369807986436,1.3254991064740995,1.087782255913564,1.1190868979404733,1.3198072339715283
361,-1.2004180129617408,0.35784817174087125,1.0649482466655922,1.4841090934309946,-0.13555290259350095,0.19606243906075838
362,-0.9906143789700683,1.5594829098188816,-0.37498753210375346,-1.3060567205905291,-0.5204440334408347,0.8356246198130521
363,0.33066920845487524,1.4856280604905003,0.8851615674755697,0.7906157137390268,1.455986095903247,0.5645581535353736
364,1.2923687904329433,0.7422222871850472,0.41617398073419043,0.4384826838492675,-0.6398731406402924,-1.2116445421387605
365,0.6240212910708016,1.0954611258866365,1.42768211676947,1.4566164823320413,-0.7413232870348256,0.2306985955462364
366,0.06718391836685722,-0.9593483523177915,-0.9119333251024825,0.8095728928630108,1.367161461290336,-1.3218879869332625
367,-0.20050839853973157,0.1854340702345212,-1.1805838992538917,-0.5048110594457846,0.7739608835256626,1.2538579992724497
368,-0.5088314979359934,-0.1264661075662823,1.3848762742989953,0.1599447939641756,0.21667513113783277,-0.7700073973133742
369,1.3450011371564452,-1.3647641796141807,-1.2137617289334253,1.2020685987841149,-0.06320784982763694,-0.5401640326760946
370,-0.38364056194537244,0.9978885774153223,-0.380705376288484,-1.354217338193264,-1.4065229198406326,0.777489559199394
371,-0.04156767949513607,0.028185365805361684,-1.3519221381387538,-0.9569330500829157,-1.3685042591545065,-1.0022519893562731
372,-0.20666608842478107,-0.824233717330833,0.3732902592651035,-1.2793643593810164,1.3352377304828265,1.2429461710438208
373,-1.0979662712650793,-0.0018179633860921918,-1.3846039858458967,0.925783966922805,-1.0875877367209112,-0.9444845818600442
374,0.16206750001515968,1.4846768318928159,1.5210963707177831,-1.0263953075277685,1.1590417082835351,-0.7360057535375798
375,1.4586440787507735,-0.5589882079905604,1.4913025964032367,0.32757790521139807,-1.1521986932551689,0.6315169956414941
376,-0.8331658495640176,0.35822924286905233,-0.14497361075924076,-0.8329153489919492,-0.4278893748561994,0.8791405535949575
377,-0.6410624656801943,1.5561355851288252,0.6513102921403329,1.187365809672973,-0.2948758457003089,0.754409228189957
378,-1.4722967774013167,1.3887399163014589,-0.5114606270273057,-0.164400298205023,0.24258057819998613,0.8494923476409828
379,-1.115851932594873,0.8355701181408861,1.2822547360528396,-1.2380279493552244,1.0592254246525874,-1.5249677983798224
380,0.2752856990226844,-0.43758590341148484,-0.29219599363271676,0.15889470086005208,-0.4497916339742174,0.5828540945904184
381,-0.274818615162314,-1.2729106232635417,0.38799935451139755,0.7935629440132423,-0.8288523566672814,0.5664201367919404
382,0.5351918941654952,0.5167517519429263,-0.6650840941052433,-0.2544224144952363,-0.0874789106559839,0.21244877902701642
383,0.5684638177252719,-1.3328519300890778,-0.6506558717345885,-0.5913344832280236,1.2964258381493456,1.5085183383806249
384,-1.4000229874482801,0.9131346272553404,-0.7903811297609976,0.2804609812010641,-1.3381292423098718,1.3687444042625647
385,-1.1378988646716444,-0.7195786256023485,0.4306402209969815,-0.6596343703659062,-0.3198675217205853,0.09778404827711618
386,0.7299523209205825,1.1622222975141945,1.2981302950686424,0.2754428625057044,1.4013807238625526,-0.5375112331565481
387,0.7970722120017588,-1.3383637678416749,0.773106727318615,0.6100455847919712,-1.266455740127968,-0.6533666903671638
388,1.3145505125843262,-1.3270905035966858,0.8334440765835245,-0.7780049888108654,-1.3367785400173566,0.9031040086893296
389,-1.5587823611500171,-0.07085355905986757,0.7244585976164983,0.46125463583928017,-1.1223354650640498,-1.1737185850238872
390,-1.5089134458565137,-0.6228111181084344,-0.8895595059354344,-0.6959032121156934,0.18699530583491808,-0.30797361959267544
391,0.34064494551381563,1.4203418210920171,0.15339667215849606,1.0912643196801475,-0.6991828313355539,-0.02214285244161629
392,0.8019896248869975,0.47818118539344656,-1.0779042410111692,-0.5703193695668889,-0.15897998555847126,1.2362958209047474
393,1.2163257457125014,0.21688619710414847,0.9126802324116001,1.0305385782910061,-1.4685348122615791,1.3486502297799818
394,-0.7947985986514805,-1.0658738157968202,-1.502141664475056,-0.8868441739648926,0.5489547334364269,-0.27699231392916923
395,-0.4837562541025189,1.2574178698395224,0.33010497911937997,0.8332631717213008,-0.44769249233771347,0.30510831475507394
396,1.211965623803354,-1.324924199890375,-0.49931144872022304,-0.9932241789222411,-1.1820297927298322,-1.2943815515558383
397,1.1367866458605285,-0.5592156767258476,-0.15663186501010684,1.5246732404321355,-0.24894836596065661,-0.24451347492624853
398,0.7341201200325154,0.33450724481861527,-1.187428843182297,1.549764331015815,0.27860166128740294,1.3467352186232953
399,-0.7319752664568754,1.4518644846208861,-0.8275096105048201,0.5933681744100561,-1.5315709818332157,-1.3925566858949334
400,-0.1567923035499572,1.2342577102831314,-0.5061915576944567,0.9956517637628921,-1.5663847687620847,1.3215747040893282
401,0.7805576325512646,-0.7259634561173649,0.3681989870311675,-0.7645905660154548,-0.5902360806361624,-1.5608693464366705
402,-0.352925125174411,0.20737148260353466,-1.380853150330447,-0.740196214652482,0.6795932348236877,-1.1132544961904378
403,1.2825288017603826,0.29786283393515256,0.8366789725107937,0.9224024760083704,0.7545254768307657,0.8878435115816261
404,1.09496712455416,-0.0583668526704475,0.11812261111986277,0.43846648580601055,-0.6070406794880437,1.4227735116859739
405,-0.380926298057225,0.31451379917217515,-0.6027822924054885,-1.3598235696631473,1.4534807095113482,1.2586922798925033
406,1.1709750815286988,-1.4038234336045157,0.9626856640371,1.1607446218400073,-1.41865140698785,-0.7411562447067174
407,-1.5619946050737274,0.740281604452159,0.2768134248581522,0.6246697153924261,1.3374380016450407,-0.3554396577622725
408,-1.1860614858652017,-1.1617201084281423,1.2906250492788844,0.697604218464769,-0.7862216247103468,-1.353722256681917
409,-0.04170835183584254,0.41382575715796954,0.29406361139741555,0.7471813276956545,0.4000265949970183,0.3460145648071009
410,1.4706029257817175,1.1931850944416902,-0.595803712859675,1.4182067095019546,-1.0341014019043326,-0.8771826121953821
411,0.1787366463167932,0.5272765450391081,-0.19134951661748478,-1.5464017936448884,0.9193901314894553,-0.2497071704047671
412,-0.8664041036855807,0.9551985805343239,-0.575199947536669,1.4338371597370836,0.5477679024966231,-0.9648481105684222
413,-0.6558864390040234,0.9814856424856364,-0.4542267435405656,-0.4844565859618535,0.37664939982153434,-1.2571792784601883
414,-1.3039413082472535,-1.1442811170915288,-1.428959922845798,-0.7892268704758794,0.19084103058666924,-0.011616770592742798
415,-1.475687702441114,0.37757494401311753,-0.9656626493363253,1.348299802603016,1.5086415429119442,-1.5220185737810674
416,-1.3907089036358997,0.3333055898165398,1.0639298445091012,-0.837848977938349,-1.5373416643294138,-0.8594165315748472
417,-0.6816073695915179,1.1310071775015134,0.8214766994674263,-1.1350501517984002,0.7922028492733468,0.7612579954844398
418,-0.9314641302645822,0.8310604308114868,0.914214428912071,1.238880293528267,1.219381571347388,-0.15436424396723103
419,-1.388675166881383,0.8947991400990265,-1.48377749412236,-1.5591061408991675,-0.6882532728702503,0.7201940912088536
420,1.5252901406908514,-1.287045684331442,1.5216647345019862,-0.12261424483173577,0.47665456988656896,-1.2028366649409943
421,-0.5272284427515161,-0.17221877616528758,-0.5908441361124953,1.0054103317003014,0.9790183190084036,-1.1250877926891987
422,-1.3237535570925343,1.5208803499908674,-1.0175230843146066,0.04822779612348871,1.3091223179579776,-1.5009133816573634
423,-0.8336071113811432,0.6703709211266853,1.2255560335016242,-0.4913611773271451,-0.9187445349258437,-0.5519668203786814
424,0.3730710703677389,1.3426498830528524,0.24423523208718345,0.5542729056792819,1.1192983125094202,-1.154501336945645
425,-0.3675410522239735,1.4641561449854787,1.5589443258925137,0.5377702462141718,0.2082647480646327,1.2621803039435155
426,0.9803014766116416,-1.3079498376689946,1.49609432470848,-1.0298729900843904,0.04021648246122056,-0.8623686916689841
427,-0.06504072163046137,-0.9416011350606843,0.9722880235745577,-0.540337686956555,-0.37662886634276704,-0.18997169874985032
428,0.004601051896680808,0.3226453702081633,1.4313926399454493,1.0722560663037717,1.1843992673367332,-0.23801614414702899
429,-0.1801304734279967,0.3670948250142021,0.5111430596572921,-0.07455518351365797,-0.8549075905838197,0.988979649636434
430,0.8605230927802965,1.343739370862047,-1.5451500970371626,-0.8154852297656732,-0.901078044166082,0.1651356473004344
431,0.8334701729669498,0.6636894021389894,-0.44026664546122873,-1.256201532472028,1.0942680372904765,-0.21104178523094408
432,-0.26049684407353,-0.7669898069380127,-0.05771308754792215,1.3043757998027323,-0.4552543632493533,-0.003928367366490715
433,-0.10669684479610764,0.08349956791503099,-0.281416345930362,-0.28641845828765655,-1.083098605166759,0.17683152221032628
434,-0.4511511994993249,0.34473863912381986,0.35883256557417353,0.0656792906134791,-1.3369245340699885,-0.363588002052079
435,-1.251817561740196,0.10046233400971638,0.7846010910073651,0.3153087785463211,0.7422342581293577,-1.182651082598753
436,-1.0234865179231685,-0.8499418571279036,-0.9183081467520455,0.4721245704844428,0.7501105917573159,0.10895525683313023
437,1.3014966865252755,1.2220472667435192,0.6233720560198202,0.5378644324608466,-0.7760160386246444,-1.3046880861910186
438,-1.3050924251833638,-1.122950771637914,0.6017470101417959,1.0594178270889851,-0.0010891495704092868,0.7820494569739478
439,-0.4430224006655268,-0.6678975922002908,0.515105277006418,0.09019524518789557,-1.2514334212276133,0.8336747965251194
440,-0.022655468689793512,-1.1014128760491844,0.754443232465094,0.7303563023292936,1.2908602580109867,1.0586125945348215
441,1.2561397837273254,-0.5096791511562493,1.1427188023919084,-0.16447914813027809,-1.4940726779061588,-1.082295363573389
442,0.8564508306466752,0.4854755429305788,1.1176823077373093,-0.7154050711973581,0.035002670411407255,-0.9783049144595645
443,-0.22299310222725088,0.2380000066287029,1.013466862570886,-0.33239207559070993,0.8472297893582215,-1.0396736930357133
444,-0.6169517235754693,-1.4039820120626318,-1.2265219541940255,1.0563313084474677,1.0973494185156873,0.737747411234897
445,-1.133610278576699,-0.8224314789242748,-0.9647849123719267,-0.15930454773864033,1.2774690279543384,0.2182461110216567
446,-0.2378279915298125,-0.3061026041864088,1.1192064871149778,0.5067962309882104,-0.6929191523464111,0.4515703692480484
447,-0.6193980175360366,-0.2681616128420059,0.157156761413346,-0.1487883668271961,-0.4809528483332901,-0.3419405837973093
448,-0.45430899161773985,1.538816956537751,-0.8110009471476082,1.3801442325678681,0.8172746054907525,1.447367923056969
449,-1.558144071463496,-0.46277802631780696,-0.045212034490611286,-0.9327729670044875,-1.0688711467659249,-1.4756172749472418
450,-1.4159748137422004,-0.6234380933051121,0.7131274551451714,0.30259154565087876,0.615111972686154,1.3989347828263816
451,-0.30171648026987063,0.49417148661169064,-0.3488379106498771,-1.2102452432962296,0.07828230713930728,-0.4710478694408491
452,-1.3147512212786676,0.12545667707518016,-0.37665541512485534,-0.415105348606833,0.3632963212638307,0.8281751064770577
453,-0.09561617561859981,-1.3775935560310488,-1.17442118162288,0.33221795217243044,1.3951276554112808,-0.5663459740263728
454,-1.476375056450725,0.32516350480504275,-1.5167900794397335,-0.4840717070187903,0.7829951306110234,0.35264445476392203
455,0.2981884004471751,0.2179214293399654,0.3925850097297696,0.4764436612771763,-0.7183429786354245,0.49364957160770473
456,-0.9983331910993288,0.17975939654460915,-0.5249084037404759,-0.636354977841131,-0.2146669926109548,0.8029861817555006
457,1.3298510347887644,-1.3348705368944183,0.44881693995085303,1.0505044495961506,-0.5220378844070206,-1.240039517933925
458,0.037581327015220545,-1.3174445974390454,0.07160923813326603,0.8799989247103897,-0.8588248026746447,1.4905054595064642
459,-0.4911420666273296,0.026173979923838964,-1.107062231154838,1.0537246543460013,-0.026108974033228538,1.3227211001997468
460,0.34441098448740637,0.1796355079658114,-0.033613553784503036,-1.1539629215977656,0.15282792084861385,0.764155623665618
461,-0.8920649807361327,0.06370034801681723,0.8552558693034285,0.23707314279974367,0.4140563657023677,1.2507482339350329
462,-0.6226032676982438,-0.22946291253179174,1.3150977434190172,0.08121790082771163,1.5292005675121079,1.0700560677710307
463,1.5304513077107544,0.6411338685067625,-0.6600181379100949,-1.4364546093849682,-0.8947424853988208,0.15155708077659735
464,-0.9157643096371912,0.4239079500745524,0.0017510870099781695,-0.17003236877283867,-1.4382856423555548,0.9988880043663921
465,1.3437146551065755,-0.5347408374988643,-0.36191892534766734,0.6595295902916227,-0.4823015136449105,0.22918120235948858
466,1.047795650122251,-0.8006487955413987,-0.5855086288281878,-0.7224436380029698,-0.9322690143345405,-0.2770225390923975
467,0.6710183973402875,0.8616912424821086,1.0087192096156223,-1.4583584333753408,0.36784663810940055,0.7669364285752516
468,0.7928760200997602,-1.5366364586313808,-1.1366293549643596,-0.5538806901389413,-0.9601787422297642,0.5097361614788429
469,0.5829659212791838,1.1616489927362004,-0.8376513237572188,1.5327156000026294,1.048730646460442,0.7582214225800237
470,0.22695708074923315,-1.2410742546658442,0.31342428055476956,0.5567824169838169,0.26175852063177585,1.1704896980719415
471,0.045186239459455324,0.6612656518643152,1.2343739732484589,0.4609016002040125,0.7900973247105854,0.787185892089441
472,-0.10019644621189583,-0.7704259193143312,0.01954108156099177,0.8044573213297532,0.05041526817652642,-0.5016297184632506
473,-0.28952718826820445,-0.8445289930377934,-0.7490175675239347,-0.6838226812287914,-0.3083785366653804,-0.9949945313018448
474,0.9416286333275625,0.05293828784650434,-1.0275948560806474,-0.2255996581279185,-1.105515808607299,0.4525364653144721
475,-0.5693299745143188,-0.7802914743297491,-0.5861675788867503,-0.251639688611357,-0.5340181370408854,1.1901451924847026
476,-0.9583520698008017,-1.2155094995748954,0.7657940789365716,-0.6508007490900851,1.4340262386491878,0.2734430728059509
477,-0.338221981278259,-0.02324669646717159,-0.852674238864526,0.9748969987362308,-0.7384256413272754,-0.7382142552872325
478,0.5058804627720486,1.1357336976868169,-0.7347275054312639,1.2011956002606925,0.7361303927812641,-0.1487178071901809
479,1.4306775263579903,-1.401668716270448,-1.1495055000920298,-0.5252434332963423,0.4904054436640273,0.6436025365930553
480,-0.9597455332260917,-0.31927732225827565,0.06187881791050076,0.803399092633506,-1.5210405243474214,-1.1488194743535765
481,-0.6240220035961103,-0.5471883225123086,0.6421331022726364,1.2204205627037266,0.2551465702851745,-1.5641798557970283
482,0.17232966379326253,0.3320989168284514,0.5959407957505163,0.15873540970062128,-0.48968711464985715,1.127523253156519
483,0.9431069758428885,-0.2263848924658518,-1.1313726112819296,-0.6464750329150135,0.865862016025551,-0.6885716793622209
484,-0.055725337398484065,0.6634519606934357,-0.5614760662323861,-0.6111140240832639,1.5282986605346456,0.14663988484448542
485,1.322411892651885,-0.109118130940689,1.242704407370271,0.9033310316946062,1.5469147400484555,0.05315238801880362
486,-0.4342516561784009,1.1570713999257216,1.1255568485681597,-0.7917236921693686,-1.3953839336143614,-1.4370255067959774
487,-0.3334281551682605,0.6988629274694342,-0.5203847148423217,0.6617073573838881,0.055199363350974195,1.2150128191163119
488,0.9396137834185634,1.3705618809038915,1.4917836384577141,0.877174533510372,-0.6173608321109176,0.3089117568015509
489,-1.5116583493853464,0.6493895664623643,-1.1696261805590469,0.8857679118729056,0.0031297327371471173,0.46202194369183935
490,-1.4796313802966135,-0.0670826206032924,0.7491465280116101,0.6317157275787739,-0.6998453557188964,0.4526339849935628
491,-0.5627827877327749,-1.2815164673097665,0.5833566708061797,0.38018062387242013,-0.7691346811752549,0.6004770379925741
492,0.9397198618065716,-1.2322508690183662,0.33750058332607846,0.6879271630879629,1.317589573503664,0.32991554252062905
493,0.8247653678368092,-1.206590229770139,-1.117538107813634,-0.1405969970380354,-0.884180296763253,-0.9300625630858103
494,0.7609063254576256,-0.9556198697139733,-0.5934427160392265,-0.2449794533987062,-0.39359595498717326,0.5622465636586496
495,-1.0664854782010145,0.8854720714718134,-1.557572673168975,-0.24371892118721994,-0.5191651569408742,0.7592119179296244
496,-0.9469535394563237,-0.19116536531301564,0.05820864586790431,1.3326636745898717,-1.324535688303297,0.702134066132595
497,1.1361663276524077,0.33871664984209526,0.5298587287752752,1.52627247147141,0.871975816641986,0.42643883196257715
498,0.2917206664734211,-1.1203158647354956,0.28911505462617737,-1.0058943933551059,-0.11447114436020778,0.6153242238882544
499,0.7174781568288293,-0.3653080345283095,1.1447191815062365,0.3485688921752885,-1.4144697120992347,-1.159608163151462
500,-1.5313362560574875,1.1599415120142007,0.33237725466880286,-0.6473476960061014,-0.9373580574506417,1.4935117706703211
501,-0.716656900423403,-0.2217119373223495,-0.2743880546329236,-0.8530464061906565,0.4308943265096681,1.4930601817387799
502,0.6566801117087762,1.5488777321551281,-0.724160462893349,1.1753096899850357,0.07643000681930157,-1.0774007858070611
503,0.5920411149639455,0.6952534474479983,1.3017415389972178,0.41935901327111824,-1.4434878485949645,-0.023778939224669005
504,0.8623971491330091,-0.003174645704058454,1.0822676547968562,0.5858034659821922,-1.0785625159126164,-0.5376318377287128
505,0.6871593774324358,-0.2468890067355769,-1.2917419502338252,0.758869992199128,-0.7178574888342312,0.9810206210359311
506,0.7650542731982797,0.6015094505796736,-0.2525155238641168,-0.8189376507184362,1.536982131151016,-0.8392428074543347
507,0.9039757376649118,-0.6738365817719257,0.6255938571437274,0.8100222299009054,-1.1600494692780112,1.050278029675078
508,-0.5204703224600327,0.8110698953701814,-0.26777845089564134,0.7812526611224291,1.3478356632188455,0.30251663342222646
509,-0.33550782808491153,-1.47198929923223,-1.3403314011845393,-1.3517432588413107,-0.645232177395308,1.1857656669221877
510,0.004095269052164063,1.1448492394000245,1.426798114012593,-1.0242014496125784,-0.7490537816338105,-0.18408778016297278
511,-1.1529248711131441,1.1355155530030978,-0.3233721769046072,1.275058089122446,0.2302562690810659,0.2752004648503814
512,0.6429413914925202,-1.0739021391649504,0.7400643889637148,-0.7686091168874821,1.4667856310486105,-1.3962628515039228
513,-0.4986638957828,-0.6557863715790279,-0.5263850668307337,-1.2045534718353201,0.967056599545776,0.42883727782753533
514,0.6175290787461045,1.054761134543345,0.9037465733203374,-1.1471640667247893,0.3224112263218719,1.3924305114570918
515,-0.23874579485152925,-1.4086079774437377,-1.3630567568705947,1.0582933127397949,0.3384745378833387,0.9360896400126619
516,-0.019671382917605174,-0.6276674408603382,-0.41236025163065526,-0.016183576452808213,-1.158190717245664,-1.3921200419112418
517,-0.2852800148017989,1.4461879044242183,-0.8615152616345998,-1.1618673832704982,0.37337158527208936,0.09216591283659636
518,-1.4734622770728392,0.8796037172421496,-1.4301635268028956,0.8823528258187183,0.17672250559334435,0.2662299668991739
519,-0.9016376603015701,0.36784691329671637,-0.34307291615980406,-0.18259534089094842,-0.4179743701824721,1.2744420160448207
520,-0.622081461046171,0.8845799851530503,-0.11022782898207328,-1.0523159171453078,-1.5227915794143663,1.0630926244670227
521,0.06231695445805974,1.4410145713584517,0.8219527812447738,1.1482417293509974,0.4827786151737379,0.9710506610685128
522,-0.401302288387678,-1.1358213850352519,-0.7149024285461976,1.4466341908635676,-0.314475698967873,-0.39568795745377017
523,-1.5570421208999028,0.19405193619668992,-1.5608550969137671,1.2498812845566052,-1.064640739826042,-0.296700314537345
524,-1.4032990051794705,1.4373345716558368,0.16278115805278937,0.7834596397133891,0.0009710531582767246,-1.331781971509495
525,0.11213854890991892,-1.1602121531584264,0.4541903730019121,-1.0596724647808213,-0.9640307619050048,-1.5040741139369136
526,-0.8560233896599352,0.08613563549436543,-0.432408197923166,1.0489695074318242,1.334683185001536,-0.27988012574497234
527,1.027600027385959,0.7408308152882781,-1.4168815366312755,-0.4929604561943288,-1.0493051576458532,0.21692827446054141
528,0.02525393591165548,1.31978259214201,0.886456296219948,0.1473705920561572,0.2617733647339797,-1.155204824306829
529,-1.1301722619092311,1.5431685806455846,0.1707304346380747,-1.1793733710320498,-0.06427843985286708,0.7483292323985578
530,-0.22728971379627216,-1.2365897417035563,-1.1455359243761922,-0.834655754174766,-0.8669807363525626,1.5640683810600464
531,-0.08782732393568837,1.165693631713578,-0.5874542477673674,0.6078714417869304,-1.2366908463873645,-0.5296739938077348
532,-0.8471775672199802,0.10825897451911293,1.1169604184403656,-1.2140925381529184,-1.5454044888982326,0.08408988594337696
533,1.4014462580828146,0.0970613564791738,1.065232965916168,-1.1532544372947933,-0.838057205041414,0.8526983672245869
534,-1.2984354576835944,1.5406770140484047,-0.7443579301806946,-0.5983921006535405,-1.0995001492176386,-0.2596841765118605
535,1.451108963437326,1.1674655277761348,-0.9230010693024114,-0.2674782894261678,0.4938416354503974,1.1618309710715762
536,-0.1463713631040795,-1.3043725401750852,0.6094299714367057,0.35124253415081785,0.2681193919866567,-0.6920147101255528
537,-0.42311045425316274,-0.14217519129720202,-1.060074660366448,-0.0550363499833495,0.1807531122475765,0.3286737491380711
538,-1.5697641370027318,1.2956158898774381,0.42852880311693275,-0.18929507610425556,-1.0245004599603633,0.8963881692063618
539,-0.45798401252427645,-0.8866229517302829,0.3321340653812159,1.0561403473332374,-0.060748387914629554,0.8066249943614419
540,-1.103420152324767,0.46483463578991424,-0.5349380118515197,-0.12041889456458232,0.7900249390902259,1.3067465555975528
541,0.7067186238225984,-1.083112670039926,-0.7213888781367922,-0.5215083648799148,-0.7195582958163262,0.845678162406637
542,-1.3789844772803963,-0.6889403442694527,-1.3782488144398484,0.9857208338182675,-0.7393253123006589,-0.5496895829839592
543,0.8721061980043618,-1.216646807570686,-0.2716788868515416,-1.1407239477690352,-0.20318268008444207,-1.1933821909002646
544,1.3894076435750233,-0.47127731989047583,-0.23333488308163397,-0.06220099673949586,0.3507767507387809,-0.9751213841475916
545,-1.3919852611195627,-0.5917073367232066,-1.5510019094124086,0.9967943081663808,0.06646819228703027,-1.0229678185640847
546,1.4561935063893006,1.048496859181022,-0.12629304802257413,-0.15746165077426189,0.984030268384489,0.16414300684545946
547,-0.3029247086187976,0.20906217531591387,0.24454835349307946,-0.6712839804388658,-1.0791250499306286,-1.095851164783061
548,0.7583392652258105,-0.7917721288030338,0.4549176604584906,0.4944690206611999,1.4918091235797735,-0.933278436850943
549,0.5893200573093673,0.7960613691022709,-1.4504404896795522,0.4170334485746483,-1.311437163153842,0.8693244416923283
550,0.5829669060883584,1.0182427127530191,-1.0680721243718323,0.30181571383927586,0.8556894231495691,1.1932538962158041
551,-0.1670277930302515,0.16420163159617873,-1.120320633512445,1.0794538656927428,-1.1940551340874395,-1.4126747067285397
552,-0.6537954871983161,-1.230528052861794,0.7767342306972909,1.4400643486662683,1.3109610792798558,0.46582821686895226
553,1.4770060895818378,-0.35769395443828844,-1.4827952083695801,-0.7566934977017784,1.1154743880386198,1.0164537647789431
554,0.8659289964909656,-0.5085591542395584,1.037800414565115,-0.2615234807419149,0.91988763159363,0.07124917571725309
555,-0.5672209388158427,-0.9185286300727712,1.1245343304398419,-1.1735370178876479,-0.9865793090355977,-1.5292972677801746
556,1.2443642762159604,-1.0971900708109485,1.0510738535403554,-1.4203405827484048,0.7370591912909297,-0.89192802274136
557,0.7984287036017426,-0.4475467847842949,0.9342478227202853,-0.7306324301861727,0.08731656556183198,-0.05490828593318442
558,0.6673916208551702,1.1732810388125015,-1.504725780293884,-1.0430690608373228,-1.017254967623511,1.4045135271453328
559,-1.3201783455431106,1.1246832415345835,-1.1794051546196562,0.42946749354750624,-0.711296531778761,-0.37360493372213477
560,-1.4448051551780967,-0.11388282528446525,-0.6918208340121033,-0.06944944465450797,0.1505069325905528,0.7588115660454569
561,-1.1120150357678145,0.9664756692122429,0.09198990145822705,-1.4780628910834217,1.2727770640264562,-1.4003728656260181
562,-0.614536023078845,0.39170583642717705,-0.04312098593296354,0.8382754071126812,-1.4751363563146658,0.4354601853002915
563,-0.6297093426440079,0.6420145599663138,1.0243682009340485,-1.3465063452734234,1.3288105129967756,0.05697142360000518
564,-0.0814216057550996,1.0127134429931268,1.5041332553915567,0.7195726290655258,1.406012987586979,-0.6076567964926847
565,1.1893727425693328,1.2845033744436467,-0.7862911294803456,1.35986139164137,0.8872240279369419,-1.3452457706897245
566,-0.8530203989808113,-0.06895743319610181,-0.080897342501135,-1.4272783907249469,-1.056839521834731,-0.5741982241103597
567,0.6485197388146635,-0.048976059416209416,-1.4306221910881052,0.26591131806999546,-1.3837162581505216,0.17687424796761042
568,0.6010196003494022,0.027887300168304652,1.034952874960522,0.238342934935464,-0.3571095216959759,0.6391239898506891
569,0.6464009442859218,1.1342217372282284,-1.0043695252489795,-0.3864522394559975,-1.4463681559677972,-0.2317385662378062
570,0.9345985149885654,0.0597551776806311,0.5459604110200029,-0.8760765051339912,-0.6142866033877716,1.5148446511933384
571,-1.0903326649734546,-0.5530958061332905,-0.5305607113305453,-0.5061015872179688,0.20759217726804802,-0.8482054813417292
572,-0.7213122330166857,-0.07260391524021981,-1.4593229058659658,-0.45971614916936043,0.050429172864264515,-0.9675284346984636
573,-0.4888897582559115,0.1032407465407541,-0.04412032066156457,-1.3191362551279635,0.21820591796251265,1.2239556383518968
574,0.7306126934863522,0.6588206901852467,-0.8841491016544863,-1.179355097093875,-0.5861799390487282,0.49069950808765883
575,-1.2315596620389675,1.5480786211652742,-0.38476274690081835,-0.8164713753648505,0.41370698381389137,-0.2766833398358606
576,-0.6397705202441022,-0.3889648566395012,1.2784647996956346,-0.41227568400628667,-0.5280840364054462,-1.0191954558825356
577,0.17826427482260643,0.8621897349928465,-0.9401884800158771,-0.4969491934008916,-0.5378356715279393,-0.2539081200736615
578,0.17320843782177553,1.3552532162839226,1.5172121054799703,-1.339549794148172,0.07605105775315413,-0.24242745140702704
579,0.23915180133416136,0.17957825879436817,-0.9528404776160186,-1.160140856295258,1.48387415652984,0.5595876400963227
580,-0.5206249572802852,-1.246362745529006,-1.4742431108103844,-1.0533574266094985,-1.035051083348168,1.3353790251345061
581,-1.2131244494804794,-0.11826319677757868,-1.381123108784902,1.2492195579642482,0.13835049908434094,-1.3236000939135322
582,1.2773479012992133,1.2211579136175073,0.0018086761434377152,-1.467631926276653,0.6365486505406115,-0.5917237357511332
583,0.19233021942312978,-0.14252215257477086,0.9487278822006049,0.47494077809410307,1.3765423950062177,0.47542124653198004
584,-0.6862680611239645,-1.2113514972580748,1.297636962217946,-0.6632850858559804,0.5459064368675186,-0.8599250332138791
585,-0.5578887820332004,-1.1399696467615588,-1.0569305737331964,0.8211944624120302,-0.6159063648392461,0.8263680870358359
586,0.42093949589600044,0.7296890437091492,0.9469317543830744,0.718894503456291,0.9038531974940831,0.9865541887101879
587,0.2394041203123003,1.236926432308051,0.7517694646419666,1.0556615461229533,-1.1752686493897635,-0.609606666451051
588,-1.1240614103223132,-1.4847054419871146,-1.404211360879914,-1.003978834623561,-1.208644521672633,-1.2163461182955615
589,1.4073397076977883,0.45634825993139394,0.03965190396901841,-0.656273120774291,-0.19890612741363767,0.9570824622436365
590,0.9751426936550591,-0.3700710106370142,-1.1026240558257947,-0.8272420983462598,-0.9547585088056404,-0.2941286894403321
591,-1.0710967049671536,0.5505530450728564,-0.6972925633095428,0.1462217126939287,-0.03566342292324598,1.3946942821929214
592,-1.2424892305754174,0.9120076595023034,1.2047584573018009,-0.1609052893531171,-0.4849193470699116,-0.28133475319852463
593,-0.3028792028931797,-0.5942621539386049,0.3791046148171877,-0.44821408799081586,-1.2685956583984475,0.9719963565373351
594,-0.8439109045731482,0.96191815548231,1.026419711582728,-1.1051552922592816,0.6446795052436864,1.1904524782760229
595,-0.09992766834125599,-1.1519283870799677,-1.5142380404822582,0.9242217211886401,0.8942497739646864,1.0936371272065712
596,1.4780050887429925,-0.6536479610922775,0.606549532413184,1.2470584792394472,-1.2224347086221126,1.5460795948851591
597,0.7090758272032067,-0.14703734732110996,-0.7239226207079016,1.010865848546585,0.6193408137720793,-0.5348786431463328
598,0.19980783905645327,-1.1270068668203654,0.13543048229828814,0.8094565283717494,-0.9300021944276751,0.9360261542565955
599,-1.0076590883568208,0.07626834482576061,-1.0505832621331541,0.8353932624170408,0.8732038202479222,-1.3371066320598102
600,-0.7157363077168388,1.4098391520215232,-0.6638203924733553,-0.42192478112026355,-0.1928296579225921,1.4772298419305967
601,-1.034756609269425,-1.1243606012760112,-0.37011758386006743,0.5191537094237137,-1.0990551882293345,-0.1940948435640859
602,-0.23003493143706977,-0.008095282736692466,-1.0650152820450896,-0.7362341879191384,-0.41502299823044475,-0.4184846061614278
603,-0.3631558052714916,0.2510720859363098,-0.40929329184728336,-1.0927287320279435,-1.1075423941154998,-1.2183995167148474
604,-0.3622257895189369,1.5193839833562137,-0.04476741181976229,0.3417978718133612,-0.6913941680002967,-1.2374165833152346
605,-0.3584504553996881,-0.6817740581102169,0.1059001229954033,1.2559552870910426,-1.3129979009633175,0.5060585020006529
606,-0.05923799967109966,0.09624301069087693,-1.238613728762337,-0.5024632093094068,1.5062805648951807,1.0704373944749133
607,1.0809065769322208,1.1104538008512246,1.3894250717090686,-1.1930475670972067,-1.5162954112268021,-0.13566766387924223
608,1.5077920156111908,1.3360545495324079,1.500594074443109,-1.4629930044866857,0.5839653433344201,-0.8327501284476859
609,0.4257087982529355,-0.2656534453945363,0.03371558598245605,-0.4525676748197194,-0.6610519113180061,-1.059042154689871
610,1.0654185912336915,0.9224395057346642,0.6988024740029912,-1.4874109384933483,0.6951849303843671,0.9225422908818506
611,0.7394969071122781,-1.2534991874628418,0.8909313683490265,0.9792257680445715,1.1259462470108534,-0.34989255643361594
612,0.3907146097260976,0.19150695477414748,-0.20920243436000785,-0.05997197258991349,0.43392307763347393,1.1937993677813359
613,-0.025376254226044725,0.7163630239353433,0.8346828685630494,-0.7277220621659262,0.09862620020744162,0.32150521469515825
614,-0.6707003281427157,1.2321423949509156,-1.2975438463382207,-0.5309071705536124,-0.7179765384630622,-1.5492824669711338
615,-1.4533798922192647,0.9281426750480088,-0.12484553967373002,0.043462587092377936,0.9440987121386226,0.3330663215492018
616,0.2244352363066704,-0.1250400970546257,1.222163855299168,0.6842606419423545,0.7694003109854886,1.0518753375031675
617,-1.1295175477707975,0.28054648479871536,-1.0121974185530578,0.4505011751110364,0.26769408844751297,-1.492298809770492
618,-0.04702618561749272,1.424802156017548,-0.7158911782142372,-1.5467379352053259,-1.3041736651933789,-0.7525503332263711
619,0.28010830258470754,-1.0370390582184985,-0.2858653055757332,-0.45550617412305816,0.28735265452182923,1.047678413260265
620,-0.4745161873302728,-0.6675950374684635,1.269245477573179,0.5764234505608332,-0.5556741127515346,-1.1940171282569079
621,0.32591923051964367,0.36741190846533245,-0.3753663595574588,0.5606850237776806,0.2758069026826049,-0.9063127698429944
622,0.28963015009750204,-0.1423303963610314,0.9462404430874307,-1.1380198681471017,-0.26514388398162403,-0.6104983218370601
623,0.8981157797847921,-0.5650940446088961,1.073538415738938,-0.9087853587811514,0.8674241088814019,0.5732757906255408
624,-0.2595470477472215,-0.8241473567129269,-0.6888800505867979,-1.2669969998485537,0.6108812589500001,-0.09718387876985313
625,-0.2929828771686447,-0.3087510063453036,-0.2072161858669126,1.3312510777631061,0.6581796712043078,-0.9111681704595226
626,-0.43078361521932185,-1.3722298450479442,1.3878289754418978,-1.00362435133715,-0.3330902483702578,-0.785307429771496
627,-0.4881807715161335,-1.5345781367360842,-0.7054525929255238,0.9848627250537305,-0.6774258555386762,-0.7821003257942738
628,0.2488433875661018,1.2290048757545016,1.0971951233253452,0.6176279668202,-1.5605095524793808,0.11295018828312675
629,1.5268244532811628,0.770438762993066,0.6381416910928968,-0.7553349991745986,-1.2137156080084288,1.4392812586280845
630,-0.5794978143988883,-0.30170502160336876,1.267597447626521,-0.00267083300064086,-1.121583129762708,-1.2329334517188084
631,-0.5145917232064541,-1.1402683702989296,0.7343706125944918,-0.2107656405405347,1.4877964222221833,-0.958256435568147
632,-1.5124688622283422,-0.4357542978843061,1.2236950286005164,-0.06808014900288129,-1.1990591091144407,0.007714785123337231
633,0.2113363747066268,0.6715531249026823,-0.48469979173740163,0.8633781301240568,0.013777995574641766,-1.1551548946223813
634,0.09236014276402371,0.16168090851968508,-1.022056144522764,0.74337795187129,-0.41228261241705777,-0.09378846145448771
635,0.8070225490781855,-0.0889969599958631,-0.28396957229352937,-1.1708378085097295,0.026786896498619983,-1.299839559150373
636,1.3262575998889061,0.4841547710699605,-0.9618776562273388,1.155765488386939,-0.2819618436501441,0.9386791015255764
637,1.3955110733015332,-0.828280092408017,0.6508340899598277,-1.4033625264969511,0.781605860301438,-0.00971639257370649
638,1.2252304974520536,0.533873556252197,0.0865361791193433,-0.3179482557512394,-1.0249762728757734,-0.09666984551427649
639,0.30296650413725734,-1.5395891991327013,1.0450698242594791,-0.9171596591439727,-1.5058778258976748,1.1375094430345705
640,0.7371441786683115,0.510971499535469,1.3206806021086672,-1.309198873554686,0.5754290393825863,-1.2897310785629563
641,0.5269247223237206,0.8181952076968231,-0.9974613651353924,-0.7893060831615349,0.5749909840412215,0.6560520695338856
642,-0.14876269380510765,-1.3684386136961026,-1.1156078179481241,-1.2525804211801774,-0.19248668016505444,-0.6959989312703279
643,0.8679136528558744,0.3806831029773361,0.2158614626670039,-0.8963889433243695,0.9073691865793001,0.03394030648369095
644,-0.03565406816573691,0.45578471453160896,-0.9793237755445677,0.385978994721097,-1.3430747854657232,-0.07192891323163964
645,-1.458347706929762,1.0242395852872916,-0.6666706537030762,1.0060794939475755,-0.8098684445228939,0.41437487987949395
646,-0.22706627382043565,-0.05804773933396312,0.0530663409299692,0.7963028055835912,1.4719515206346938,-0.38231784105973055
647,-1.3914322453820354,-0.8532764737220421,0.8125108673850878,1.4327528619522956,1.1298468005881253,-0.6633618252173793
648,-1.242498789862259,0.2962629746880896,1.5082167000839153,0.06367501533703868,1.1592335507766256,-0.14134952595716288
649,-0.09249944051902093,0.3431302427201084,-0.6146606054505512,0.6087490721250606,-1.0667177520244933,-0.5992022009097077
650,-0.40554400157749937,0.6503270647097557,0.46404608796560387,0.7930117910617049,-1.2522676131067507,0.1885436389478512
651,-0.314024807101686,-0.7512677448065562,-0.14296912625921077,1.2048864716816556,-1.1354088331374101,-0.49080999174791673
652,0.601127765237675,-0.22842247243777036,-0.12041844267326574,-1.0203397963838976,-1.324591554984295,0.232610298849395
653,0.5771138299266951,0.15351723398001016,-1.1662223600671824,-1.2391451997208631,-0.8203763568706104,-1.2332203583698087
654,-0.5640728557401229,-0.46817881701763664,0.9324269780139915,1.0665392375588998,-1.3328123942284869,1.2032982974655106
655,1.5086406385627167,0.37558368684049404,-0.026920401653155235,0.5524978829973439,0.9460985261604189,0.09202828007178532
656,-0.7754231541249108,-0.4387067434559153,-1.5169347488195537,-0.5364125064082828,1.117048569266371,0.18074935217412524
657,-0.8107759128188214,-0.20725395629075005,0.8929013866441755,1.1332313915209764,-1.0029803728171653,1.1668071377221785
658,-0.5673011307713105,0.7240374067703406,-1.3623967353422544,0.8882923355376011,0.9090775241021709,0.5341692122777548
659,-1.3150081064919803,-1.3155013598387113,-0.4552736348564548,0.9310446013955733,0.36912594511455477,0.0450216838070816
660,-0.5697876959112644,-1.2164710953287479,-1.5136246636175252,-0.6366448429443541,-0.2717459216786333,1.0026422168608433
661,-0.15531300680132798,-0.10930077860203102,0.7670726159010162,-1.338640326399753,-0.7410220163320023,0.8276689503823529
662,-0.9074781942947983,1.201879433212222,0.9647060046451545,-0.7737120879422033,-0.6316555284205134,0.8599817030304617
663,-0.8344231952758913,-0.5443524974873817,-0.8837241704437663,-0.07262770076701819,-1.1598047800561284,-0.18146175421929844
664,0.49413756090125194,1.0285800273473793,0.4688963782730329,0.6512815062797364,0.37490530794275645,0.03811870375334547
665,-0.5631258426660799,-0.939693852724802,-0.22593506184163514,0.8197105847219968,-0.1671517834382048,0.20162592605863927
666,-0.07265480402858282,0.13787013018719674,0.6503941238572359,1.3624273091426615,-1.0198656313253913,-1.3580301211799843
667,0.5655873082967591,0.5163182545248928,0.2590612382098354,-0.26218843552042137,-0.15338502206893856,-0.03927551905118176
668,0.4240482883300012,1.2310610924925167,-0.8776576774401804,0.2674697512477997,0.15806358360128225,1.4770377258998195
669,0.7479949329596525,-0.7118884831124949,0.560278387112259,0.31067243255113897,0.28998220249708906,-0.7011218384440352
670,-1.0380835291654096,-0.8921638828594729,-0.387575507803126,-1.4558785809132235,-0.3573828172725697,1.4241143486219419
671,-1.3541110041847984,0.6071298109988477,-0.8816855721372362,-0.132406953736933,-0.6804806642246649,0.5805907711370564
672,-1.2693888638886022,-1.3995637881662402,-1.5522175312453017,-0.7219573283340909,-0.6716832467114014,-0.591893966469952
673,0.5117727243669328,0.6482404823216323,1.2880075263833195,0.07412055288917685,0.6601793421879476,1.1423921321421928
674,1.5619519602299503,0.7003570553685039,0.7731095250459497,1.1839499737199937,-1.2438030721684517,-0.27035352701036075
675,-0.6114354260488613,0.27529616074164553,0.5737925318975634,-0.5908494445037619,1.257675352428096,0.8884898450656151
676,-0.5260267150657392,0.6310045392927819,0.9529033338529946,0.901680319127951,0.7504977214319166,-0.9552186290642789
677,-1.5454888933782802,1.5173353193866572,0.739358807387839,-1.562727702606345,-0.18733471024876658,-0.6546971049723226
678,0.7529591127325332,1.2003927047214198,0.9574439826374208,1.3009505145410967,0.5979192327046499,-0.35260606331074884
679,0.9904434625060956,-1.1602642779298629,1.5521238287862054,-1.3457445564653767,-1.0346054683158683,-1.072825109292252
680,-0.5659368732110699,0.9822391374439237,0.5962147959613859,-0.40741868938816794,0.9271549477328089,-0.7364052262155281
681,-1.0318493895863585,-0.3928051557324772,-1.0213450069502643,0.08601785950784158,0.5753536073867882,-1.1150036400336445
682,0.6887874171331694,0.7586133727777056,-0.4804344835038252,-0.5378914623620821,-1.1956078960064467,-0.9791616741753966
683,-0.8838307673948085,0.5177962817090989,1.29144136568312,0.46355367012630166,-1.39567031457471,-0.9079012993467797
684,-1.0213734264873486,-0.0930822597652623,-0.6610588122023697,1.3066799651971421,-0.5872121209347448,-1.2539341666340784
685,-1.057859809953213,-1.1294007285548437,-1.4339961598047446,-1.297254799307986,0.3539069276608686,0.40239302443385516
686,-1.2785747650477042,-1.2701119721424725,0.572618955531591,-0.7456151250816714,0.45535227308017623,-0.35528984800223795
687,0.857403093379479,0.04380720678222283,-0.8347187635836807,-0.9130509041835232,1.515065407876501,-0.36479315222422337
688,-0.4862497361291389,-1.131583989773799,-1.2559848958979272,-1.4747074825064097,0.36703529492092546,-0.3173945683446511
689,0.9035402962898109,0.03550138124719959,0.45579221087975963,0.2267791247136115,1.1491921371171645,-1.5689575574504233
690,-0.23798115864011748,-1.0175526942590618,-1.5145059866550656,1.3027789582596703,-1.384964984008193,-0.4135812409595865
691,-0.19408450464079707,0.8381652796051808,-0.4907511970671534,-0.588293119187675,1.2825853432007754,0.4764781161274936
692,0.9340223097724247,-1.5302017277105855,1.5666419420712812,1.4128010684066847,1.142379590858667,0.298692266235252
693,-0.48857728230611963,1.226925126410297,-0.08084341432681685,-0.17254436571547238,0.2785033270173076,-1.2916796704348372
694,-1.088795591179563,-0.5559337712886032,-0.5265576955361524,-1.5582342359956196,-0.04380339338742556,-0.9387581271876551
695,-0.3037910058545099,1.5208805593843202,-0.8997199219382739,-1.394495625192385,1.1737793400483985,-0.6812751108828402
696,-1.1100341739957449,0.7616328321010521,-0.6689927485311468,0.4850379562271945,0.05900571475576477,1.3446881405228348
697,-0.5334422314443017,1.30769851411941,-0.9325876619954926,-0.16337637090710877,-1.4996728157357844,-1.500064713683664
698,0.21853556574944788,-1.0919621994176454,-0.025466849565579874,1.528174915236887,0.9523682858288876,1.1763815958363817
699,-0.9660480873005276,0.09320640457095819,-0.7500876731059344,1.2376221610705094,-0.3596844723653423,-0.7957978777404044
700,-0.8099234446122519,1.2439589337371215,0.39217232218719045,-0.11084786424011184,0.1256471965571042,-0.4280693397379154
701,-1.5238854841746754,1.1014917345796489,0.861011811892201,-1.3741750781030209,-0.9624999583385678,-1.282469885478274
702,-0.9491436972493477,-0.4164815966220923,-1.377112900222782,-0.5292050487492466,-0.727712317131036,1.3016294644113175
703,-0.9880979432740694,1.5608116989606384,0.22726838680508177,-0.37243389936808335,-1.0346314784739084,-0.7531560494843239
704,1.2356578597677141,0.021451346930979165,-1.2376847361415886,-1.0251048358001777,0.7775970456769299,-1.1554359585014282
705,0.31820191854849256,-0.03422195161504016,-0.5972629425485865,-0.5309267929664594,-1.277642849752613,1.5034873919042835
706,0.49209669010169543,1.216002191885449,-0.9945933597038147,-1.2714933540368452,1.4766502063020832,1.0848917296644385
707,0.9038714428286578,0.9517127602723439,1.275884821005826,-0.5934870011074976,-0.3743622602547074,-1.2445508196597852
708,1.5589273870501668,-0.8475614712847652,-1.513554036158385,-1.1471044584150905,-0.8966581954978683,1.2498361737212207
709,1.0704335676160772,-0.13807701604670863,-0.6519674702422864,0.4431478525715735,1.1499289970584097,-0.5856436663479302
710,-0.8735932120218379,-1.35410041331613,1.1799472365538528,-0.3478217674126658,-1.1537704680326342,-0.07427993756382723
711,-0.5358134115046478,-0.8128183065941675,-0.08600809801627474,-1.1164612002532068,1.4705382896224073,0.6034905067166636
712,0.6132767340796463,-0.8066271482415586,-0.1549622097780503,-0.3945121485872283,-0.17948791473941972,0.9943999303466269
713,0.6879278917776399,-0.32737092186387917,-0.4130867010555834,0.05345846792114073,1.1070138296316459,-1.2124495119063186
714,-1.448427859393142,1.2880006717485482,-1.0858394186978424,0.950682713070182,0.7514942833013998,-1.5529574996040603
715,0.5204431005053278,-0.7755173771936342,-0.9245411500423342,-1.5433354634425642,-1.2644342551397791,1.0205139989890881
716,-1.4306237875301286,-0.626052888272104,0.5895144167846289,0.4728374413083092,-0.6527739963513,-0.18542321982765042
717,-1.2394612438703245,0.025164933742162,0.9008167697166978,-1.5707478170936824,0.9472468599583612,1.0218338603597088
718,-1.033495833236152,-0.5109064735249329,-1.557611140450418,-0.6563499767702461,0.16642705342058672,0.13376737122558313
719,0.4424487304107094,1.2674271118106013,0.6721251001038793,-1.0384192793422855,0.22093100052625103,0.20071240877067376
720,0.8032593996804498,-0.5663819970269628,1.2343040977223225,1.4806874301648842,-0.5465830081411702,0.7724046851865811
721,1.2553011392895725,-0.2646490009880986,-0.8260831546098976,0.17851521246691981,0.8391081998864744,0.9853401215578321
722,1.216629289036883,-0.5497793456221483,-1.5517029877994337,-0.11040427461518432,0.3859405549571391,0.3697167930745542
723,0.23545764827767557,-1.0633386080314415,-0.7070215930726982,-1.1921917649184666,1.1225857377552035,-0.9478341124055796
724,-1.5270401881495517,0.4576299559749466,0.26539063046087663,-0.15222299622915458,-1.5670065882434854,-0.5066033917625699
725,1.3379118113504358,0.10474110961222816,-1.091937381434416,-1.2565756522735347,-1.2846585062927383,-0.6777293984915117
726,-1.2268414649305788,0.5696736286009809,1.2447805484129852,-0.2614728464605667,0.33393530291982065,-1.4758632626498371
727,0.4131648634125151,0.02062876179179285,1.545644842626373,1.2157666497552495,0.719655266113731,0.3501240704113675
728,0.4094103472036741,0.32848301135664304,-0.6287277268706795,0.3976963297404956,0.9753921305775086,-0.6639710915103526
729,-0.06831459381039218,-0.8809305550798657,0.7430005121923546,0.009534968499838925,-0.7931951058800976,-0.2854803194866411
730,0.5610485326270118,1.2523566951187184,1.5604994459081576,0.928344660806729,0.5958132783576531,0.2910254740362106
731,-1.1461436611900742,0.22516409878673427,-0.8881782344794771,1.2603704345369295,-0.09000350829340587,1.2642891274521255
732,-0.07894119891107398,0.20216120150105277,-1.0752089365509216,0.7046710361346573,0.1349246243436546,0.29870326357265675
733,-0.6946323694534278,0.13808446695120646,0.7871305721692465,-0.6422367756901992,0.0976661791972202,1.1966914837832046
734,-1.2798377888172268,1.3276204314873734,0.2017311152722967,-0.5277620153530713,1.0920356795631854,-0.009748221594162887
735,0.25378266461069243,-1.3752528260139423,-1.089665083639844,-0.3473355689362305,-0.889768391206721,-1.1379614895158867
736,-1.5442425817068635,-0.40387205830923834,-0.6658614410790481,0.6534941540516752,1.4812982090180102,0.6004843731538521
737,0.14673993578368338,0.8925520113179903,-1.5587551624929004,-1.3756852145113285,1.484845999813417,-0.40920791404189494
738,-0.9331289435581599,1.503963644760614,0.9199024883658904,-0.08049055446969566,0.7366527664295854,0.6240975453505531
739,0.8718155096512761,1.0801391756443053,0.8852058881722504,-0.5341420847601281,-0.7122981004409316,1.5359810933522469
740,0.5518917737102567,0.1837149149518824,1.2880054328010035,1.1968515734354068,1.0172693236301837,0.10467656080580978
741,1.5217089029937938,-0.4626556708723686,-0.25950343811365006,-0.710273992854916,0.14897299669070185,1.0422490228650432
742,-1.3870515340571465,1.498702254414766,1.279687399022564,-0.5817515690937903,-1.3692736183318261,1.0779285367829923
743,-0.1270205900452024,-0.9064487277125068,-0.2119583295503571,0.292071117430321,0.7490203102577659,0.4811125828927709
744,-1.003912590200018,-1.455457150641093,0.18592565000155847,1.3104703615212014,0.4520275263856126,-0.1390025868175122
745,-1.4743435550395663,1.029766592863521,1.4651816537127096,-0.2885931041994989,0.35477590202526854,0.14084164673996202
746,0.4975282521134696,-0.11520919804426444,1.2836762381318532,-1.1082671607324963,0.6373996980491086,1.308991905977933
747,1.3958243395753431,0.9838573543579656,-0.8794912185860578,-0.5179538723406256,-1.3112889368910454,1.494124229915149
748,0.18934075290434027,-0.2849073320001392,1.5427715156909283,0.4171000471800601,-1.5524959759958945,-0.2895051676729894
749,-1.4001078810295013,1.489055351950452,0.32606726538499387,-0.14667275006283642,-1.5542862004751266,-1.4163411363074387
750,0.24149899409764286,-0.4183755874242405,-0.31993161672652914,1.2837671955486938,0.5084114980857284,0.3441784025093306
751,0.21519703045690708,-0.40804665225770886,-0.7937480135819669,0.4375896165619788,-1.3034843630084023,0.31574723303598473
752,-1.1700654912377482,0.9667210961797523,-0.18243153120357847,0.8891073210709379,-0.41572585374315496,0.7744846934994212
753,-0.5550981538014335,-1.449711221594202,-0.8238085064024954,-0.4910813946486865,1.0933554752242043,-1.0929464648829401
754,1.5316283001456403,-0.8898250690838335,-0.05531955372942621,0.32372412112146076,1.2108034908020566,-1.0720746778724237
755,0.34131274330350436,-0.8544284646534587,0.8173971414931351,-0.7074388582651389,1.3139595661292969,-0.40840557851658943
756,-0.9724604549254431,0.4312317824999834,1.2817521795419697,-1.340894537692681,-0.6656028518452414,-0.5277279811114357
757,0.4481012178505277,1.3011586773330377,0.06723094695267617,1.064000166035807,0.022977715362946016,-1.3382787245253651
758,-1.1597694865923818,0.8629731153519269,-0.648369920556458,-0.811442480130213,-0.27270345918265826,0.8481634394685589
759,-0.535798801550855,0.10546749063228567,0.3415646540291113,-0.4923420750446301,0.9989384151758385,-0.28140504092028595
760,0.531239301177211,0.1943490282496616,-0.2690754461004936,1.5534326546995896,-0.49621645766589895,0.42604938687071137
761,-0.6067252229223485,0.906039872656327,0.5108073580063452,-1.2439807953511233,-0.9410979061940736,0.19080615056845818
762,-0.19389242485104785,1.01151093931666,0.030582252513256192,1.2277900643608337,1.065311393123923,0.5238023628850632
763,0.06549693370032417,1.4572972851109305,-1.3430162147810534,0.7350396976300111,-1.0229571968222215,1.0471685820909373
764,1.2728337286733922,-0.4806965112565542,0.8577407483091366,0.6286750255766096,1.3771154918122654,-0.07626579350835105
765,-0.741207481502745,0.07324707225078986,-0.15834324074222983,-1.1752208176211856,0.9500328163860834,1.561007439399253
766,0.5536414018805962,-1.1735881330897364,-0.34783598600470733,-0.8291032785584292,-0.240228044699053,-0.10725995464179361
767,-1.199710853269891,-0.6960186718352959,1.5039183349824943,-0.15718603618078908,0.3641591629842529,-0.32874732826417574
768,-1.249123191956826,1.0419837199984618,0.28915037412605393,-1.2106417229391429,1.3332024780841585,-0.7897037518870847
769,-0.714379830149381,0.6725420012938073,1.2890212833863819,-0.02331492513021005,1.3323953007799383,1.384888463797624
770,-1.024501567351013,0.1056069145107521,1.222674788877414,-1.3581645590490914,-0.76329614758448,1.2591927953420594
771,-0.3290619258772538,-0.7203203634918869,-1.2991587849024604,0.37860133979493127,1.0350459710241577,-1.3109230334738289
772,0.42105896146795985,-1.0283441771625288,0.471901568458172,0.8181945813804603,-0.10177162281998786,-0.48143828467453886
773,-1.0796633364865806,1.0542212759546654,1.4169208677277858,-0.8298440537515324,-0.785229814072527,0.9288243258521378
774,-0.8311268002401448,-0.9664272241383816,-0.4980155105969102,1.0397577284713466,1.5251048041222761,1.183046803678696
775,1.2950169050405638,-0.4025769410182174,0.5382449961587215,-1.2126066484221103,-0.5254272108811666,0.2695590880828631
776,-1.2901777411791633,-1.567207224191378,0.7064255819345804,0.7226212650918993,0.864499098501327,-1.1947565858791704
777,-0.008039085391572831,0.8411229590593519,0.592896046053232,1.1148192231423715,0.4766918825759472,-1.1756348997489507
778,0.6867706445655211,1.3547164405894243,-0.9286676056683498,-0.972379248573214,-1.1862341524700428,-1.0300109329994593
779,0.5139551535699312,-1.180535495623403,1.1266305280823548,-1.0063509642779602,-1.1713376123200547,-0.1253812481107588
780,1.216521777479699,-1.0215338657423279,0.8543190307099717,0.5190220119382754,-1.1105515084534487,0.382946470159643
781,0.6486126854568064,-0.7286974475064627,-1.2792007859627323,-0.2761995651503151,1.1631011215072267,0.09155743344083622
782,-1.3338679944389293,-0.030116637181705208,0.5198052034129543,0.06626901945727481,0.46156984075315055,0.8389055753167378
783,0.21248014620643074,0.4521583511686518,1.1861981871163105,-0.00029363738477283796,1.0794608631445586,-0.09872670024139119
784,0.43664757130595033,1.3224701643268229,-0.7594379826210716,-0.6176905845127084,-0.9609191383155337,-0.5259289172428532
785,1.4534428735553528,0.9241508062771189,0.9867328859198081,-0.29828228887714925,-1.5523099310477009,-1.049514350582163
786,1.0313125918584207,0.8807595792951863,1.367044811299917,-0.9254108523965735,-0.27640333900509906,-1.492081096404757
787,1.4743063851511438,-1.5468936076911837,-1.210105705976505,1.549513717706402,0.38870703721653754,-0.7580516367306923
788,-0.6200339018002246,0.5732482873713645,0.39544703963693584,-0.016360575781645403,-1.4399514666385413,-1.4851797767198602
789,1.0821281360339552,1.322212160953236,-0.39305751358413477,1.0114120082121563,0.3074503250308369,1.4752276412576637
790,-1.5113301710108553,0.18311648721017493,-0.5026087865804969,-1.3850136515104858,1.2163446180256594,0.9870598204542271
791,-0.8025707825348835,0.10958487290131935,1.406855412066026,0.9220372507316945,1.4938682414700732,0.692180644175334
792,-0.463988304023252,-1.288345363628314,1.473028319558642,1.0826867427342655,-0.18998006132484369,1.1242150371538857
793,1.2079009811048227,0.8719252302248979,1.0943298127804515,0.877843296621398,-0.42828762409687027,-0.8666582255659037
794,-0.2877809725940439,-0.9277880679099213,0.19423856421362395,1.4125230088012986,-0.5899392832030064,1.2190809255392643
795,1.2542217873058856,0.16634330413967824,-0.85418474422077,-0.9184082228948516,1.3807254721439963,0.4398533046897115
796,-0.5666451062124715,1.4951503231690024,-0.8596459213231946,-1.458287319956237,0.04065726638248557,0.1551013750654242
797,0.49854814352733445,1.1767291519840035,-0.4134836356746763,0.918740901007935,-0.9111573989516057,1.0814396495139476
798,0.3816321385093939,-0.7130357959528937,-1.5598924799567269,0.641606536172656,0.7710456411905988,-0.5795347209534011
799,-0.22682967258485442,-0.863552490306923,-0.7879270306343846,1.4267166750991067,0.5205392687930499,-0.44966402143171336
800,0.21452862471495737,0.7719820553035168,0.3331570538012363,-1.1828591923310574,-1.3324248252873914,1.1352292092884944
801,-0.954410586129391,-0.719926735121236,-1.0360141066184068,-0.7470747746163534,-0.5663639524947466,-0.013272643415438434
802,1.1704433084715342,0.6940612075500243,-1.3796498365662724,1.480932964712605,-0.6573913406744383,-1.3855605260657735
803,0.841647426557901,-1.4310882415630504,-0.3568463645527087,0.08326735144583064,1.35645159259622,1.4972233951087843
804,1.154480964835277,-1.3079950876592321,1.2592434258350873,-0.32231604027753913,1.0177419236479683,-0.8162134150318908
805,-0.5521132432780778,0.5220589919295744,-1.4490435428173591,-0.9135817037836098,1.334747395708653,1.27125944403276
806,-0.7065039772244622,0.19150424573101654,-1.1471167684599357,1.4572132892496223,0.8761414995950689,-1.5254669592538517
807,-0.15369117911521135,-1.474542762879326,-1.465933758577667,-0.56961702098805,-1.078099697609768,-0.48701872959970816
808,0.3508662241185525,-1.1758808862072452,0.11025169895045916,-0.1633416100509777,-0.5212080279842151,-0.8122225413620343
809,-1.514057854314695,-0.9596426401322212,-0.07370141889903281,0.7957181019003459,1.4956430709594741,-1.4993062074069847
810,-1.3468828197820935,-1.06480642610355,-0.44659590724403486,-0.48700297107998014,-1.3784621442090372,0.3822894644710382
811,-1.3218270710208484,-0.09064324416991343,0.16455324296276674,-0.6639168085305481,-1.0959010020629871,1.2643928583397663
812,0.22707704951791152,-0.15883588277871175,-1.3619140033399413,-1.382481047767788,0.9007538581755234,-1.1586642163573784
813,-1.449167008685036,1.1625157936264192,0.4811061827905099,1.150371225033799,-1.3803858869134036,1.3399596731230932
814,-1.5256836365878914,-1.4047044689463097,1.4653787020891507,0.6693818651384968,-1.4714613697140164,-1.0070345746807625
815,0.34073632228535367,0.7663059272316479,1.3486348826682337,-1.1817928051909838,0.7821591678404514,0.5454909262603218
