plarotta/vision-encoder/data/UR5_positions_2.csv
ImageID,Joint1,Joint2,Joint3,Joint4,Joint5,Joint6
0,-0.7609880781828089,-0.39850756058410397,2.2513425051848968,0.8404059015194725,-1.2345608946232793,1.91287763969936
1,1.8126996132294169,1.1994346902564796,-2.2082110725878294,-0.5460986430973738,-1.5701099592190113,-0.7404557575361741
2,-0.3399277519549946,-1.857369932307918,1.7399179464013583,-1.5380482609771848,-2.499607178654846,1.8349832787028264
3,-2.829035185422938,0.7275936123865554,1.877284266412417,1.2636324491707898,0.2900829721806879,1.3061921820749305
4,-0.8832852903265134,-0.6623262425861416,-0.5567603523172768,1.5316929647923798,2.238559611669796,-1.3399853113244762
5,1.059450164033878,2.3243842672386723,2.35422513388711,-2.6936976928356886,0.5708936094772139,-2.3663999895291927
6,-0.3567253250351472,-3.0336495084535082,-0.6424665089971935,-0.17723003153704875,0.452188961323428,2.722741881190653
7,-0.2229170071248583,-1.0789609430819498,2.9947495447170986,-2.8701908648114665,-0.26556176942206067,0.6579973023915993
8,0.2285337971414596,-2.9934261671299005,-0.7211443522869576,1.8275071012880542,-0.6758699613092563,-1.234167831067019
9,2.5693660324153305,-1.6258591752925122,-0.8809666099890636,-1.2041602752626968,2.665554794852177,-2.7220323410938834
10,-2.695888542030063,1.4065272137587668,-1.9512551556398052,3.0810167442105065,-0.9056705583682811,-0.3632789588030545
11,1.6286096808529695,0.3265957732249798,-1.627463391474978,-2.3802883209399455,3.0010907235902584,3.088131651487135
12,1.9509480092235538,-0.47933772798391505,0.11991128205207646,-2.084443892483794,-0.5685836610147357,1.8141973811872232
13,0.9097012151481589,0.9227472406726687,-2.416798471002779,-1.783007328867243,-3.011000422736163,0.5950406442127165
14,-1.3150288573552884,-0.6113483386840048,-2.003175165163154,3.0320235821983728,0.00499339464666626,-0.9230818731488535
15,0.015814842133042184,-1.093165549625795,-1.6995389386644495,-0.5505024536254193,-3.1058947095256593,-3.0272624754992927
16,-2.3867585195503667,-2.5480655793591387,-1.7711888824997999,-2.1108452468120187,-1.517582179116881,2.138803632295912
17,0.4085698759919958,-2.787813460808702,0.2793010198075514,0.895529350338256,-1.7890084215948514,0.6250201858075584
18,-0.33676813110938353,2.3663670685389677,-0.6213120378571029,1.4919205582631152,-1.9236379325252535,-0.2776840928109485
19,-0.43413986322896436,1.7221408052997536,1.3352448181895165,-1.2464081524716168,1.7984022548697682,2.7851546522737465
20,1.8736732690387754,-1.0971287530659883,-2.910274107942598,-2.7829695515969948,-2.110511328486248,2.158747130788062
21,-2.659251032428452,-0.9174103204502084,-0.5819099583794665,-2.9392494547622685,2.671599079195299,1.543854811679977
22,0.06503031207411514,2.7395995170895517,1.30453351550893,0.8539150026792424,-2.7472997588323116,-2.6014019823308225
23,-2.8294635540180106,-2.6360978115986198,1.0498597057017616,-0.053176013856471194,0.8625686792160421,-0.2896466649078291
24,3.11554432234845,0.3047881210307244,-1.720376175717894,2.125388379446224,1.1032334859272739,2.180508158905101
25,-1.7149159578752506,-1.248921247676152,-0.7637483999999946,-0.03679677895316624,-1.7204621580185677,1.5819418884957717
26,0.8268562386310068,1.857515512584646,-2.2044179241456052,-0.9520295883888696,0.5800128858253077,0.2887530540458476
27,-1.8579228539563275,-2.689333003785081,-0.8777424777758043,0.7309268251663514,0.8505261260514838,0.4418476229006614
28,-1.562321098214142,2.420490214390629,2.5963720882479064,0.14432890593503833,-2.8565327627905353,0.11021480540389739
29,-2.7440727335293817,0.027634959586479102,-0.06277334999552542,1.2560321884842098,1.0731633080752827,-0.28856101843734505
30,-2.389680245078379,-1.9341312285151233,2.18889462918047,-0.37802567180596514,0.17384831524103772,1.2236023471200115
31,-1.8525523190011868,-1.4925820738912388,0.1612025072912684,-2.778815963368274,1.194738166871434,1.856311984212045
32,-0.00036939140232217227,-1.9728039699067002,-1.9835561536084039,0.5700154785259532,-2.82726988009495,0.8497241367108903
33,3.0768409388188873,-1.2634366533983816,1.6745135670112017,-2.3335857878133037,-2.53229625529454,0.7293824954248209
34,2.4740742068060886,2.380780354001227,-1.2571764721557495,0.7524340744381552,0.37305995199802044,2.734245418321173
35,1.9249629906744596,-2.7594232704914563,-3.0348658842984224,2.346501361962834,0.41648763413734846,-2.9401290652320426
36,-0.7691806065004458,2.247929874972119,-2.278408633317051,2.5260446594135297,-0.9051295641582873,0.19745722171293068
37,-1.8171738295898299,1.199487563257371,-2.665991315828263,1.3462775878432414,-0.6667650134647864,0.603837023794445
38,0.8233001738967345,-3.058644319331318,-1.1577426288219541,-3.0116489150840025,-1.4781787800407564,-2.254107812763959
39,1.7053021467221754,-0.8427958466898988,-1.000760889264861,-2.3938522620342098,2.880444885703062,1.52502717918615
40,2.3497337022960947,2.0611767686189983,2.304966161869036,-2.4059409488331527,0.6645900923075296,2.3489603705837165
41,2.523153994573123,-1.0239533707176691,2.40466458061824,1.0412616723787211,-0.8326418879121373,1.2699642857532583
42,1.5581471862195748,0.24409196565393732,-2.2690207619663676,-2.116209868780607,1.4603945966474692,-3.088052223785406
43,2.02072498888704,-1.7095676734563858,2.6993099448062248,-3.1300660396874407,-1.5174294529309633,-1.1061160927546618
44,0.7433957413731451,-0.25381986912190335,2.6490437639569127,-1.2959853345228953,1.5971888644396106,2.94974340925664
45,-1.7423571519069745,2.3304841634827804,-1.5818387343008482,-1.0392843297896186,1.0220217556188427,-0.1743420967459377
46,-1.2656237517599356,-0.6841931052582138,1.029961424958131,2.795498250260934,-1.1982140415038105,2.2467306958355646
47,1.000120462482081,0.38100217541803527,-1.5997610942170348,2.016938291716497,0.4972965949768571,1.7507268543541157
48,1.5388221344089716,-3.0533109922876056,-2.123834693499716,-1.7149535930279154,-2.7232043971224287,-0.7061959015085799
49,2.4816617327488197,-0.976484546707487,3.010411031535426,-1.5938045768090183,1.275917080091367,-2.544912703549518
50,1.0593891179061705,1.5306137615467081,-2.4343134260678045,2.014773155999639,-2.8031678658410577,-1.181509461411751
51,-1.58920979045502,0.11243610374774127,-0.841607931156739,-2.8703834044471495,1.3787790388140877,-1.7584467011145293
52,2.3129038056472737,-0.5233077513940296,-1.2510643829023171,-0.07265330602266884,-2.383098772069017,0.657761952224627
53,-0.15789456186735373,0.4084908057209131,0.20548948975557435,0.16485394171884682,1.2176928166403824,-2.6977752634282814
54,-3.099150637895709,1.515336804329391,-0.2262126956236461,2.6772860325638463,1.4784583465394867,-0.8124499197757995
55,1.0754121923342028,-1.8173806234591707,2.5147097998958703,2.0034095976832837,-3.0844952320430745,-1.7323771020020313
56,-2.0701689436002657,0.9825364050269574,-2.544520588387445,-1.9651573352043625,-0.5954702022350378,2.443706503232428
57,2.441634955935105,-0.5295174218739516,-2.6506100206700176,2.2406473091192503,-2.516402166988105,2.3463619558024567
58,-0.9280398202425704,-1.5325660952582827,2.767371743698595,0.3913786642734052,-0.30459030516005114,-1.221287625758527
59,1.0591764796289285,0.5496167760666433,2.0051202873900085,-2.7385475500635663,0.893431372572425,-1.4226284274720133
60,0.8453988162760497,1.930114528264376,-0.6891164044382037,2.174414093631272,1.8929379801896733,2.576800894201548
61,-2.533295641674983,-2.8901908980196347,1.6775651086388628,-0.6423713784604335,-0.34945661812893514,0.43856131691953815
62,-1.8386370127946918,-1.8513322810231965,-2.830372158792793,1.5934883810263694,1.233262438523183,2.2626614792327304
63,1.3366422695668998,-0.7296682580721274,-1.4833904512073353,0.35579355930843715,-2.331577902582628,-2.6146453350620216
64,1.042809033491097,1.4850443055248244,-1.4528680659831066,-1.7433871865039599,-2.2680489063281035,1.8360580578076062
65,1.2446277585736585,1.13444708150287,2.2133702246180444,0.5715899619424105,-3.1041852875672835,-0.8504416001650617
66,0.9251229744491143,1.8059190130873004,-2.4235333978735154,-0.25393396249563827,-2.8045515049068523,-0.9898358908686129
67,-2.8990718450026054,0.6317356032191888,2.2932869816927735,2.46087237087023,-1.1455582382599847,0.31542061399271004
68,-1.9998858266504107,1.1428775465699106,2.1678839087557025,-1.5719104446414784,1.7835453436098607,-2.7584429202170933
69,0.6514271451181011,-0.614054084685284,0.8345944729952142,-0.3460669679912258,1.7809698901874382,-0.5662940869803892
70,2.6367231220543026,-0.8426830215926797,-0.08509151715433338,-0.12003183346495261,0.6238918140624632,-1.0834903977967452
71,-3.0887501517143217,0.2591277802038161,1.0386768299393898,2.2428939227829456,0.07616556930724938,1.1815635760337013
72,2.0727112870625772,-2.9676408773303886,-0.1764113286342579,2.3497166484328806,-0.952050722927622,-1.207022495519483
73,-0.40215991237587634,-0.3098856938115748,2.589774152601138,-2.4723097570860473,-0.33375041878482303,1.5884323976628743
74,-2.221191251759531,-3.0219980037832537,-1.8953227130422436,0.9157751998875785,1.4551631723335587,-1.7224612945499107
75,2.5852707991344372,1.5498042378209247,-3.116494370269338,-1.3394533124979588,-0.08051823356104482,2.828653858181786
76,-2.379990640104604,-1.2923677853033204,2.4236988354948306,2.3702153465157423,1.172311856002616,-0.8710274705183108
77,1.7334869647911946,-0.8864222733261404,2.295676130642331,2.2574865544536156,-2.704216847807981,-2.911479276511516
78,-2.8151966352454965,2.038127322070264,-2.7014665973323844,0.46894363757796276,-2.8123948152612512,1.3406668640030883
79,2.1579053611670753,-0.5852018602081714,0.9479122958242128,2.752889856844644,0.12428715017208125,-2.883934802449538
80,2.4598645870754696,-0.384893524732989,0.2920795279871373,-2.6128916506576494,0.06957747406434223,2.92487730950329
81,0.9625875378032189,0.31539135633378557,-2.8518529466045877,0.1995567643142513,0.6280519464276475,-0.00679303638081219
82,-3.0621799869757513,-1.6045020432180825,-1.398052122010032,2.6009265211611563,-0.48977374831814746,0.3533748298470374
83,-0.10593825852439531,1.3748231876701178,1.394675185331744,3.137654245599573,-2.9278355387005033,-3.01605860548274
84,-2.030936571721104,1.774741498217315,-0.4606926957641715,2.4624395765868723,-1.0118343935112977,-2.304977050744709
85,-2.897941740387611,-0.3543909874552509,0.29582286783980516,-2.968908130115086,-1.1404501490327141,-1.3567962598729526
86,-2.584510704826367,3.019750083462837,-0.9343572031225933,2.226436574347443,-1.6286930626083798,-1.6115881974360549
87,-2.070714108676104,-1.2940974711353066,-1.2474404661348144,-0.367946913858356,-0.20434284517204393,-1.5269554180984333
88,-2.979993958766613,2.0368710377937065,-1.1574719996108715,0.6961500391061786,-1.6605645535467386,2.3474910731384764
89,-0.878279962223337,-0.9673648784433597,-1.2060083561394355,0.23001495633466051,-3.0536692727113195,2.2465601382287534
90,-1.0576712158047834,2.6811908793729033,2.3546233127900518,-2.573561655799335,-0.13664394502127086,0.8659254880917784
91,0.527912183596722,0.42057546810504576,0.1312922453910863,2.4158634564807544,-0.5276650664533702,-2.1056991386266084
92,0.5583457807918641,2.562237868493707,1.7394286799921934,0.7983529319810314,-2.514834154428076,-1.7602258771155386
93,-0.9122292886703405,2.0675533035893867,0.04672054523150093,2.3563242200890917,0.6488028854946104,2.5332901562490218
94,1.929164857946322,2.753486558619657,1.1448765358810604,2.0452161388797796,2.611206205084577,1.655563781493803
95,-1.3492882422599455,1.6236787702243838,0.45462635843627597,-2.909629076779161,1.5342162280329088,0.6849664157660453
96,0.6662620962230554,-1.6673021170792641,-1.5250287486281322,-1.8370184850095528,-2.5972963233226976,1.0714536610477268
97,1.0720285973997346,-2.8315839282709043,0.7122632769761208,-0.47972838132866347,-2.2768975003029674,1.5610124398824858
98,0.7045306808394471,-0.09277215071876466,-1.6225803051308185,0.3920552695763728,1.8313083280271787,-1.6542325190488238
99,1.3140072140159322,-0.5725519292311372,-1.7890557216587133,3.0451133784979474,2.5415530015729075,-3.0877226513192886
100,2.743780717362018,-0.9644073045233643,2.009797305600819,0.4045824090082992,-0.4706303975621866,1.0367526133329248
101,2.2930012732828224,-0.19285613586697892,0.8825987926156191,2.640518099234539,1.8699026239034504,0.07347129661870788
102,-0.46822553923291643,-0.08129044384601691,-1.8819947344488837,0.9265654191624035,0.41857863870608236,0.7125477192804115
103,1.4512562940726275,-0.19027089872458003,0.2690309856278996,-1.6440599296100646,-2.63196513224407,0.1606912627231769
104,2.670272019489431,-3.083330080886586,-0.7213411347597845,-0.05906662910042515,-1.8897475932605792,2.571090839398778
105,-2.1440532330701236,2.2118978570828967,0.18670312267310907,2.017890442917918,-2.231328157207698,1.0941863179918956
106,-0.24963894763211814,2.2391900053319436,0.10166669763860847,2.7437727589242895,-2.369030717586718,-0.18613473734453123
107,0.953763205752173,-2.0901696298279413,-3.0352264147851735,-0.685692325544331,0.32114910626812465,-0.30438417378087035
108,-0.17563046859152998,1.8768662985226214,-0.5183599852455614,-3.136667924348169,0.20046194510173088,-0.3500372984635227
109,0.07308450203337236,-2.819965025717104,2.808989661957651,-0.2892127092459793,-1.067204225362984,0.08601919266249958
110,-1.4454152467768795,-1.0913737493056392,0.9803313175228503,-2.9364798335311546,1.9608802619169152,3.0448436650803226
111,-0.709560137618892,-2.114551185513423,-2.054537532212516,-2.0703173409017195,2.976081731231333,2.4152697018976603
112,-2.633275807793249,-2.2131157528064818,1.9621651172777348,0.6433845127227014,1.2777578268126515,1.6746353837101573
113,2.058670461120653,-0.25622232825869506,2.920538233702188,-0.0816570061271844,2.757785562080839,0.42235598138149966
114,-2.520340408023218,-1.7951828787047617,1.4876151919799385,1.8806922445924554,-1.4684150096769277,1.0050909758817816
115,-2.6300348115359413,-2.032513948114298,-1.5327937841355186,2.906889084947448,-0.9031641750275567,1.004360181122232
116,-2.5207833255508456,0.2409990133742097,1.904065131249892,1.4230331850494515,-2.728377949767407,-2.574300654524749
117,1.338960809202459,-0.6119563570075046,0.5294011006138355,0.045406506363109944,2.6566009611668795,0.8644396912214836
118,-0.4124298814997638,1.2180651699481704,-0.19561863614938213,-1.2812541882591035,1.932281674237176,2.5116784493848874
119,0.6165759595949685,-1.9284033438352426,2.7325831708804573,-2.7145275499950325,0.45494448193534165,-2.556156420719989
120,-2.5751196414972233,-0.7035008297801788,0.7735262272105361,-2.247118073487359,1.223635676524136,2.9738858796781704
121,-1.5887193793156291,1.982642942023607,-0.1339379983381086,-0.026493873149838087,-1.2324510189084903,2.8074927607964932
122,1.1685337297804637,-0.43230937344092357,2.3148221667515845,1.0558261543277716,-1.9922812981037137,2.7232265644796607
123,1.5426601487527858,-2.044324170470916,3.113606189740117,1.925995631629318,1.8174771542092198,-1.9209169097675682
124,1.4420466964114125,1.8940391413109365,-1.3685878677461225,-1.6145744353129237,-1.322925688113388,0.8605903705850384
125,1.4734342036157182,0.2907201269201969,1.5278154406659246,1.3307001099152087,1.9481870544114503,0.02927899419371327
126,1.8916689323436024,1.8063814356015042,2.6459168527350894,-2.020074745331703,0.37754498264853886,0.251375789667561
127,3.046280461154482,3.11437106323232,-2.76041233199433,-0.14142292873233586,2.339347747855599,1.352827179380129
128,-1.8119278175936455,-2.018737189395368,-0.4056759015044409,1.2674673287736082,-2.4831376005951227,-2.6852230280701805
129,1.5601105481536184,-2.29434346890872,-1.0537606047640815,2.062301861248005,2.1742959338125916,-2.566877884985752
130,-3.136054536064762,0.3001797197115885,0.3084945147831073,1.2390564675102862,0.8669786561410513,-2.3855223191966677
131,-1.596947304925331,-2.708759106569285,2.9906593585934003,3.097836149981439,2.746960558753031,1.938566497738007
132,1.1292588119949398,1.6843722500665006,0.9713391370344739,-1.8663540295490721,0.0822130660745568,1.0315062606915015
133,2.170582818497067,-1.3668626569465556,1.6253127481231218,-2.0506622877663148,-0.6404117554766886,-1.992828418891324
134,2.7633724401738977,-0.6475640810479781,1.2293949059368794,1.9598096866348307,1.5553940466594751,-1.587347266881463
135,2.206297015992255,2.435431270596669,-0.9330554466355898,-1.1583093577330004,-2.479550197216164,-0.05700464610453748
136,-2.8374336864386818,-0.9184031534194781,1.972942341776566,-2.242282873778135,2.1852649238241737,1.8630612487056908
137,-1.6351800216882333,2.757228412049419,0.44737966039011967,-0.3992949072449834,1.3706750799665777,-1.248685954440342
138,-1.771617624288423,-2.8506602197513717,-0.8886680063091728,-2.6031766337943676,-0.45630712798683737,2.5181257013906855
139,1.3309467329202187,-1.2391554100099347,-3.135159479226273,-1.2815213430086876,0.4774542916138085,2.26078575408763
140,0.8837253632923376,-1.8580264273184768,1.8193086344285554,-1.9851776828112437,1.2332365152689055,-0.9787004594644104
141,2.6610980488909375,-2.1654423410429278,0.7107999960799893,-2.6675424330550688,-2.7624189663711807,-0.7891796784728653
142,2.1100487941610497,-0.20679985979801652,-1.2682232597409822,1.4987258803452859,2.759451171220433,0.4503836338365792
143,2.025616981918021,-2.658245406014877,2.577811249191573,2.1336729164245742,-2.7596695701688385,-2.6418409899982036
144,-0.6859478188884598,0.03392660688682492,-0.09362719570666256,2.5851527142106416,-0.22176496587532846,-2.619563448164134
145,-1.144252496141459,2.8847406513054814,-2.1399489562747567,-2.9360992279621154,1.063388916896164,0.33260484926830713
146,1.904053965396857,0.4916373718005844,-3.0544595248786526,-2.30689102655618,0.6272561385354964,2.7569853565846136
147,-1.7705187027411422,-0.6745671845375272,-0.8006538334253377,0.386414570024741,0.5779618014764791,-0.615016600945332
148,-0.9071169409708739,0.22658463725099098,-2.023209075796675,1.857571232649259,1.5244878771467167,-0.8479847850941082
149,0.887499941248671,1.3440273139399572,-1.6935017436368613,-2.744551294193277,-2.036385735038142,-1.2296125281571644
150,-2.7527838292498665,3.0968565725314994,1.7829590090345926,-1.7876084631099582,-1.2877855634965236,2.8345677589610005
151,2.485529840438817,-2.2757444924959285,-1.6402039596007798,-0.7680960240105348,-0.953341163229664,-1.337952467294467
152,0.6700495801196027,1.9848858838892962,-0.9573480073944372,-1.6509365882641318,1.5940176094729344,0.48590963747315286
153,1.9757780793007056,2.7155447005966566,3.0107196462462147,-0.8984141690227636,-0.6580054221356364,1.184531933479259
154,2.728334763654723,1.023935285840877,-1.4286099065487499,1.1986032528062136,-2.885603379742424,-0.9101539135494541
155,1.2818585540971883,2.5988236859475604,-1.238589967874286,2.3511656368139615,-1.3512993398772077,2.164495683144854
156,0.806259722318388,2.1851337257634595,1.7727433161391444,-0.6869250657935817,-0.5705571706331458,-1.8838116302671752
157,-3.0919809158682847,1.815775055249234,2.1085056664561517,0.4478288839322051,0.36258877890172725,-2.1406102103255744
158,0.3823604120226549,2.900691063610415,1.6514084991605502,0.2238912239125619,2.6089348371095706,-1.4650319448096594
159,-1.1058033552376,1.2303499658410324,-1.3819497942221006,1.5737078372327664,-2.1246918926215734,2.86419666473635
160,-2.1955481210835512,-2.544427265493592,2.7709017690117825,-1.126008255595877,2.0983784737896984,-2.7726252562993503
161,1.3125010534969608,2.0803424347704986,-0.04695311077742037,-1.4174560603020094,0.1955792738789519,0.6455241066552797
162,-2.0327136115433917,-0.11222955981388782,-1.4475548020357014,2.1310673194136145,-2.4995877335629664,-0.6309955664993683
163,-2.1423890531332432,2.236412481979208,1.3279323507841028,-1.7855503609333019,-1.090489579334296,0.29878266117658425
164,0.9988676138932453,-0.5738975152396417,2.452720288044314,-0.09464091451104162,-1.2051037224392604,2.4859967259110087
165,-1.6246072334250805,-1.1240018449413114,-1.8571217187622064,-1.2072474049476167,2.1370705658302436,-1.2974884040789372
166,1.5100481330611366,1.2155212408580427,-0.5775978567812405,-0.5083773247720189,2.1215908653244133,-2.4631574816529223
167,2.8335034859787243,0.17067224306726292,1.6323561293441866,-1.8720567920508748,1.6821155530672582,-1.2766836084978446
168,0.888662527485562,2.999529419368491,1.1523777652523703,0.5034327764182343,1.1872349579491779,-3.0608865528317333
169,2.0878955370157835,2.3664989172433364,1.4380232415001082,1.6128952912771606,0.8290972490928987,-2.4426974355266378
170,-0.28497567134988167,0.8764129888406638,1.6997567393053226,-0.23725049039125956,0.462819364850934,-0.7109966763073983
171,1.565469120599774,2.3766936304638877,-2.425496986473367,1.3573493636504148,2.3116856090671725,-2.4085970358397057
172,-2.318659508336692,1.1730827393483638,0.4840435630394304,0.924781230628029,-1.8191021772559386,-0.40779345042226467
173,2.727406464320108,2.86097382168973,-2.9236755595878363,-1.8159632838059347,-2.6835910441063255,-0.06808119197961249
174,2.5197395974861054,-2.2803375057684883,0.2272492719515662,-2.1669551881166296,0.4565991568896841,0.09422201194779323
175,2.8807210206149394,0.880574395800612,2.899233163739387,1.7148224891784114,2.302147748443762,0.6815638609353449
176,2.108494539831713,1.59348108293469,1.5089839978568182,0.3230823477248399,-2.9284044429405895,0.7454207741864463
177,2.9664277158309957,-1.682816307106154,0.0018576349000336556,-0.34822769466422354,0.12067308659252651,3.1023101981469656
178,-0.31478968810050123,0.6033175201728489,0.4803635016362402,-2.408913883532218,-1.3119737375894551,-1.733405390480494
179,1.5969423486232648,0.1260527707496366,-1.862568332901047,2.5720382432613773,0.14891739365123735,-0.030165946463315052
180,-0.9982447587727896,-1.783979226144214,1.3549140898389478,1.105295502213301,2.2835264085718237,-0.21145403608824287
181,1.8105064873813062,2.3110599106512923,-2.896690149312328,-0.3196236251117708,-1.9684781370498108,-1.3015810361463418
182,1.4902153022963454,0.5082175285346779,-2.993261504896084,-0.6294563708869085,-0.014132767419839709,-0.6306430156532561
183,0.5728873604264453,0.7601824847442327,-1.003689663660793,1.8548725179119963,-1.0260833615784932,-0.46830494652177945
184,-0.9694441382427179,1.3414543484344241,-0.1885134486065989,0.8147720243587768,-1.7429864438773157,-2.830135465632971
185,-0.4919806556576902,0.5491423510909983,-1.1617917129173974,1.2036465305084905,-2.9473571650318613,2.024235656124752
186,-1.804254258276818,2.1117330506200958,2.528946916172246,-1.537431229337906,-1.1685575011287024,-3.060147522882385
187,-0.8728694763559122,0.34516720462131145,-2.2123647224812197,-0.15878470177291204,-1.457645325022603,-0.20909928120857257
188,-2.4191016512969448,-1.5709686197484374,-0.8034456912453374,-0.3504907934277157,-2.692280923695704,-1.991396473081496
189,1.8568867062765104,-1.3180030951270962,3.049842096329991,1.7895904259571296,0.23511449788892902,0.3981851222643402
190,-2.7521568480347804,-0.9341466100010121,2.6313109743908454,2.337420932314421,-0.8303953321474973,-0.8769718395788302
191,-1.8238441912004846,1.6250137816901944,-1.9317460682876626,1.4596840552618922,1.943898273823744,-2.209602388271427
192,2.677331784992293,0.6611660502467274,-0.42269944656555536,-2.9539695996709585,0.6663701012628591,2.329766912262895
193,2.3545834728282937,-1.8817642318765755,-3.010847903104873,3.117003972195854,0.9125748433236307,-2.7096614568906263
194,1.7614380515759054,-1.6238258458964407,-0.07193705116963711,2.7533529471795344,1.2126104592598663,1.1714664092325409
195,2.093559810562301,-0.5557892180105539,-2.5291354474531738,-0.04670583837843978,1.0764131941089463,0.5557422730597823
196,-3.013493063478821,-0.01912506164304384,-2.6907574554605205,-1.742212993550409,1.6770053902174995,1.7706439534761245
197,0.8346615276011042,-1.5890215323499137,-2.442797843252377,2.7641921530408116,-1.4265677164990633,2.372811771571701
198,-1.1899109563008434,-1.430080056086006,-2.0450969261033007,0.7698468021793601,-1.3839890869244327,-1.5262302216523265
199,1.3572995291584355,2.2136544944348095,2.023835179238368,1.0173079091553463,0.7277784916427361,2.228154986483201
200,-0.18849249230109066,-0.5501115587232248,-1.0824660102943962,-0.3076752501811324,-2.118900059969146,-1.3497844962836665
201,2.930369868980713,-2.033634633914701,-2.0278691562170286,-2.9718952889379633,0.4852741559466973,0.9142749306808575
202,2.5217646851642304,-1.7954765586696626,-0.3467015190667935,0.2983776769155213,-2.8769597115183014,-1.492753259735373
203,1.018420338475054,-2.649925367034791,-1.725381443226886,0.6037605339025762,-0.3603643350161323,2.780019268387081
204,2.9468951299810495,0.5010338186256735,-2.1813904853670976,3.01493164218389,2.1927616940534937,0.036455413377249
205,1.7427131453509457,-0.018137697682178544,0.7348889986107316,2.485453823546564,-0.4829419116623428,-0.7133290454721997
206,-1.3961096450342492,-0.34811217544945006,-0.21516400318567275,2.030673000945658,-1.1375797255142182,-2.21425566409393
207,1.3488140999615128,1.1973083138791125,-2.3881432987744056,2.4550867210866594,1.0783917703504127,3.1021719026587444
208,2.3710996013086802,1.5410069468031944,-1.6201470586482665,0.3793680627006082,1.9494394854445947,-2.448840166499152
209,-0.4718412425824492,-1.909336535142577,-2.930380894810403,-2.7894117641737144,1.235495019304759,1.9216642868904126
210,-1.3466022904602093,2.425229190594517,-0.8486440461329425,-0.42368190023023633,2.4274556379697376,3.006625513180065
211,-2.1148008772203957,0.6394869388013089,-1.2014938916816966,-1.558488691701202,0.6445405365038646,-2.3770072145113663
212,-3.061977562248356,-2.1363674943850386,-1.7211239962720197,1.2545499494919028,1.8245622909462709,1.1729286362745208
213,1.1969625108332194,-1.7710749262818926,-0.732110082080518,2.3614582970759876,1.5157532684682602,-0.6866805825608155
214,1.8120515613003016,-2.889184238955505,-3.090260413619002,2.236680881205282,-0.5078838513717625,-2.5461668375518123
215,1.2253517306673434,2.9624925725658944,-1.5910372901504144,-2.0694360106203598,0.556716112682694,2.4433497010166363
216,0.0968113802453554,1.5950363014034767,-0.642796046311382,2.1840981618818462,1.3349101778186956,2.8958542635649716
217,-0.16853523194339415,-1.3354752766732698,-0.07392384986072109,2.7952956859141187,-1.0011609668295698,-2.172618408724607
218,-0.3182938500769099,-0.18444570170488106,1.3709212054583748,-1.8934020235569702,1.8438986077474082,-1.3036845810669226
219,-0.05248984382760735,-2.850209056654112,-2.05876774640079,0.7492553156833375,-2.5209835880990488,-0.012945792520477895
220,2.3358329750482243,2.2513574824064166,-2.1994280090736122,1.0655445029130348,-2.2334600661613573,2.4246569898957633
221,-1.735980910297873,1.2635162033534169,-2.860701141208645,-2.2568434954511756,2.1678353404811803,2.582233155543724
222,2.639633266586096,-1.0463402206815413,-1.207998622581405,-0.7076740327186597,2.620719793972353,-0.630875442771452
223,-1.3530776896681622,2.8057000406004233,2.65984343856094,-2.4000860209684496,0.5364224932116177,0.20995421116872715
224,1.111031009124912,-1.2124457855479582,1.8091718725023975,2.7401307921036357,0.16965214418631724,-2.5079894530646913
225,-2.29153220706654,2.7177956969970225,1.4357392830379991,-2.206254542032826,-2.894275247698259,1.7005295918046528
226,-2.5387793050758694,-2.9412573713251966,-1.2127516714348752,1.6498900887220858,0.020742857033832163,1.6209800820822053
227,0.7781532454156173,0.5185636181764668,0.26409897437315255,2.124507469876737,0.3518790001740406,2.9010033829378754
228,0.7893183515894311,2.356508539286777,2.4171443799351806,-0.1929517799558309,1.586942330743514,2.8972705699556
229,-2.9110991936313777,3.0131159786363026,0.28581874704822585,-1.0798992508095462,-0.9445874140754826,-1.316223947077146
230,2.41169736868242,-1.8985038189028565,-1.1861151802072245,1.467044207454279,-1.5685885087714113,0.7635001648014703
231,0.4124753221139623,0.20600581449572175,0.9744812342121438,-1.524226721656999,-3.1375263065369245,0.09357489125417562
232,1.2726035380419827,-2.301774271623435,-2.16601617375123,-0.14153576312495897,-2.154121586274225,1.8355029610446856
233,2.589945263010735,-0.5999739000629738,2.5291030563142574,0.2019196204636593,-2.98707899040507,-0.246098596224813
234,-1.2704049574263576,0.43791878339300094,3.134219569391102,-1.5645854727281683,-0.3228461378204144,-0.5447361154494219
235,-3.034932850058992,0.9412566178390636,1.6888614169291412,0.9590593458430341,2.7320375515886335,2.239237786040591
236,2.9925482652754916,-0.046785109007248415,-2.5746483868487497,3.0380171065259827,0.7265220536372277,-1.3133703186390064
237,0.21634774040404592,2.9801831219885555,-0.5897937480688249,0.16629511091978832,1.816063241078143,2.4285651234115964
238,1.3302384424181826,0.19700764175719154,-2.945201006463648,-3.1188596214720534,-1.9731639715175109,1.3792290282786723
239,1.6942148599939326,1.766365727976484,0.0409778409038517,0.6192068920204572,-2.5207740241750187,-1.7574358132289878
240,0.10961146405386835,2.8498759339953743,-1.4588806328828694,1.6806523253502261,-0.3585567554253415,-1.5370543718098728
241,-2.949564802818417,-2.4728210841990195,2.063267229210955,-0.8410144540982878,-0.866157093744464,1.9238492841057315
242,-0.6767584637272193,-0.7429505194037058,3.024291523702722,0.6575625387707529,0.1045638709557295,1.671770598552893
243,1.9774899072153804,-1.0979875723802732,-2.6002816755927314,-0.6742336359585863,0.4055214146192774,-0.01342832920363124
244,-2.139013666874657,2.855520819673343,2.6005166334340135,-2.632494479351236,-1.092158958555729,1.0662310749793322
245,-2.721744195837311,-0.7389012103093844,1.8521211643977855,0.16070590651929262,-2.9228213245380847,-0.9014612922028364
246,-2.4825478796140783,1.4896636494520328,-0.15588967250525343,2.939224928900238,-2.5828330257489913,0.5605050943541818
247,3.006747963771466,2.2279258602511742,-0.9241144658075018,2.5744380859874054,2.7252683681524683,0.7749251808403441
248,0.8947144048878126,-0.03822710672712004,2.5587227930551633,-1.8755542560725271,2.5627616286947488,-1.4500586788625005
249,-0.29123524108670873,-0.49424716766998467,-2.007225847350215,-1.6263689931871952,-2.23454219384833,2.251911694895507
250,2.4576664495301417,2.4505404384106946,3.0945351967919033,-0.9302271256580097,-0.1535013602384434,-2.584389066729432
251,-1.1560619607776539,-0.06766799782262733,2.5187622378637275,0.34778157155858747,2.8008187589551916,-2.1922247837204623
252,-2.323793473912105,1.8922871064375792,1.8903135410647467,-2.7922072578542476,1.7331517601386723,-1.6955159811295708
253,1.8933879644382747,1.1787036538246465,-2.1824777716979313,-2.253408588950438,2.52646237711559,-2.295297441827136
254,-1.9415009330221962,-1.310057618080293,-1.092993606967676,-0.12639825307313046,1.9823782872283235,-0.9639529422300273
255,-2.2675865445182652,1.2750501612252387,3.090150921139699,0.6387984417863262,1.2084983888143608,-0.5683242034387681
256,-0.4485750021587225,2.951632573848234,1.070012713021451,2.580982230320566,-1.0805426372330453,2.8546364916254356
257,-1.928197333708358,0.7089943736644586,-1.3968402878491981,1.8675230523915936,0.6235728414234458,-2.915401144538528
258,-2.2707062035152648,2.9270816362407404,-0.8293020857669848,-1.1781281959618413,-1.2958185111013383,0.48868286962357566
259,0.2107895345633688,2.2180109325560426,0.8376287725229563,-0.9871503760956708,-2.8202330557678166,0.47032134923763236
260,2.8609481299652293,-0.8249854391837448,-1.4001918552885542,1.2654533156324836,-2.5111304055383954,-1.61463891257261
261,0.31993395931903956,-1.9498647976952816,-2.7834406651783197,-2.280782086617891,2.067982790269749,0.06965141818021792
262,-0.5202900545339686,0.8052561818673905,0.8916609623998033,-2.682007635032952,-0.4519310164320127,-1.2035773452718028
263,-1.0401286338314306,-1.228061329582409,1.1841888858727234,-0.4258833349107731,2.559498882181229,2.0190586474347034
264,3.133375249734571,-2.423427274727432,1.0321181353528024,2.2686106276252973,-0.9551369229537299,-0.639337228646002
265,1.474418808618724,0.6186620812783703,-2.400241081117506,-0.23563455778152642,-1.9125475260452618,1.0619924786590609
266,-2.747149268790387,-1.9330063267614244,0.4653388395850011,2.2080149964395064,2.3857628490133713,-2.7554933789016607
267,3.016890003236557,0.4456721747957024,0.8925227927429837,-0.9163200027078346,-1.9921809445431045,-0.04200343620303393
268,1.4362635183920602,0.10486467718464487,-1.6084419539064951,1.2016320800174567,2.508840984912097,0.5513618263632827
269,-0.4684091857826007,-2.835013495118019,-3.0020470716976284,2.6219571159124406,-2.0357813770272575,2.467089223701217
270,-1.9078142325345504,-2.6040627085124393,2.695180538291461,2.154307971203079,0.2252923587831499,2.678087985380535
271,0.38005759594832167,1.0173014319693374,-2.392188748064256,2.0415716695651396,-2.1135714216149823,1.8991678007941042
272,-0.7757575142850208,0.864320868127666,0.6925272432851752,-3.1035241780504093,3.1273467002066617,0.48953845633849324
273,0.8135785406722631,0.26081643454087855,0.7242810719725101,0.5171299879568441,1.8551764719401573,0.91143488163799
274,-1.9494171449137807,-1.9188194110219765,-3.104387163852399,1.8677582513568192,1.0777814448306549,0.2301520569691089
275,1.2799208788482836,1.1513799770923017,-0.9712148528966393,-0.18447074206659586,0.5426241817344071,2.8515371537612157
276,-2.5854172195035074,0.6605900755762626,1.7712033603917723,0.6478240514570337,1.3423552329035564,2.9417649822437646
277,-1.4007652983084198,0.8163007351485425,1.0747342392108301,-2.087767162849074,-1.9345043893525953,-0.10546100636014843
278,-0.2686203608110529,-0.3114580865144041,2.588271558756027,-0.5682772867761456,-2.9198070514589736,-2.5603906656787285
279,-2.2835572233858294,0.7441382273683175,-2.044632733783212,2.381481902352598,2.8004572436061927,-1.907199230285506
280,-0.6351388257888244,-2.085906501497291,1.1047097221361524,-3.048529551225721,-1.4576650597476957,-1.7841445058300962
281,-0.8068369397242092,-1.3100556475667728,2.757058371944935,-2.838872988227957,-3.043477203505401,-1.9513307225631566
282,1.3067146847475772,-1.9191795390798754,0.13690364418085776,1.8055294020680641,-1.0409998256156325,-0.8248007381960374
283,-2.7745109439341213,1.2202459561295305,-1.3274886039028984,2.06682267101173,0.09534739040006723,-2.8542614641072195
284,2.3672535811168345,1.1614327144869145,-0.962508886150673,2.473125596948517,1.7150011858691316,-3.0445498714865327
285,-0.8731088072576592,-1.9475838875391145,-1.7624063670527317,1.9880401743639453,-2.387099671850568,-0.8442760498646691
286,-2.396400998963043,1.8163427618797696,0.34330405180813317,1.4846726593642288,1.2966210841513792,2.086738340364384
287,3.0556266371209464,-1.9791919493191883,-1.3345831467175397,2.4326263108902033,0.8848020870983913,2.7744827369956244
288,1.3414629775286082,2.505495170480674,-0.12792266037791444,-1.6955462956658678,2.221257601546448,-1.1333905158724797
289,0.3557815996727407,2.604761964438743,-2.9000997694827477,2.837423180294567,-1.96994338768282,0.40252118139759085
290,-2.936071127153422,-0.6614190367794848,-1.7374535750477103,-2.438869779918731,-0.6699604596661892,-1.770786012112942
291,0.6187961099608343,-2.9372214283095057,-1.128728455374247,0.63985733344298,2.092885597645794,-2.0442633749712367
292,0.7837567532863758,-2.5515075298617576,0.4539265336231888,-1.0058343034466066,-1.0773674991217574,-0.35970086053663053
293,-0.94962695369989,0.8784120032328397,0.16436990566002407,2.6487557301324838,2.2819490984270585,-1.7396678353300408
294,-1.567961802239991,-2.1224796180898347,2.747005610926771,-0.2516278138777617,-0.49396721381164754,-1.4382648273104732
295,1.0965537176829123,-0.1820504083095118,1.8975261504519914,-0.8244818449348363,2.536098713391471,0.5313461803487032
296,-0.6098110993954862,-1.7289808302375438,-1.5805194893440881,-2.388188456737842,0.9453539343680006,-0.762921201776706
297,-1.402286837049892,2.6125822948251125,-2.4144049005471286,0.806777729696174,-0.3034644469405614,1.167053236164886
298,-1.084818401687027,1.1781930834087762,2.8519344987672213,1.2397429753570162,1.8297922817180439,-0.963334239663959
299,-2.003032995917929,-0.8632588381512081,-1.6418903014247537,-1.0747793425568433,-0.14316669697827944,-1.065594727424215
300,0.5966059457869695,3.0046921735654273,2.588377292234455,-0.012984367728915647,0.504179072514841,-2.2044275550583374
301,2.843837683416112,1.5280038060224044,1.775787954499494,2.0549603338258917,1.8290862211435979,0.008377303673689163
302,1.035042537894534,-2.835084161522209,1.0094825912666119,2.974479960013781,-1.2778288478364905,-2.952263507083566
303,-1.2808238313867344,-1.3227408269312433,-1.396656084995176,-2.2434555414731108,1.2870776345429729,2.585113633082038
304,0.24833300005670367,2.1370002850880683,-3.0229588191604377,-1.6121169833348243,-2.887914759838219,-0.7685707271302631
305,-0.3682856557217944,0.4234955770995601,0.7278330577962464,0.20745801050899138,-1.3409155359989526,1.70654825688601
306,1.547131844170834,-1.9220565985134288,1.3644424539605948,0.7121964298866676,2.53645300744404,1.7616211009176412
307,-1.0484780695563303,0.21512879661993933,0.36053843932359086,-2.649277536848531,-0.5325409426464316,-0.033455389392198054
308,2.7115240951222246,2.4515002036013014,3.0716130942520747,-1.7887322441973759,-1.405117810951647,0.9734466279105272
309,1.6346146001457065,-1.0565955940566147,-2.9494425975303113,0.7863044712082958,-3.103452283666755,1.9678501261053505
310,1.8124430029295135,-0.5017547994717169,-0.004053747611977965,-3.0564881200913714,1.8559349127784213,0.8068264008059591
311,-2.139781163215935,-1.2818759429182973,0.7544652591229575,0.7622884684437712,2.5518211971858626,-1.9672252860704897
312,1.3044154010895248,-1.2631820885151748,-1.0333131011953278,1.9061285755954227,1.1697317503949645,0.4632366348240109
313,2.3222937632141667,-0.7486240986282962,-0.616519874149466,2.576740282293846,1.6054046565729365,2.9720854756021478
314,-2.9726800685437644,1.659431900310521,-0.9148466996805595,2.9928232718414014,-2.914815747422993,-0.8207708572887533
315,2.3940895961830426,1.4056168336524442,1.8074791642163497,2.573010765203211,-1.0763837082176413,-0.030804063283744743
316,0.9139666142616614,1.019750323437111,1.9970356441719934,1.0104179600283736,-1.1598124932248957,-0.024969481942559213
317,2.967053406813293,-0.7880989073890836,1.5251498722973285,-1.9949786529217723,2.3772773470852036,-2.0798743271333655
318,-2.0488935364809295,2.5426313993836933,2.999415538011288,-0.5381484832363026,-0.22270997638164136,0.07791205489975672
319,0.8401008296974761,-1.4049595652726448,-2.553636296711139,1.5507307975027969,0.3216327307048936,-0.4193686592948045
320,-1.5839935002312473,-2.53245055502868,-1.1347058912439794,-0.9494054563550844,-2.916078925301955,2.3329147202055065
321,-2.4476029426958794,0.21047609487323893,2.1811814854948306,-2.136635286735888,0.21578028900504087,-1.468842192083935
322,2.623149574762815,2.5735929890794074,2.952258938204242,-1.693650331044194,-3.071796607985325,-2.0628165794021993
323,-2.9505746796951176,-2.3619347285753105,2.3726436354157183,2.114188242698072,0.6445730955431994,-2.7956795368107463
324,-0.9006175015276079,-1.0589325300156962,-0.22707387730629103,-0.7663336532736049,-1.309012029415832,-2.1915670827563964
325,1.1023158632711123,0.1937966103436226,0.9897510572863935,0.009237869679628474,1.09915406517821,-2.8304815523214555
326,2.391508264810528,1.777381864708862,1.93799305312241,1.5780202710176798,-0.810166022224311,-2.414775709549591
327,2.6043269635330084,-0.4808217207260168,-0.5602141590112346,-1.2487406668108196,0.6459350986535144,2.7000720818874537
328,-1.520983701098678,1.2155157975719364,0.17511273217743906,-0.1434553012723958,2.932452405917658,-0.2734345770815927
329,1.7393816054948008,2.4327590223462794,-3.072396642699156,2.3025963148092234,-2.6996351164311343,2.173584181937339
330,0.15917904739304145,0.5538017732618914,0.6122373925755964,0.10385584854799301,0.24585091696578276,1.6405118573033945
331,0.40598639362784095,-2.04562186470395,-0.7902878410970331,-2.507989625431361,1.3245703802465894,-3.0985060025456064
332,2.5259653241898468,1.2615751729945375,2.2637311368155295,-0.1510839549443328,-0.7277807453265139,1.7513447787793153
333,-1.1546020902580962,2.219017604614405,-0.7677227569223137,2.3023928189757887,-2.647237011788011,0.6292855849180663
334,1.2438536017083806,2.5861664264644944,1.7080639889987834,-2.492694693407798,-2.575596064359667,0.13700132838115886
335,-2.0536961197233383,2.7054110514051803,1.8053837442556873,-0.3826486760703296,-1.461437716274611,-2.7788499236021913
336,2.3475516394627247,-3.1257973898637776,-0.47465066457890304,-0.32111237833416606,-2.0273540885271153,0.5912206393183657
337,2.728387815766519,2.5784954565642986,2.327011432817149,-2.555960332644389,0.5743172045329659,-0.855462562290068
338,-0.5963587547635827,2.870757510656661,1.2334943237367657,2.913115579259113,-0.7800057276415999,-1.2013899623115045
339,0.3298798623351007,0.9553580457027486,-2.3907927262929274,2.0562105403597286,1.8223858786947433,0.9676046782162357
340,0.5994864158077129,2.1733737305367296,0.26476205828382327,0.8278731197105711,0.024321434240599515,2.1088742317279
341,-1.4924381127589912,0.8353715450532375,0.8119527361486307,-0.9816705559526855,2.135063014662185,2.791198458663944
342,-1.2178162218601563,1.4728142967257263,-1.3256891889503992,1.6811960982541532,-1.8043721591563129,-0.7526578531102257
343,-1.682497220985682,1.7890856258592844,-0.7950494510631176,-0.019080280102565794,-0.8912556743182676,-0.09366814126560685
344,-1.9016340764967994,-1.2083626739642628,-1.0526314847545617,-0.48268928982181025,1.5955552441033891,3.0549135720395846
345,1.065530355776029,-1.4989064841160877,-2.4092671801097976,-2.4784496306801893,1.4520070425073808,-0.020656690180598236
346,-2.0698654696748915,1.89872845785617,-1.9457606798533547,-1.1501593219829036,-1.2161483622769313,0.22439531451228945
347,1.473492443685818,-1.5650965643081975,2.7537334507210707,0.5998174079232887,1.9174875641348983,-2.90384207379264
348,0.26004899158440864,-0.5268587441786683,0.9046508797137047,0.8441990272099043,1.9289123979408558,1.1156955024295439
349,-0.27856576951192347,1.7151446457192856,2.5247843046693363,2.9448426564898993,-2.784102739723651,-0.12313058667138588
350,-2.3551713418908493,-2.861285145666541,1.8607618757535533,-0.9103822044809697,0.5429264716482485,0.004892494476178566
351,1.4027180854123724,-0.8143322665166632,-2.1667890648991084,-3.032204519994086,1.0461605434470052,1.7739274521059372
352,1.5063568048841196,1.9113611300988573,2.8865546022981805,1.4055421026959651,0.3625896546761411,-2.577327411658602
353,-0.21739017107954162,-1.0336896498147232,-2.0846975949389,-2.8180871346129597,-0.1547194379938026,-1.011518652822775
354,-0.9328030406159815,2.773542731251938,2.2523894814883816,0.23522609222195978,1.4295528193090155,0.7731366843734531
355,-1.3501099544635267,-2.0065973985566083,2.628879703657355,2.6685274250678352,-0.3942307508558156,-0.0001759646756522848
356,-0.24320982973701089,-0.1518315341899612,-0.9123165834593467,-2.7181076156262933,-0.9381003884146031,0.8607523486356676
357,-0.8282550786938416,-0.4246094329610477,-0.32797870553862296,1.3177519163980085,0.9543509180455718,-0.10411280885817442
358,1.5637796850574386,-2.1022827702748477,-3.120582872020682,2.2694943068177995,1.6923029409642343,-1.512213511647333
359,0.8431203040279533,1.5683394848520251,-2.995866595686782,3.0819068258901314,0.5953319677706155,1.7312093575930882
360,-2.2059271751246095,1.7697352206338568,0.660268939597155,-2.782344775731526,3.1297577562736247,-2.391789147182229
361,-1.0492676546414708,2.461201627416112,-1.9510241133883384,2.02374522601258,2.3627133998373164,0.2115402606161645
362,-1.8580941680818026,1.2723865061226585,0.522732192231242,-1.417771345858748,-2.701063234808161,2.2920200376152504
363,-2.060111315217328,1.8508272500011262,-0.6893947184785114,1.6040123168449183,-0.6535592093657971,-3.125475072797863
364,1.486098260189789,-0.7178167823749613,2.7688907679171972,-0.921577873021763,-1.9177370274696912,-2.9814613016338534
365,-1.8368350738293902,-1.4575719626672574,0.644796389285827,0.6826427590548216,-0.8890700971159053,1.0554902560024866
366,0.9080052852590565,0.42196411076241347,2.342267133942606,-2.771618043351989,3.081579352422012,1.3968529205730693
367,-0.773306715628181,0.7635048257420842,1.6871746164575097,2.5398490851734605,-0.7430858257254855,-1.1910198172826858
368,-1.0748884106240753,2.304043262768923,0.4559091834092017,1.540618263597378,2.2075865209392225,-1.1841817179242098
369,2.581663332018013,2.7043538281145425,2.747009813916515,1.994562826028428,-2.289912992563706,2.537685693099723
370,-2.1285594940519563,-1.8376828040755664,-0.7265898062413991,-0.4185239550333413,-0.8954254242846638,-2.535279875542526
371,0.10590289480272652,-0.4116478513948172,-0.2608291386321495,-1.5650232634270995,-2.117138291082282,-0.98804767532899
372,1.317148762954707,-3.0150494105883032,1.0190320510041255,2.3836819629290957,1.5787119011944402,0.45595865791250967
373,-1.0364705605789335,2.1372807549658814,1.3521942666803373,0.9517660004992532,-0.25688003334209464,-0.3887363403606905
374,0.09252009779162629,-0.8684899176895611,1.0118598926749778,-3.0043727614414086,0.9747444691455156,2.055322670083516
375,-2.848564182513506,1.8115343428881339,0.8182257874836285,2.2070841336530496,-2.6048939956300314,0.8502651579757443
376,1.286154644543581,1.6451999697905455,-1.4637680552310874,1.4875852133934027,2.511955386513973,2.4233426355989787
377,1.389634650639727,-1.5739044492694323,1.633559092877654,2.941588375333745,-2.6306634035455136,2.9907348012898485
378,-0.24228975947364928,0.3626264697268953,2.901698768822814,0.004147784883116401,1.6601936351019964,1.0517252425643315
379,-0.5514386725498759,-2.1690778145059015,1.7251149317660621,1.9456093256765987,-1.5308775871925668,0.24670863733624415
380,1.1604175554537166,-1.6940144828972132,0.3442213507939704,1.8157369879960452,2.1804806511637738,-1.4906770642132057
381,-1.385257924284115,0.27714948258342753,-1.1572814498615074,-0.9483762383285073,2.528428502352443,0.9133205741821318
382,-2.6223789643267685,1.7375640784495197,-2.156299974963273,0.43087676043416634,0.2603209006463336,-2.2266975870196
383,-0.4080730370145078,2.9322689201610936,-0.38635648777426157,-0.05599861108856352,-2.3564805844195624,-2.1741664613634826
384,2.423229209682697,-0.8284380134641616,0.6347319689153847,-0.8754926455571215,0.4739495912958316,0.8924415346559664
385,1.5505555176433985,-0.4880378132299392,-1.2930574092669838,-1.6811299776055522,0.6161203300147862,0.4963891270179559
386,-2.7486359231294877,-3.12962531484619,1.1996698536980865,-1.8927781491393203,-2.859430735070225,2.755690336696982
387,2.4478203356151997,-2.8679001132636426,2.496670136083469,-1.1947184933473167,-0.6012661671817381,-2.7608076170145837
388,-3.1168443990877255,1.5769674336786759,2.560862451162273,-1.2170657582324356,-0.8585070197998812,2.529723254632721
389,-0.11911351389151381,1.4563673262204215,-2.166037945180141,-1.2002649385859812,-2.7703461465721264,0.0031762669664154863
390,-0.4464121724055654,-0.9010107669063632,-2.8538452059902912,2.7617595595165643,-2.569158590387957,0.49861542228734557
391,1.5188161941866634,0.5450732602856485,-0.0218986404000705,0.27071264124474936,0.15238900698300384,-1.4021067187280474
392,-0.07280017367389346,0.07501815594780359,0.6480649848037885,1.009257208839732,3.0663406688101267,-2.0711673424771058
393,-2.2718238080250717,-2.749734713070036,-2.932206512045352,-1.890344769890347,-0.7538838857083414,-2.9915181409712797
394,2.648244846935861,1.588337184583164,0.0929073008204111,2.0202038839794065,-2.1569344146669245,2.7254837870778976
395,0.865708294889747,-0.28489044929583063,-1.2597852291036158,0.2972632234228554,-0.540730330816634,-2.3006765116578105
396,-3.0360097323989783,1.8011807053112605,-0.3023630994202886,1.912490234855512,0.020585617925328314,0.7009336252261917
397,2.1573058775165146,3.0830012177559736,0.8526859514779712,0.45014745975734316,0.38656611015171904,-2.5845774305424642
398,-2.5204452076210675,1.3623908356389451,0.0032521917456125315,0.7226436065820767,-3.1025826946439006,0.024955016182344636
399,-0.965579705209926,-0.4299521472561345,0.4751390733579859,-2.62147475867847,2.043928312935205,-2.949714299118442
400,-0.9639753150640309,1.942851115057426,0.3847875385706936,-1.1744177468468957,2.055770839528998,-0.2869288836284327
401,-0.8999042780963333,2.5859618668447553,0.9957738608358042,-1.1623406098780864,0.014600947860299307,1.5072036388765406
402,-1.5067514517591643,-2.238362447926618,2.630011216191644,-1.1762730455690489,0.19069722707527692,0.0981325234550563
403,2.5622438694178165,1.2160275018861073,-2.978088899794907,0.025830686282528603,-2.4779021668728376,0.2825768058718565
404,1.8833140026783184,-0.36699155786006976,-0.1715598249926602,2.9521134312123616,-0.278860630730386,-1.0092096992135078
405,0.5356730085974974,-1.4329565328205973,1.3115829690309937,-2.8132168615712096,1.2501552844285264,-0.49475746872945026
406,-2.828052209455826,2.5971531240177397,1.9855492023908639,0.6369642026915416,0.502675165838816,2.468296758822966
407,1.0866554560885646,-2.743767380802731,-1.655331224912154,-0.339017362744062,1.0565493378090238,-0.3910838410427555
408,-0.6155867726768753,-2.9531820268003446,1.4518248698661624,0.629366441523159,0.14599788971072503,2.5766304836118934
409,0.8599817583931095,-0.5202328155347771,-2.210411371101078,3.1186045422029958,2.7794080687911755,0.9233659653030513
410,-1.8969114538545842,-2.8017055517866316,1.3309645566052195,-0.5260855662666333,1.449549844217347,-1.7720064857361204
411,-2.471828681323212,2.364040836250548,-2.035165843209195,0.8056849210227028,-1.7267298017219939,2.1757623935834616
412,-2.2366130673262927,-2.42978737889822,1.1717567271379457,-2.2553260532024666,0.7863402343005887,1.1307500945050117
413,-2.255444546554518,1.9240584867012274,-2.7479233367954152,-1.0864142523762008,-0.24844415807318754,-0.9868817104081034
414,1.2292110954991227,1.9854072863920225,2.7115193211366897,1.2232258830878262,2.6505296712905437,-1.2137827007678705
415,-1.693611973058466,0.45103356765371316,-0.22397291211153503,-2.8448910479755627,0.6238148701875019,-2.5177011263248135
416,-0.5666798879357309,-1.5316899511234339,-2.2045383366375653,-0.7040071129147218,-2.7456888782556446,-0.7408625827643887
417,2.612386225318578,0.982691138144955,1.1888290830864738,-0.3093887114959384,-0.8317264020871753,0.9041991332449104
418,2.8019455253193764,2.7276539202541175,2.970227354371131,-2.9689409125797814,-0.25140654536216545,-1.6495407568352967
419,-1.20911647380581,0.23153744971050827,3.0408287769305753,1.6508043148728202,0.6250707926418024,2.293034352310559
420,0.013919708822999866,1.421848881612524,0.21189799846424062,1.5298636296926924,3.074446019963771,-2.973968981691233
421,-3.0808394760456603,0.37207805378111836,0.19948050033611153,-1.6767912357159929,0.5211393518508882,1.9801228539058462
422,1.594671527414591,1.198276478648629,2.426422318455316,0.19522093905084192,-1.0594904846516053,-0.5063397581084788
423,2.1994239170306997,-1.8065014700750128,-0.20532926947742247,-2.9508218293258266,2.974698387159024,0.6138174055994075
424,-2.4104641595012497,-0.6533028985420515,-2.564087320444235,1.350423621362653,-2.9062910643510746,0.6972942315090278
425,3.0989585262079276,1.7322263809352432,-2.4420351650370646,0.5246539568241042,-0.31001983516222476,1.4616313759043882
426,2.7794442645461546,-2.1003380203223307,-3.079539080746815,-0.707163953754387,-1.8926629746993544,-1.4942843903102458
427,-2.627943696504074,-0.1361552919863196,0.6684893900641566,-0.24354772989804196,2.833109801287656,-1.750339890445777
428,3.08088416270619,-1.5788533735274561,-2.295005227013761,0.9946322681978383,0.5404823274608552,-1.9829563005046436
429,1.7504642070466057,-0.793782675416443,2.85844604360798,0.3434007146559792,-1.5166095656970084,1.929567619470479
430,-2.007121438545224,0.2704601330244296,-0.0041384578022776175,2.905331628624257,-0.9552994880425607,2.7556702567306948
431,2.6244487090322526,-0.4820439873713531,0.27682247068915444,-1.7691192084359417,1.8159220345039966,1.1760223857109997
432,-0.08021252179676219,-2.173754457091314,-2.9864034800728683,-0.6423605911999322,-0.9459520343758774,-0.04932092113000408
433,-0.8114883002043842,-1.2411020174371625,0.4122564677773539,2.421378580795535,-1.5809481480381984,2.8226187647282295
434,2.644937188695488,-0.9156624724332212,-1.842183257740695,3.1297458535602187,-2.058443779327394,-2.4489473882585022
435,-1.2043240787454317,-0.7309823266783866,-1.6898287012317037,1.781351759973595,0.6906317217674829,0.5340003916864906
436,0.9379070825135569,1.3192560888037006,-1.2453225079875716,-2.520255108382157,-0.9758810693899251,2.574389034722474
437,1.3315750197208063,1.5117751920218794,2.3764777325214004,-2.7019151446491922,2.518679818874917,0.21550863987011404
438,2.1337502283940157,-1.5559638442413286,-1.9644328147130323,-1.2580807024103626,-2.223787130391662,-0.4078743851941322
439,1.9712205410538175,2.543722737573159,-1.0739381427608623,-0.2218664055630768,-0.7762730944749441,-1.2596166235665809
440,-0.13575932880276964,-1.6333157341207714,-0.9638007842337619,1.5950502106932216,-1.9579777722699088,2.7931360477345484
441,-2.9386052320391505,2.2483301761850676,0.9149225769790306,0.7028388794554421,1.0647700941209104,0.14939974006769186
442,2.164120095381972,-0.8474068680652382,-1.7218802586178965,2.9578534513237793,-1.4872328102426364,-0.8894115523046016
443,1.8395972838552028,-2.709209111746322,-1.1721205922814777,2.8349458954708737,-2.8889701141160704,-2.4752722318280442
444,-2.0813329327543126,-0.509414063678058,2.3177520216766005,-2.8365438431709706,1.767199248959085,1.2631287499277821
445,-1.0151149839631284,0.4574719847207418,-0.2423623055971431,2.760262914819549,-0.5978444915301822,-0.7961119629142055
446,2.073926650751843,2.565430102950433,2.0694077619535722,2.3095429924224984,-0.805403726573934,1.8872765533923967
447,-1.6996269817340812,-2.1196010869272435,-2.889718364682503,-0.9954319530504012,0.6427646038260653,-1.8588495890055485
448,2.4272657570063148,-1.729694626594912,2.614074430683406,2.448026303586028,-2.34766689366716,-0.032180084137835685
449,-0.1489297621829695,1.8918608307594766,-1.9879829794019142,0.5837343208433854,2.4086098598882195,-0.3182577411317391
450,-0.061290703818542625,0.47445334082162116,-1.467945605602745,-2.822704309984727,-0.5465776205587352,1.2008077165224282
451,2.032666488347126,0.6611385217432879,1.887026089595123,1.8830376333028536,0.2504939458310025,1.640300468592935
452,0.818038601067828,3.093690062936134,1.1905076448835228,0.8812035680588828,2.485835712613696,-0.0760873963772637
453,0.05844702061476603,-2.4916494554735213,0.3782160808634547,-2.8653669930964094,0.1475944858945244,-1.2523842785977872
454,3.0100672923902216,-2.9397923623489173,-1.256742855448973,2.2664935815215346,1.4300512813369206,-0.9255511946424018
455,0.5113020678843645,-0.9135422091244085,-1.6819095271339684,1.5103047535935197,-2.7102343057484886,-3.05323472496592
456,-0.5232789485437528,-2.303626146581869,-2.410476258242399,2.788968164433739,0.7101441220425913,-0.08223127072410419
457,-2.0392359474726596,2.3840785794046457,-0.6187738234935605,1.8022506472404363,2.9285555505101444,-2.7545525611329147
458,-1.7616803674789019,1.2270558393847413,-1.6812690583621024,0.8315697351012354,-0.40675588001961227,-2.429173449916517
459,1.5577715891308639,-1.4533655488283053,2.9180129630593816,-0.3367941097080087,-2.8241457627504936,1.070699401141309
460,1.5141743572064827,-2.929448152704141,-2.568218887355967,-1.5437741443919497,1.7808505419000111,2.7521016884592804
461,-0.13410126640326636,-2.348305733132375,1.0467546204182998,-0.585212392445261,-2.8383493105051447,-0.21038579501240395
462,0.8620682516028442,2.087625749475011,-1.5747319900209515,1.910494054937554,-1.0935421176181825,1.2180322054374386
463,-0.27211777975120865,-2.40417078630281,-1.3526910704621269,0.2459537393592952,-1.1201285967508179,0.6091718012388285
464,1.5414133164249861,-2.0140651724301253,-3.084133207263285,2.505503644106427,1.7013375239047903,-3.017679299686878
465,-2.964513248822223,-0.5274131200716421,-0.06400628202425152,0.017381580780249095,-1.9777519442468985,1.9589766731060365
466,2.8814421906413763,-1.0529872201773651,2.3231547084203408,2.0445632929566386,3.0879337197231376,2.3179487774243492
467,-3.052845731904432,0.9635221672238963,1.4343032752666147,0.5311959370217387,-0.4512065659502533,3.1141622036707375
468,-0.32709611702471575,-1.0191254822204345,2.125548799944916,3.0660830639617904,2.9186350259187384,-2.5507876791163495
469,-0.8992515056219745,-2.9038571659879646,2.638112791222719,0.7270554826082054,-1.2982332201398996,2.161259877171285
470,-0.541456676703497,-0.011118494252728262,-1.1395682690004985,-0.9200706460184893,1.6160564332298888,2.6585487696199666
471,-1.3459045606025999,0.8258442681793685,2.305141700112544,1.4401655264066573,1.3540473424531587,0.7397408759252255
472,-2.902429186072418,-2.7467562639982117,-0.14478182080481083,2.8705454547073304,-2.7320529592229645,-1.5121189280860239
473,1.039237418269093,-2.460940908265476,3.0031403139802295,1.5395932854713044,-0.8053906195567149,1.663542690622429
474,-1.1659315369958443,0.8748125865109877,-0.8342000159251177,-1.8529094201120946,0.061099037660466315,-2.0590460811858575
475,-2.0524368915559217,-0.07807543014746798,1.8027104695927871,-3.1161171623787602,-1.1633111229691653,-1.6013620943106193
476,-2.583239338682304,2.1643706441599457,1.4856292041463375,-1.8837144202473628,-1.5559018148865846,1.2756808600057878
477,-0.8083389132990391,1.9947191990781814,-0.9608442511448332,2.996530784708999,-0.7448540773724734,0.7471513074451157
478,-2.8197947220694775,-1.4796988692046849,0.5784688584545656,0.17260260510691028,-0.13343805474571413,-1.5412502711663958
479,-0.3991479424862159,2.2499604961556807,2.7433918079571393,-1.8322027092042248,0.5907440571545761,2.696647055557408
480,2.6958527418253784,1.2589461994159867,-1.8007566761930862,1.0904223628665006,-0.300198495257872,-0.4682210325142311
481,2.458536457718867,1.0771761341454988,2.812546648706137,-2.612154061045595,-0.21732953982902448,-2.609180468420566
482,-1.5716109366543538,-3.0972920064269274,-0.6178074966518188,-1.9128095897522284,1.5276632136730317,-2.8097559443193925
483,1.3708192764070972,2.3728592903426167,0.7407802472237672,0.9740519710107582,-1.8674000812578069,-1.425208158875541
484,2.9935423202917653,-0.4872748051731608,1.1499420235128355,-1.6984445229145086,-1.5447140296644097,-0.09123213492622417
485,-0.9225314204088755,-2.444936486389198,-1.3361364960253805,2.763874486077019,-0.8185566280319745,2.9660607171075233
486,-2.444361912032977,-2.1181851566800343,0.060547318513274107,-1.0715900583426428,-1.6504761017714216,-0.31152025290280916
487,-0.1029201154556918,-1.5082047142504498,-3.083681819162212,-2.300537622481107,-0.4161334081751056,2.601115275010291
488,-0.880254102483573,-1.1671139393483918,-0.8726300972023084,-0.08947834466341975,1.565886334949747,-0.9115448714667549
489,2.0845881258662065,-2.125725288323169,0.08461291578708874,2.0048052747560146,2.9113786239889814,-2.6875688566355436
490,0.44350039128734275,-0.5541659935814618,0.30139765234704186,0.7452658627940836,-2.777797210072054,2.456636167371121
491,2.640616193351895,-2.516176978691533,-3.121554893490402,1.9396731353299606,-0.8501789931293553,-0.7711820346404159
492,1.0171680713400155,0.40949910692861513,-2.466813211009719,-0.8825561192961375,1.897696778708263,0.40839793668925806
493,2.5757809456270753,1.5505317278211121,2.4938658814266352,-2.1310629251077566,2.035732019005736,2.3755935495043765
494,-1.9018139317274976,-1.8668060779850846,-1.5012132578477861,1.4454822921769281,0.7120163487904785,2.9621539871278078
495,1.4601696272518199,-1.4365177840435785,3.1143232274023944,-2.760413840128485,-0.4808176447324861,-1.86232687954538
496,-0.6696956187447891,2.554377694290128,2.65224959538979,2.3408338216955755,2.7203233672451335,2.5125161532632543
497,0.9213195656841329,2.704872489703914,0.20083391673511564,-0.09911259661534721,-3.0341712445138658,-0.22774696720820264
498,1.9515726254996997,2.715715028452566,-2.9445865639379,1.3987484220446937,-1.4518441035265937,1.508719122106288
499,-0.7810351559733508,-2.3773274133305264,1.507481685066165,0.9686774634840303,-1.3455299046110014,1.838593152211013
500,-2.7272094224197265,-2.7848746933595483,-2.156782148933954,0.9971988076868321,0.1074270651824012,0.42133900252118295
501,-2.371660567932725,-2.8884269118530366,0.6328275505812115,-2.5690378903825346,0.3091507760740453,2.4535745237529323
502,-0.4446620642164798,-2.0914467984938874,0.9325228244038408,-2.152505421900594,2.461088841365142,-1.5443934589382056
503,2.3467543225552427,2.374471826450571,-0.7397626413070126,2.8866425027146656,1.3805636314886822,1.6818261769573457
504,1.8293830030641303,0.9468731418917926,-2.081188250346975,-0.107406722207112,-0.37568403553960383,-3.0437506526397318
505,1.5685960511878996,-0.879714423298116,1.6147112902956806,1.9498169696491425,2.1903164157142037,-2.829801406637665
506,1.8762307239232898,1.997750322032772,3.0566697331258403,2.5465885081461215,0.3803421572058765,-2.1345374398797556
507,-1.6904675058621688,-0.14465908346892054,0.3671932992323699,-3.0452323196851045,2.508180415813051,-0.9455020077895346
508,-1.6733810651109258,2.942419628723939,-0.41149664507323713,1.0607502912388638,0.5217042700672745,-2.36166993485502
509,-1.9479766266048801,-1.8337820450970985,-2.8489989893513896,1.4740127146479471,-0.4554768164832592,1.4162943284634437
510,-0.5196490345975704,0.2782423457912664,-0.9891782397930027,-1.271051965404244,-1.0690864403136535,1.762873554060696
511,-2.48879709196217,-1.6528304644063576,1.7506024595657816,-3.1103220964719025,0.12778529124548665,2.5794130678591562
512,1.8946466612674655,-2.5979964431452323,1.295318011337316,-0.8620245787535143,-1.759882512875827,1.7726373598887353
513,-1.3783903255093999,0.3230296771109953,-0.9599161051527627,0.7850231587597691,-1.200918661493333,2.130309773993674
514,2.5147686652495045,-1.7623232719132058,0.8614925751641547,-2.4422395023584045,1.9232295826760026,1.1188614237921888
515,2.4199839590680288,2.7965107504763465,-2.8161515401752975,2.710413391127479,1.3762293051943457,1.34041347504232
516,2.655091628022359,1.4602341167788175,1.041125121627661,0.33854451543206965,-1.7468505040379243,-2.994686869834236
517,-0.44672690003624416,-2.973272814130829,1.5037141076393281,-1.6531087806421187,-0.5531955635889285,-1.5347092808758271
518,-0.8481442531412489,1.537821753625071,-0.8873816942721309,-0.9881143371458254,0.13960376447754097,2.492938230978285
519,-2.4907172719712025,-1.849129506112273,2.9377305788063977,-1.3533189148128535,0.5761417360132239,0.09152692310359223
520,-0.7721789945273758,1.1443072653055326,-2.3070564508609848,-1.1791758398813714,-0.7262167829525743,0.1327571121068889
521,-2.7782261755104156,-0.4857901109626641,-2.237266492847872,-0.0994771159327037,-2.496790605711331,-1.3397722659381128
522,1.854984458110919,-0.7465644550802581,-0.8065888609704155,2.467775686989328,1.143770219597683,0.556866696868922
523,1.9425095600353721,0.6500790152618303,2.3169531618936237,-2.3833916437007945,0.05344933867463242,-1.294064290630778
524,0.6146195131439414,-1.552438618036978,2.8351428409476673,-2.5133246702574903,2.421751334950728,1.9784530700764815
525,-1.3511579353822099,0.25287795127489243,0.08757859883294516,-2.8001191541143324,0.5410975173549057,3.075313216604811
526,-0.8473243295091932,1.8352315733006668,1.46615984052531,1.1872567908256721,-0.9376341986716148,-2.012909955308303
527,-0.17297462300462518,0.8079783848256756,3.085133151976221,-2.550080559430215,2.243136034429342,-0.48320647040728826
528,-3.0982117106747844,0.026516765082949423,2.8100549493149867,-0.574667329273383,-1.0002890557284512,-0.2706177470017401
529,1.44075496867229,-0.21243651014819642,1.526025857665526,-1.7260624098588935,2.124080679515729,2.502118872403506
530,-0.4986217000578068,-2.2015327050367546,0.9091402155164268,-2.787603846703615,1.1596132605105494,0.461218033599486
531,-0.6122745075472746,-2.76013831087166,1.672896478582608,2.727078178750576,-1.3498571053869832,1.597235710506717
532,0.8230377867184075,-1.2641373304896029,0.02211452738701558,-2.754945572820714,2.7378866983107235,0.5559287898815697
533,0.9890919229450938,1.1030021957413298,-0.9067373457521866,2.6758964543833574,1.4268776389724493,-1.0113760933487028
534,-2.272295378418624,1.6511395908458653,-1.9484160906130057,0.7929199500857567,0.5104872416041464,1.5469003954466185
535,-1.4665412323935283,2.533857858799486,-1.4239958791486105,0.3767099235126552,-2.4978436225099006,-1.8792907086076989
536,0.4701683496902844,-0.09063617847432015,1.7302197178420693,-0.26085337678735776,-0.16563913676993058,-2.7621049270048568
537,3.0261656325852986,-1.0901322467473813,2.981291800980914,1.551017555691259,-0.7656036363666683,-1.1297732611524158
538,2.81833194756965,1.396074975355285,-2.0529861641578373,0.7735268769725563,1.4559028492493526,2.866418872074969
539,-1.1797865128646392,-1.1070224532290585,-1.3403688848236845,-0.591994183185526,-0.390194313860615,-2.8330522653667036
540,-0.899134040169836,1.3399939712729978,-2.2157399662615074,2.3067305678157526,-0.4766364718694782,2.3115859174162248
541,1.3978389969396128,-1.1646925762801488,0.7701814968418321,-1.777040553042801,-0.42984042261338207,0.2644061259786743
542,3.017153341063202,-1.980730060926418,0.6654348039334996,1.8271481387399628,-0.2259848657965442,3.0927337432323805
543,2.213843329666461,-0.29697946621108073,-2.6178066100956165,2.9145461613957098,1.4811574598046748,0.9880674644846961
544,0.34751383046568796,0.46804556434038513,-0.6043500948273102,3.032505191456739,0.6038446417975827,1.9795058552135831
545,2.906430335882157,-2.4595229489352257,-1.134241818101592,-1.417056882567476,0.11411078351398718,1.8853877937648633
546,2.5170239355768658,-1.8231453260762793,2.8304982315152563,2.359930350162017,-2.3620499959274333,0.7483677508136575
547,3.128567664388214,2.0093841342790304,-1.456127604803595,-1.0824841590908245,-0.19870398601580996,1.8930535759838572
548,1.175591653147177,-1.2504371436811041,0.9399116251634974,1.424161581279539,1.8979754708605459,-2.2941094374766373
549,0.8973857824988896,0.6651383520179412,1.7657475027643654,-2.2107792034745626,-1.0359905855211773,-0.9122255547465259
550,-1.378090859006989,-1.6425194111165111,-1.9247303383661667,1.3156027546247362,0.4580158549536195,-2.693088541439189
551,1.4011120294416441,0.5450747457495626,1.8403226123305565,-2.5946917725083263,0.2672961203069155,-2.266233650007669
552,0.6238121756770161,-1.593216279714041,0.13092109856688028,-0.16439274230931744,-2.9438990598565957,-0.9059109877409219
553,0.5143910412924448,-0.30574030732918533,-2.444975036732028,0.8484257821584555,0.6523063118149506,-0.5378474855807145
554,-1.2640652890515418,-1.4273683518388853,-0.8003936326067986,2.775423854506567,-1.894597739097607,-0.12806755075829512
555,-1.0105036876451718,-0.22706180553423572,-1.4587853481751338,1.5456216077925733,1.0901698219710614,-2.435113141181403
556,-0.12025346543950688,2.2217468644123777,1.593340465145964,2.1395466052774,2.260304432274461,-2.124798292024394
557,-2.390571501962302,1.3269693334558381,-0.6839090393553242,-2.360884091432552,-1.6738322527268619,1.6535429174328753
558,2.3396471164805277,-2.588480019293545,-1.2093329631580783,-2.377075057663384,1.465355909146587,-1.0014969418937385
559,0.6154057596557014,2.5878761691029153,-2.449849941317675,2.2990516866331676,-2.6661206206915615,1.5856980544987866
560,1.9006919766641337,-0.9255321553452447,-3.06500908358606,0.9239341061833741,-1.3016332349800497,1.2612589279808306
561,1.7382384824532942,2.820185144961467,2.268637676175322,2.8100245988816797,1.3706497745343222,2.1334707892416844
562,-2.4241440951714215,-0.3848259849524118,-2.4083116658900403,1.9463377251637164,-0.6019660975234582,0.22125368368510845
563,2.706010116017718,3.0670032816671444,-2.0096421017033577,2.5678612175255138,1.8177721761822436,2.328889200566044
564,0.08281198848788263,-0.460453196625048,1.8786622781333389,1.2295664634621204,1.9331432343728032,-0.7307236364793872
565,-0.8366681302710264,-2.572254406695075,1.228984060740796,1.637642178754077,2.5134231195631314,2.401965608913816
566,-0.29901964858291574,1.4445546998813166,-0.6462981549135569,-2.403963990935499,1.2278372879561532,-1.9584135380074366
567,2.620699646273005,-2.94935657332429,1.9867902590441684,1.7581398781097084,-1.8843891485553406,1.1563948437157068
568,-2.7727551347491954,2.711709656123971,-1.1784832607688112,0.3613734617602704,-0.3913304934055213,-2.924056130517294
569,0.004212588592549249,-1.6710980814804073,0.7506907685320665,-0.7930001820137975,-2.364389203542242,1.3031567415370757
570,-1.4068845584369059,-3.091807432614054,-2.1290138096105533,-2.0873301145421483,-1.7462722082113684,0.7499863907086901
571,-0.317227184632225,0.9581726620122346,-2.5599410349309073,-1.584045462974666,3.0019511943767387,-1.4548604881419713
572,0.3148755508288019,-1.7013444463939311,2.9349807143558966,-2.7576472362352042,1.4157686251895498,2.49965522638068
573,2.17846770244536,-0.4092734514948342,3.0494484981383136,0.409535264658202,1.155985959749196,1.4396915644187658
574,1.2620188904554244,0.009130396047669187,-1.1047354614766758,-1.8997321469637618,-0.2794373504884007,0.5357096849204872
575,0.8989898129887246,-1.775101586019649,1.582634660289683,2.911289171726712,2.914548912464454,2.37056701578559
576,2.124853600256756,-0.9168492908355366,0.6314490343466752,-1.1651053403095484,-1.9730914295581203,1.288658958929389
577,0.8695711329982379,0.0559877106403559,2.1223597564874996,0.48018512190819607,0.191415535308205,0.7233339203843814
578,-2.1424243771943505,-3.1082666265745806,-2.7948933302745442,0.6465877419959738,1.0478752699779958,-2.1702907189623195
579,2.3015721236778726,-0.5027605170751981,1.6258620314541385,-2.7426051407810217,2.2012740993795052,-0.14713644365663558
580,-2.5060990729634858,2.143498748272415,-2.9136086953261824,2.4430104136432433,0.20405278459393683,0.1697079316934853
581,2.090431922873634,-2.230815101207882,-2.9789165210642543,2.4389542683378442,2.292235468697463,2.87152973518981
582,-2.407028403347439,-2.516901532042886,-1.9060411765017835,-1.0778661773629135,-1.778646938456621,-2.559400980068829
583,-3.0045613836613803,-1.8205402382603229,1.6522540062299091,-2.3285349160876336,-0.5231844730276021,-0.8068670015581967
584,-0.3000475752866065,-0.8688752338952064,0.5109650563790171,0.3802579535448638,0.8763429849524496,-2.182134389049315
585,0.049917949036031306,2.246539156201277,1.6490032446385605,1.1759702249143187,-2.44402246191211,-0.8051625659006914
586,-3.056389002225773,-2.629767165971421,2.6004975612030776,-0.5232871498469249,2.897558929883436,2.0377825224560047
587,-2.3356059207958553,1.0839039531178853,-0.10679413741612542,-1.2965361662237638,-2.0221899592227244,2.4369629598817326
588,2.4347086446323667,1.9801935026863804,-1.782224187634711,1.4595457682515605,2.8806646657264423,1.7427049963611037
589,-2.5340682276192976,2.5922752141410843,-1.5736749603099216,2.4868617171908607,1.2811521980157314,-1.8817449593464013
590,-0.6883700289266526,-0.30129770237461173,-0.5427745454418669,-0.5653514616243651,0.3539055359879235,-2.2113921455796897
591,-3.0574462281033292,-0.023921944299533315,1.7465685025445996,2.940749540787132,-3.05718608987852,2.9817267184170895
592,1.436333646461665,-2.9915180353280566,-2.5769782452326853,-1.6259948035127518,-0.7276371850407677,0.7151676443581545
593,-1.7531152005486133,0.9440945481568681,0.052278894655410024,-2.687324164627195,-1.0285931460833804,2.321237257292136
594,2.7592066084586433,-0.03154689073890227,-3.039325381977266,-2.0416041622409535,-0.6163843480289306,0.407286502165531
595,-0.6509600750271369,2.390028492574526,-2.2348487108588713,1.8322652672480109,2.741992274217946,-1.236220584254029
596,2.1364524112178316,2.7197777041865203,-2.276661435295746,-2.171069728863659,2.386070188922112,0.3438248879388528
597,-2.5683385065940882,-0.8315606331790413,-2.5101880781082193,-2.5484625343050045,1.0112217331940299,0.17999319496789035
598,2.9338847266316863,0.1186215353087996,-0.03329282705949632,0.4954166446704096,2.725782694478852,-2.4865805131341325
599,-2.9805923760360327,1.3172919129493792,0.7528248020964026,0.9606621680061487,2.718716201192933,-1.8024145627432666
600,-1.3630055369969851,-0.5414217199209657,0.6752755161577988,-2.7986017986196168,2.1837009198892847,-2.915378456948132
601,-1.2263842426475142,0.06581235114966688,2.979358603723486,2.8445391951424384,-0.9898747394696374,-2.904062396937395
602,-0.6569344449903447,-1.1416478669946053,2.3274570530055714,-0.26413977070865124,-1.0674143136159757,2.7900865139771076
603,0.9891667344343418,-0.9637916460999767,0.9957074783621529,0.5102717032261599,2.0123831548802924,-2.4471053815979986
604,-1.5968250251946385,-0.1586813430761791,-0.3666220787107859,2.080452618155194,0.9685936356141118,-1.516854605691486
605,-1.7510963293270345,1.160371649052058,0.13555612538408335,-2.846980306136418,-1.3274955206269046,0.04064871666399483
606,1.6986800825336923,-1.3213075544624773,-0.014638727040970245,-0.34461353225302327,3.0327305506224107,0.868425804583822
607,0.1596863113392133,0.1284801128533588,0.5326969929723329,-2.0218348380025226,-1.2258840819880052,1.3688730354209087
608,-1.352918668312291,1.6576804156975529,-1.2816488988052879,1.4089696721254041,1.0073498754003882,-0.36121579427608186
609,-0.4797634295515376,-1.7733752431662382,0.9183654889949704,-0.8269156950468295,-0.05778192813429017,-2.9367820442342816
610,-2.1039206401984942,3.103600658057446,0.7599801694918313,0.8154588984868707,-1.7344272280659125,0.02908417328470181
611,-1.3492002491534372,0.6072200023791923,-2.098846624960781,-2.444022369779779,-2.539731365567776,2.946161264848814
612,-2.4641824354257036,1.2406275354033518,2.399719552725612,2.871520248483372,1.4679536730257148,0.35415770275780467
613,2.7945792591300584,-1.1354334907774395,1.1495186392908314,-2.141921390421939,-1.505361942769295,3.0978252115422604
614,2.3892023510428535,0.5776016962102899,-1.9769356096537505,-0.04444163197519657,0.7114788943404173,-1.1002290039394507
615,0.9824325863837773,-1.829016392188803,0.06673382956366902,-0.2568901365704166,1.056062726717176,-2.375104879105521
616,-1.0103779240170647,-0.11145005147783449,-1.2375393254807099,2.9830748780133574,0.9655179105446274,-0.11248197237185709
617,0.16472843440664775,-0.839297892103072,-2.5346386112383428,2.8105524592066216,-2.163782399303156,1.026326862764674
618,-0.2899528746191673,-1.4775824119422136,1.6549188539403659,0.7352597627837736,0.4648453692732568,0.08249421443844973
619,1.3384082343239472,2.9055707942659152,1.2685101896741129,-0.9638942827402688,-2.285214700173497,0.6221542998102341
620,1.3116529867753464,-2.9634978375108463,-0.9570946195162664,0.489707401006064,0.0659948511804549,1.0968406540980231
621,0.6843510657765224,-1.74401409764701,0.10969078014823985,-2.7175135016406466,-2.697881561440262,1.4839568719253817
622,-1.559455449320663,-2.8278707636427827,0.6157270754071549,-0.5548304348611084,-1.5702812431182358,-2.016860998920098
623,-1.1040815399340103,0.925600966280526,-2.5683909905693776,-2.602429648979873,-2.457614268206806,-1.6240960723270934
624,2.157953051787519,-2.0175204653630257,1.8879853811170717,0.08826993673421235,-0.5684055552470832,-1.0689754573834858
625,3.1289135846720617,-1.9915745264089368,-2.8790461294511784,-0.6226152000138812,-1.5027126583032573,1.643659488546164
626,-0.9892692886917054,-0.9525447494353458,2.008287302903949,-1.7916754174016893,0.6681053152108003,-2.6884783859840953
627,-2.3371469804805747,-0.6665568837836542,-1.3151432368441762,-1.373910919134586,2.1092324915482594,0.07591816334348733
628,-1.291027549207613,-1.97355504575514,1.0606073622816146,0.122735733706818,2.387512155027479,2.007134174706577
629,2.32572622801987,-0.850476172978976,2.3863271679132287,-0.28351565171649495,-0.5061108291709489,-1.7947843033435575
630,1.1083469985487273,-1.0808720725470735,1.8028927799790084,2.481213962735384,-1.7726124026760643,-1.640263531036289
631,2.6961321185040097,-1.2994811916064932,2.491277452188794,-1.3462736269490734,-0.8366927291076447,-0.9209966156067977
632,0.3403273178290642,1.0101650625485625,-2.0551426878132917,0.29631073651956896,2.7494334909115397,1.2615021059864349
633,1.4759259428650608,0.8019673123469473,-0.1325565004450282,2.8146073082863765,0.7238915338544336,2.048904265272226
634,0.340622683074681,0.10237666573225335,1.7429930297554614,-2.732292831096245,2.048136448442972,-1.9384038427420736
635,-2.9300737210206775,-3.0884627075530062,-0.5833804715432431,-0.5413440934779614,-2.422563706148204,-2.374526628512123
636,-0.909759643434755,1.193282032244384,-2.452023917449173,0.7412616455209275,-1.4198456198426919,1.955715709144803
637,-1.879051198605022,1.2295952875986993,-1.2846798482891848,-1.5553921599641858,0.023726399208047866,-2.7725934921098307
638,0.2718493335922849,1.712392796295335,-0.7740096750199172,0.4334655204642872,2.5693610475889015,-1.046501261533828
639,0.4590593121319464,-0.31138583934293784,-2.2050084141832036,-1.1164165594549407,-1.1555091350838385,0.03680352181849589
640,-1.0303939688477755,0.7868122423339314,2.5384359254666187,0.19283321147207344,-2.741748749619816,-2.2020692525586743
641,0.08015102064076363,-2.206258939213019,0.8243592927128507,3.0643154663807843,-0.49671226652027967,-2.527200679242993
642,1.2102105871711464,1.8716930364272368,-1.64259487319848,0.6469010373768191,2.906242291139569,1.4485195159799238
643,-2.861114980170223,2.2238358224015826,0.9546154777277884,1.2406376735629427,-0.36369081787650615,-0.5148727017762651
644,-1.042220304672984,-2.245518711164997,-3.0926627303303107,-1.0219149254772582,-2.83843314817655,2.664472673872047
645,2.9554974266844756,-1.9804330460261965,-1.927650742864231,-1.2705768673909865,0.6839774634887914,-1.1217382652535095
646,-1.733082719582802,0.7425886475800638,-2.0738355261061097,-3.021292477037578,-2.5588787557119925,0.7576007704657588
647,-0.884137793335602,-2.853825896050652,-0.9027948099794334,-0.22918053154174567,2.682791010710872,-1.2078523308635176
648,2.9968347919979648,2.922390987356178,0.44516618227290605,-1.982735389469399,-0.06561727957559738,1.0486667330685568
649,2.2941012975853123,-0.6613706046700765,0.24983534089513482,-2.2254982151009566,0.23679087179529112,-2.608723583480281
650,-0.5236425304110419,-1.2752073539191937,-2.8450766340423748,-0.8211017099702489,-2.7220558103237864,0.3800242335554631
651,0.7618556352858654,-2.4337267495013464,-0.2820420231833265,2.861255194755657,-2.359377758867195,1.3764325678819036
652,-2.842069320303287,0.0518681071087701,1.4946443821280369,3.0985700797222995,2.0521002834724165,-2.609321598380117
653,-0.971458401477606,2.0825764392374175,2.688804865737265,1.0400783256931199,-2.3364874753318383,-0.5855674828249997
654,0.8093252279178973,-0.43790527615045116,1.3666171956433875,2.7972553998620686,-2.064181732958769,2.547791593012577
655,-2.4960885574936564,1.1850411266488017,2.9728512693992215,-2.1855338831605695,-2.0519545606851084,0.15983566386344972
656,-2.4018196886587524,1.3472477974300956,2.0119132096899968,0.7009425655381172,0.372414343542145,-0.19860371459927606
657,-2.261901308341203,2.192221902567593,0.8832709617928245,3.0085997588802593,-0.5629984695839543,-2.2011963975377777
658,0.7016987427523285,1.5735223351326901,-0.42083632949484384,-3.0768500497696536,-1.321202227308879,1.8021509450642101
659,-1.8935640072642452,-3.075467172041555,-0.21877737626010285,1.8487444034050622,2.0496463463555585,2.1650490425443865
660,-0.9691633136788784,-2.422095740247693,-1.6565102282050765,2.418497664071526,2.5786203751218233,2.6190020329073125
661,1.2894990476000636,0.2134856935609477,-1.2912052684390405,1.6229336062612507,1.0724675295019992,-2.065344656721778
662,2.9257886162254234,-1.538194095351281,1.7920178132336044,2.913316320222755,-1.4515076806029292,-0.3923036494561907
663,1.7077542382789783,1.0907381632644793,-0.30954285267478054,2.4945756426643646,2.322516356641424,1.343408870855173
664,-0.6489391657149555,-1.8103627511643172,-0.6734141218628089,-2.7423771221240565,-0.6776932970779987,1.2365323471369933
665,2.594658860642207,2.1222735166267146,-1.9830878405842671,-0.5101018958101897,-2.287067297854662,2.691174440522736
666,-2.734980032280178,-3.0616167601526763,-1.4294187076153702,1.9681393673321859,-2.9481288279420994,3.091165959500252
667,-0.05175292751192728,-0.6618886168081928,1.1527233867966915,-1.6311621681529636,0.9257921552924229,-1.3369424257060367
668,2.8233393207199047,1.1158792458873599,-0.49511454426386736,-1.5744029573192921,-2.1807939634707507,2.656801714596715
669,-1.001116519983999,-1.7016759292495869,2.4199179280256686,-0.7720362563361105,1.2809487150537997,-0.4048962077985445
670,-2.987394026857244,2.1619550530598657,-2.756495571644429,-1.2416448237242168,-2.824766395416926,2.3394656486736736
671,0.056624872740477894,-2.1060083282358795,2.7863260245502826,0.18042773650928323,0.7414553745298913,0.9589888485470848
672,-1.9060018538237928,-0.544028090112989,1.0148995506376748,-1.1743616347094166,-1.036943854526653,-2.510739056434788
673,-3.032669053692916,-3.101402721972319,-1.931935256948125,1.939997990557762,-0.5686166242444566,-0.6299964359065608
674,-2.9437937897366218,-1.6227064471762203,-0.3388607697630497,-2.974210356158366,-1.310014336871061,-2.068254974289548
675,2.517037331177856,0.8544798009023857,-1.7778317017902399,0.22283360858152967,-1.0871127590805503,-2.139783323380048
676,0.9564083293312242,2.4956277857250075,-0.5035151760590715,-2.239457141381215,0.006420724301249514,-1.6529505168256444
677,-2.1798617860689244,-2.6705828797906244,-1.1823482173687097,0.5603555462149954,-1.2682874302390204,-0.6290719837883145
678,-0.3334174973887558,0.5807651022260085,0.6708168304423183,-0.9471298720383401,-1.6878103699536977,-2.9702571475231765
679,-2.7581739613304306,-2.2459375133469632,-1.9032204511174597,0.16660971372335176,2.1477918522816912,1.6360281189479187
680,1.0923972677413207,-2.497406422437731,1.5079570042888193,2.6425764820245554,1.660806854603579,-2.381353371143244
681,2.3396592043364883,-0.6921213643294672,0.20789511099691227,0.25704117521075664,1.0136889191520098,-1.4911634007203416
682,-0.6831966699744738,0.31712417160389217,-1.819529896150036,-0.47832157539268216,0.48842411162588295,2.6029464679131395
683,-1.6177172003323412,2.4017484357316947,2.3282157384274784,-0.2912062437063496,-2.955256268557637,2.2834241389208128
684,-0.9201064323392156,-3.136157211410706,-1.0164150495683741,-1.166983171537319,1.5871213859394402,-0.07066556361713117
685,1.3152310734015433,-0.18182817624112557,-1.6307876234619758,-2.5744188843659543,1.4843770925201438,1.7150998059331837
686,-0.9894036175610093,1.1454824670308623,-1.4506110699044854,-2.5214758431335005,-2.1515184509973473,0.05216650492112995
687,-2.3619477953292423,-1.0187071830197758,0.534100607232598,-2.8963937235616624,-0.9066941505030273,3.0433270159698944
688,-0.2213440437928158,1.4190118184973288,2.555778668082742,-2.330427407194963,3.0872771404292454,2.9976177277904146
689,0.7918636742679261,-2.299552756542676,-0.2687663314473503,1.011861719380196,0.6182229344808223,-2.8048721530754026
690,2.790804813862689,0.6126701810354227,-0.6504213970439126,-1.280134853965842,2.3753510331345185,0.42441026003092475
691,1.9293617263913205,0.07733222997445521,1.1449046505174074,2.9260699644929344,-2.8687314959004517,0.5217355075647152
692,1.5132505910647538,1.5408339583435362,2.1892813481343083,0.31206092040138467,-2.5414149528680845,1.8960486534865302
693,-0.9883814393334753,-0.739835855168804,0.08294265011450541,2.786214965787277,-0.7280749538227402,-1.313590307702566
694,2.5595230074080515,0.13011981582330012,-0.010484800654383175,2.53305700991268,2.636897457627975,0.2914903905348867
695,1.5262825074005795,2.435368427671766,-0.3622916365155411,-2.885904081736441,-3.040253487216727,0.5446153871250816
696,2.3051090172393494,-2.0413647566844526,0.8128095657762184,-1.9803379218580262,-0.12428550304848107,2.0862183104758394
697,-2.585677535463079,-1.5157541394594611,-0.8448975164546217,2.269842853531216,1.6694828939899704,-0.768692881495205
698,-0.5966421986590564,-2.3704229622073925,0.8331272251452,2.022338111660061,1.1378701286482338,-0.9654689369460194
699,-1.6958922421962754,2.878728372885562,-1.0198197350891238,1.5538434795521994,0.2012096352487731,-2.9922465250494925
700,2.928340720269645,-2.893495836788752,2.3787541476778857,-3.0275458589203588,2.4641914152755016,-0.2896658822921898
701,0.5289735374992954,-2.7105770845652697,-1.1034780873744316,-0.7808397441930883,0.1948705015478831,-2.078857450426322
702,-0.6357749747067096,2.4363212481241856,2.38731359176811,1.9300822701637168,-1.2803240134577754,0.5321028197545257
703,-2.724107956749891,-1.146028197076366,-1.375073439884041,1.7969293956196601,2.7259704489479013,-0.9880000258003272
704,-1.9120060061145379,-1.9972853080063557,1.893177876314052,1.4137302622380883,-1.5772212143045312,1.6474789951838806
705,-1.9468838771011163,-1.0072386109713043,2.677515540529332,0.3009736250364292,-1.09535198605297,-0.9076858146858728
706,-0.4554604158075697,-1.751829508765738,-3.1205199005947937,2.20191847861909,0.3652651571140373,-0.29088379441124745
707,0.8587447894577585,3.134954066645082,1.1717353102979313,-1.5193763845033363,2.1632823106820576,1.0835772397135095
708,-1.1891452857786993,-0.9477765901734965,-1.5590751999315144,-0.07179168896912858,1.024430639195602,0.4535146680022275
709,-0.5819691368644504,2.047529340137797,-1.1722984329783903,1.6911740396748245,0.5612203464785259,-2.3534264613703186
710,-2.9727737360616997,-1.6679724470009232,0.38179331735461064,2.137774356072531,1.9990833405396637,-2.6113188183783573
711,2.2442439102831395,-2.5078503112853525,0.9868892994615992,1.4407508374609241,2.8729945983190808,2.088213236821499
712,-0.46878863892783684,-1.8790826971305639,-1.6147720769866325,1.5841124964931934,-2.5215199504337162,1.5348004115601128
713,1.5362125765754158,-0.2073559588250493,1.7790345367656162,2.917796061706553,2.699564317736492,0.43386970812774406
714,-0.24852580504184507,1.9503034220569875,-2.7317122819480075,0.48661968006492495,2.489885357802163,1.4936433803338902
715,-0.7975085428786839,1.5075517210469078,0.8494275987228437,-2.0741207264835295,-1.1942766992475333,-1.9954983878004333
716,2.6484511353992923,2.902096236615799,-2.1768850729063365,0.15311286716533967,-2.1877740825656513,2.7571838574002134
717,0.28000788892795514,-1.8650485664193481,1.523193577225709,0.6400764215181156,-1.7832730594130202,0.333460976909457
718,0.5315496203371488,1.226151006956294,-1.484569277393528,0.040090431011611916,1.5233104256640573,0.6361064913793064
719,-2.8337889291820693,2.195787236040733,0.8339500292248152,1.3109996147089635,2.0520916240334532,2.819829367922364
720,2.5971517426281023,-2.246780392932036,2.8575604365568434,-1.5596143901062816,2.749960139303914,1.937504858988933
721,-2.618301122936627,-2.8236054491707367,-1.931081285589424,-0.6190106884996869,-3.084982872879815,2.0962756151119635
722,-3.0567973800837307,-0.18011040579065352,0.7941469499300577,-0.2133577608508861,-0.6435615974500868,1.6353699539997297
723,2.5712941339428896,0.6647113307687396,-0.4104117422409357,0.9861656396489593,-0.30025275369046556,1.1875937431986117
724,2.274101549199642,0.5834316648071836,0.24995131237057677,2.7958233153315915,-2.961570786244697,2.6734683859268333
725,-0.897262699662051,2.557195399901964,-0.8016162069714778,0.7672712763334695,0.8208271125452118,-2.5745904227323244
726,1.6699843147976594,-1.8966210117464013,-2.7226577614556637,-2.533429441369541,0.11488174530142814,-2.0596276137541203
727,0.21863076702834228,0.38294196777744194,-0.9063139529328441,-3.0696917028990773,0.322877383274748,-2.246700809214481
728,-0.9445873916452969,0.4781170916167725,-0.12959345432630087,1.2330111935605501,2.2229563400375794,2.358170065906192
729,-2.813160725385463,-2.8703032879459425,2.5382580605601,0.007305468740686827,-1.7130500050979134,0.3081121173932697
730,1.2201668633317162,1.8091717930322728,-1.6902691936132146,-0.348704742227365,0.6845016177947967,-2.8445373110096805
731,-1.118555514627928,-0.4427200403475995,-1.52987020629198,1.689307141353181,1.6422045385188637,0.9097515486904628
732,-1.0864570928489443,2.4937619401212068,1.8847000194944892,-2.1483827494404713,1.27270789426494,-2.5896915239768212
733,-1.2266893377699748,-2.5978235813911863,-0.23176910201645073,1.0072019744264704,-0.9987641445751985,-0.2561984776722088
734,2.851422502210635,-1.443336760577212,-2.212501572801296,-1.0086838411242032,2.7511999897229122,-2.8550717972855457
735,3.0508082048689724,-0.04165045213944385,-2.0807383978899447,-2.7258994125323723,2.2363436781726094,3.0991729548386875
736,-0.7857964021894293,-0.2481746434513914,1.8156738604929599,-1.5659565409289309,2.950739508978999,1.2062384545635467
737,-1.1869668009578311,-3.027145087227766,-1.8370322699495454,1.862073121189633,-1.1173739020762512,2.372188469318198
738,1.2342280434740251,-2.7482819340114903,-2.9542241391030912,1.953918320352943,2.35757545800831,2.0434749358479216
739,-1.6273623588163482,-0.876860610441839,-1.875107920835347,-0.5602369490367693,-2.72556093513535,-1.5156394318832005
740,-2.453845267036194,-0.28117820831336093,-0.10925407077405014,-2.668364680009391,0.22961565644638737,-3.0628650891449225
741,2.4870254154438998,1.1395609963335147,3.0274581683168273,1.7779057314588433,-1.8778359265778657,-2.45004401210098
742,2.3346588211727797,-0.03385982576665425,1.8271816844346382,1.2238360293028556,2.639281249513828,1.0264399205345027
743,-1.4688744577647772,-1.1722674374569313,-2.4840037778472084,1.9650554099875368,2.444516318618244,-1.8736365730535998
744,-1.3933174044410699,2.7113943475140374,2.927075991228831,0.3567924553405035,2.368310557847022,2.0143190957853303
745,2.3044648293926224,1.59437497987434,-2.419049438150518,1.7879818909940361,3.0071649396298774,-0.6611778482923478
746,2.5212813585937948,-1.0151541926949137,3.055078040209607,-1.3736734042613097,2.768224754410377,2.1691393268031423
747,-0.19800588341408787,1.4806545880544384,-0.24632489973790905,0.3520725745930533,-0.4021688421664624,-2.196132750075121
748,-2.6594738346247895,1.9056476140503893,1.1871170882767261,1.6321458691091335,2.3818216799028864,-2.794600779921036
749,2.402122244428101,2.1945864850987222,2.6283427304543476,1.7759897076360716,0.41640194546122755,-3.081979680407036
750,2.608223026567715,1.0107688721645118,-1.8366840275618501,-2.669250283973902,-1.618576178202908,-1.731800468690684
751,1.7006017924650694,-1.5988827862879704,1.759894802413755,1.575836658784075,-2.375060175587552,-0.33941185365017956
752,1.9804675414513664,0.6935327725373348,0.6531569777939001,1.3173326664873422,-0.7644879608664357,1.8873732915715458
753,2.504868001709557,-1.9660010736909463,-0.1564200761720964,1.9234617191420282,-1.429339873342802,1.1317954319746573
754,-0.6909034303606547,-3.077095440561108,1.7603035911072098,-1.3712075708392109,-2.7999231747051105,0.889089345077891
755,1.3684973132707459,-0.7981676259417205,-0.7794145011656557,0.6176543245805082,-1.1333425402446653,0.1422575003863571
756,-1.2143535393522231,-1.624699894073861,2.311033572232172,-1.629251729014673,-1.3218097154137955,0.5858062718487935
757,1.3448158602171834,-1.3318063944685155,1.195560834808945,1.4190408216762433,1.7576473537994284,2.398977580366881
758,2.8117435401327704,1.2533540796180693,-1.1678640005708436,0.9661566251850386,2.8980405227853847,-1.4922177553446763
759,2.2685443235479266,-1.2061447560288467,2.904284179390599,1.1450465649292534,-0.9848136814152957,2.852971166552871
760,1.271226278800591,-1.2263010258899405,0.17496844163897807,1.684768691084864,2.8317085928463017,0.4604303970241972
761,-2.052878931961219,-2.4249149628153943,2.924887458298026,0.42331375276936845,-2.5019426748485327,-0.5016881403334215
762,2.6650889239265485,2.86055127770841,2.5638722987012965,-0.5964376652852463,-1.056579852715025,2.7401736214479175
763,1.9987497705772306,0.6853940797042779,-2.982441632368203,0.19557249358978268,2.398256327375406,1.2125004719290304
764,3.0354858274745027,0.9551394962297728,-2.1204498025827316,-0.25279491584328984,2.39784103341995,0.8482243046725015
765,-1.520898192118479,1.9589107234326057,-1.992444737352339,1.4259299430319157,1.8153582713756,-0.2901330009248202
766,-1.2258336085393664,1.7759844245016714,0.3083991477876724,0.7076231074231139,-2.393399430677502,-1.366919456456799
767,2.9275434201718884,1.5125224640543449,-2.5206342752188107,-1.4376421363790048,3.02133330081565,2.732525489213301
768,-1.160744087986678,-0.3858873492009103,-1.0265443617208225,0.36439486579319924,0.37227600034701336,3.0013914758662423
769,-0.1982382950430761,-2.1497128813864723,-2.6534761253235817,-2.2221681938551274,-2.117653332417975,2.258973019639905
770,2.437989072940926,1.2851422394510763,0.028919076796662058,-1.1960922165238634,-1.4529897522343023,1.1312208084052209
771,0.7672314448283171,1.202251299281377,1.1824237348773963,-1.0436803018940068,-0.973858233071879,-2.730907373325213
772,1.3774059231734377,-2.1019702522409425,0.7068976043416764,0.8295986972616687,1.4044960280841794,0.802433422565811
773,-0.7207098909581355,-1.31901096475821,-1.151055825267227,-2.9360157821589343,-1.5270737689258718,0.32395020296547594
774,-1.6052743603577164,1.6177621705015692,2.301630029132233,-0.9759423464390826,1.2899977975622585,2.371243100893672
775,-0.7829192645238594,-1.8017247248182444,-1.1766424005041631,2.6732986224980744,-0.13083391430628577,1.0523905518834482
776,-1.9053365357450258,2.527839163961551,-0.09521755242714747,-2.074151976067797,-1.9346521614704049,-0.9870713506499684
777,2.8001562127145148,2.9750227577805344,1.0352704663337695,2.3394866431076746,3.0582891332450792,1.395954524301719
778,-1.8201101289336934,-3.024455517086382,-2.469801336183049,2.5258808741073304,0.9333869133538322,-2.1110888185527754
779,-2.402490659007441,0.6638444894818658,-0.9771455474127353,-2.7250232280033613,-0.5505762576149609,-2.7342209060845324
780,2.456253712964167,2.4256759773148246,0.28119472734010964,0.5815238008768797,-1.5853620617134807,-2.8285366132268446
781,1.7175875769029627,-2.079572953456654,0.9408802489290622,-0.40786294722875915,-1.5853531552716023,2.4727865588824436
782,1.865269787606553,-3.1163726888441237,-2.0573993277304172,-0.7072086729310971,2.00311651860999,-0.19785900101168297
783,1.9820139338764386,0.41965412270305036,0.20404149594508914,-0.6325522154660139,-1.0854835016218765,-2.6476025963175767
784,2.6440698003476752,0.10904841529162512,1.7493357872416233,-2.0134277577655855,0.8588486893706868,-0.6596003878543879
785,-0.6084818874950937,-2.06689924286044,0.022604095845680128,-3.0129416025474267,0.41756241248829706,2.319557077753738
786,-0.5332052884444392,1.7941563296016048,2.3936136849844356,-2.5283460258495443,1.6570461098964318,0.9896472967226062
787,2.71999650037782,-3.0542527305369527,2.8401045336692876,-0.7521147781296293,-2.7684081539648093,1.4522617728827365
788,-2.4410046940305423,2.88117877670168,-1.2118379641979198,-1.2639826019670597,2.4574257750665485,-2.118705201733926
789,-2.3577983162284046,-2.316242369233602,0.49334177329476914,-1.2054450483251633,-2.58240530843279,1.4402682084215606
790,-3.0606935993554214,-1.1429166276258216,3.0767589598183216,2.253757962652837,-0.09493941025626063,-2.8167347366132316
791,0.3896523296267924,0.5364607798196972,-1.0542523264306238,1.289111133658703,2.5961544062403554,-0.9760644920696127
792,-2.0643943630444364,0.08957211686538624,1.5093909308964273,-1.7283718900192573,1.4190779912441744,0.548178461749091
793,2.920465006012753,-0.9484753853663332,-0.4612524755218326,2.512534309559185,0.41228994598453195,3.1230594402044156
794,-2.428569010463396,-1.1906397682203507,0.415520068056479,-2.752760795865299,-2.079313280028659,-1.9623728416826614
795,-0.05005668860256174,0.8173569898453987,-2.373967858241225,-1.0099519564290835,-1.3619124057647705,0.8244412404779826
796,-1.7783543723722441,-2.4005431630620757,1.1754436923434035,-2.023603145646552,1.2353607953019372,3.114770010796798
797,-2.9917769462281383,0.493562224798755,2.0100496148040508,-2.840120585423414,-1.2731247521566778,-2.3984960106077176
798,0.7405877710901625,0.9295254979091565,-2.663777233863714,-1.0553306254137338,2.942213559609474,1.1701809118685356
799,0.7934253776613174,3.0654577907691323,0.9018772137967845,1.5689158806104269,1.2944128648502815,0.6527220288805395
800,-1.0523375787303482,-3.044316011986039,-2.990769866331062,0.5441796249691819,1.0249738879284225,-0.7514733949542136
801,2.4876307939142617,-0.5606177947166389,-1.2482046925946864,0.33758422398240784,2.988462746080806,2.345857656486488
802,-1.989069813267446,-1.4302842424832252,1.0596481060970087,1.6239069425100485,-0.8259257262972532,2.3291854031517003
803,-1.3580750590819497,-1.9922579830356333,2.8218656615553908,-2.826859862816725,2.025795596997267,-2.8934715849958033
804,-2.7806059411365824,-2.018329361015359,-2.1655616260667743,-2.147480181350919,-0.04616574869475176,-1.5697826652508353
805,2.459238614695403,3.1017770608730038,0.3475999774514511,0.7514376806962035,-0.7062281609039722,0.9545640483800035
806,1.984253362595374,-0.34771446376656723,-2.2364580863415315,1.5496188331977194,-2.5709937685633317,2.3961277884292853
807,-0.5054757147005016,-2.664772128662169,1.2016024459637151,1.7962787974288537,1.4942201891304228,-0.7237212066537135
808,0.5706528457882474,-1.9891990159145048,-3.002990206170771,-0.29225085849697097,-2.3756517879984824,-1.5779413901790376
809,2.6488951737386026,-2.026828362454742,0.5925465001963621,-1.2010993079679502,-2.8767059970711424,1.5192739190218267
810,0.21311908121066958,2.6324070841943197,-2.8353901722891743,-2.5080417445881125,2.8843254108118455,1.4922151547052591
811,-2.5646936290202604,2.044365236310531,-0.9942849649877994,-0.05645374802981573,-1.5624050780483065,2.1357935044093788
812,-2.9063722291596763,-1.8010693543344052,-0.03550936642935776,-0.796207601212942,-0.6169198667277782,-0.21109375230188654
813,-2.4449107753931956,1.5844942623279614,1.628814978566706,1.2885251264385111,0.7506650270805766,1.3969790414406207
814,-2.625220443844042,-1.9949143498289454,1.8822486961443312,-0.41529583678901627,1.907742505254391,3.0476029835803438
815,0.6438649298362122,-0.09934354200991136,-1.411291827260774,-0.32054009065797073,-3.0539638814406294,0.32744517717293453
816,0.7119734096210388,2.1694930080163477,-3.1192399236628208,-3.132220946813917,-0.5733347829855009,1.1456382843078101
817,-2.953988269035026,-2.9063173972643432,-1.4447170411490484,1.7574133266623306,-1.2727399189237505,-0.7173360681384762
818,-0.5609285568915623,2.927812323868242,-0.7336440526943804,-2.261060132079898,-2.629238482949938,-2.3581549631407097
819,-2.3182182138566754,-0.7074861036457993,0.282099582887565,0.6291984339840218,-2.4635595655816958,-2.054780966551239
820,-2.112341509701273,-1.781978237036672,2.411986609095023,-1.8339450266987336,2.6903802258573855,-1.9917826620124162
821,2.201550577240223,-2.3420702052265576,-0.9072091817209236,3.106254914446885,-0.9999594267029597,-1.4722609972338212
822,-2.8384156652657735,-0.0003080130525652258,-0.28379793044194157,2.181195903849403,-1.3764172510937238,-2.107505751258673
823,1.7262772953058798,0.23460329373390154,-1.6261932008040916,2.4085040336436663,-1.2517651401937477,2.638406155346135
824,-2.6599691520534905,-2.2674271494407163,1.323626321269261,-0.8497542934003444,0.8323074704313389,-2.44636654157573
825,0.7656177225073328,0.046989767272224814,2.3400431002001145,-1.8187784941479297,-2.1092990733755537,0.8854915761445206
